;FLAVOR:Mach3
;TIME:1637
;Generated with Cura_SteamEngine 3.5.1
M109 S0
M82 ;absolute extrusion mode
G21
G92 Z0
G1 F6000 Z-170.0
;Prime the extruder
G92 A0 X0 Y0 Z0
G1 F200 A0.01
G92 A0
G92 A0
;LAYER_COUNT:101
;LAYER:0
M107
;TYPE:SKIRT
G1 F1050 X47.637 Y102.096 A0.0105
G1 X48.425 Y101.902 A0.021
G1 X49.229 Y101.786 A0.0315
G1 X50 Y101.75 A0.04149
G1 X100 Y101.75 A0.6881
G1 X100.811 Y101.79 A0.6986
G1 X101.614 Y101.91 A0.7091
G1 X102.402 Y102.107 A0.7196
G1 X103.167 Y102.382 A0.73012
G1 X103.9 Y102.73 A0.74061
G1 X104.596 Y103.149 A0.75112
G1 X105.247 Y103.634 A0.76161
G1 X105.848 Y104.181 A0.77212
G1 X106.392 Y104.784 A0.78263
G1 X106.874 Y105.438 A0.79313
G1 X107.289 Y106.136 A0.80363
G1 X107.634 Y106.871 A0.81413
G1 X107.904 Y107.637 A0.82464
G1 X108.098 Y108.425 A0.83513
G1 X108.214 Y109.229 A0.84564
G1 X108.25 Y110 A0.85562
G1 X108.25 Y160 A1.50223
G1 X108.21 Y160.811 A1.51273
G1 X108.09 Y161.614 A1.52323
G1 X107.893 Y162.402 A1.53374
G1 X107.618 Y163.167 A1.54425
G1 X107.27 Y163.9 A1.55474
G1 X106.851 Y164.596 A1.56525
G1 X106.366 Y165.247 A1.57575
G1 X105.819 Y165.848 A1.58626
G1 X105.216 Y166.392 A1.59676
G1 X104.562 Y166.874 A1.60727
G1 X103.864 Y167.289 A1.61777
G1 X103.129 Y167.634 A1.62827
G1 X102.363 Y167.904 A1.63877
G1 X101.575 Y168.098 A1.64927
G1 X100.771 Y168.214 A1.65977
G1 X100 Y168.25 A1.66975
G1 X50 Y168.25 A2.31637
G1 X49.189 Y168.21 A2.32687
G1 X48.386 Y168.09 A2.33737
G1 X47.598 Y167.893 A2.34787
G1 X46.833 Y167.618 A2.35839
G1 X46.1 Y167.27 A2.36888
G1 X45.404 Y166.851 A2.37938
G1 X44.753 Y166.366 A2.38988
G1 X44.152 Y165.819 A2.40039
G1 X43.608 Y165.216 A2.4109
G1 X43.126 Y164.562 A2.4214
G1 X42.711 Y163.864 A2.4319
G1 X42.366 Y163.129 A2.4424
G1 X42.096 Y162.363 A2.45291
G1 X41.902 Y161.575 A2.4634
G1 X41.786 Y160.771 A2.47391
G1 X41.75 Y160 A2.48389
G1 X41.75 Y110 A3.1305
G1 X41.79 Y109.189 A3.141
G1 X41.91 Y108.386 A3.1515
G1 X42.107 Y107.598 A3.16201
G1 X42.382 Y106.833 A3.17252
G1 X42.73 Y106.1 A3.18301
G1 X43.149 Y105.404 A3.19352
G1 X43.634 Y104.753 A3.20402
G1 X44.181 Y104.152 A3.21453
G1 X44.784 Y103.608 A3.22503
G1 X45.438 Y103.126 A3.23554
G1 X46.136 Y102.711 A3.24604
G1 X46.871 Y102.366 A3.25654
G0 F3600 X48.989 Y107.443
G1 F1050 X49.438 Y107.308 A3.2626
G1 X50 Y107.25 A3.26991
G1 X100 Y107.25 A3.91652
G1 X100.467 Y107.29 A3.92258
G1 X100.92 Y107.409 A3.92864
G1 X101.347 Y107.602 A3.9347
G1 X101.734 Y107.866 A3.94076
G1 X102.072 Y108.191 A3.94682
G1 X102.349 Y108.569 A3.95288
G1 X102.557 Y108.989 A3.95894
G1 X102.692 Y109.438 A3.96501
G1 X102.75 Y110 A3.97231
G1 X102.75 Y160 A4.61893
G1 X102.71 Y160.467 A4.62499
G1 X102.591 Y160.92 A4.63104
G1 X102.398 Y161.347 A4.6371
G1 X102.134 Y161.734 A4.64316
G1 X101.809 Y162.072 A4.64923
G1 X101.431 Y162.349 A4.65529
G1 X101.011 Y162.557 A4.66135
G1 X100.562 Y162.692 A4.66741
G1 X100 Y162.75 A4.67472
G1 X50 Y162.75 A5.32133
G1 X49.533 Y162.71 A5.32739
G1 X49.08 Y162.591 A5.33345
G1 X48.653 Y162.398 A5.33951
G1 X48.266 Y162.134 A5.34557
G1 X47.928 Y161.809 A5.35163
G1 X47.651 Y161.431 A5.35769
G1 X47.443 Y161.011 A5.36375
G1 X47.308 Y160.562 A5.36982
G1 X47.25 Y160 A5.37712
G1 X47.25 Y110 A6.02374
G1 X47.29 Y109.533 A6.0298
G1 X47.409 Y109.08 A6.03585
G1 X47.602 Y108.653 A6.04191
G1 X47.866 Y108.266 A6.04797
G1 X48.191 Y107.928 A6.05404
G1 X48.569 Y107.651 A6.0601
G1 X48.989 Y107.443 A6.06616
G0 F3600 X52.764 Y109.335
G0 X52.764 Y112.764
G0 X97.15 Y157.18
G0 X97.25 Y157.25
;TYPE:WALL-OUTER
G1 F1050 X52.75 Y157.25 A6.64164
G1 X52.75 Y112.75 A7.21713
G1 X97.25 Y112.75 A7.79262
G1 X97.25 Y157.25 A8.3681
G0 F3600 X94.5 Y157.25
G0 X91.76 Y151.76
;TYPE:SKIN
G1 F1050 X58.24 Y151.76 A8.80159
G1 X58.24 Y118.24 A9.23508
G1 X91.76 Y118.24 A9.66857
G1 X91.76 Y151.76 A10.10206
G0 F3600 X89.284 Y128.175
G1 F1050 X81.823 Y120.714 A10.23851
G0 F3600 X74.045 Y120.714
G1 F1050 X89.284 Y135.954 A10.51723
G0 F3600 X89.284 Y143.732
G1 F1050 X66.267 Y120.714 A10.93819
G0 F3600 X60.715 Y122.94
G1 F1050 X87.058 Y149.284 A11.41999
G0 F3600 X79.28 Y149.284
G1 F1050 X60.715 Y130.718 A11.75953
G0 F3600 X60.715 Y138.496
G1 F1050 X71.502 Y149.284 A11.95682
G0 F3600 X63.724 Y149.284
G1 F1050 X60.715 Y146.274 A12.01187
G0 F3600 X97.18 Y157.18
G0 X97.25 Y157.25
;TIME_ELAPSED:58.299973
;LAYER:1
M106 S255
G0 F5400 X97.25 Y157.25 Z0.8
;TYPE:WALL-OUTER
G1 F1050 X52.75 Y157.25 A12.97101
G1 X52.75 Y112.75 A13.93015
G1 X97.25 Y112.75 A14.88929
G1 X97.25 Y157.25 A15.84844
G0 F5400 X94.5 Y157.25
G0 X91.76 Y151.76
;TYPE:SKIN
G1 F1050 X58.24 Y151.76 A16.57092
G1 X58.24 Y118.24 A17.2934
G1 X91.76 Y118.24 A18.01588
G1 X91.76 Y151.76 A18.73836
G0 F5400 X84.06 Y149.284
G1 F1050 X89.284 Y144.06 A18.8976
G0 F5400 X89.284 Y136.282
G1 F1050 X76.282 Y149.284 A19.29392
G0 F5400 X68.504 Y149.284
G1 F1050 X89.284 Y128.503 A19.92735
G0 F5400 X89.284 Y120.725
G1 F1050 X60.726 Y149.284 A20.79785
G0 F5400 X60.715 Y141.517
G1 F1050 X81.518 Y120.714 A21.43196
G0 F5400 X73.739 Y120.714
G1 F1050 X60.715 Y133.739 A21.82897
G0 F5400 X60.715 Y125.961
G1 F1050 X65.961 Y120.714 A21.98889
G0 F5400 X81.536 Y141.536
;TIME_ELAPSED:86.069506
;LAYER:2
G0 F7200 X81.536 Y141.536 Z1.3
;TYPE:FILL
G1 F2100 X68.464 Y141.536 A22.27064
G1 X68.464 Y128.464 A22.5524
G1 X81.536 Y128.464 A22.83415
G1 X81.536 Y141.536 A23.1159
G0 F7200 X89.393 Y149.393
G1 F2100 X60.607 Y149.393 A23.73634
G1 X60.607 Y120.607 A24.35679
G1 X89.393 Y120.607 A24.97724
G1 X89.393 Y149.393 A25.59768
G0 F7200 X97.18 Y157.18
G0 X97.25 Y157.25
;TYPE:WALL-OUTER
G1 F1050 X52.75 Y157.25 A26.55683
G1 X52.75 Y112.75 A27.51597
G1 X97.25 Y112.75 A28.47511
G1 X97.25 Y157.25 A29.43425
G0 F7200 X94.5 Y157.25
G0 X91.75 Y151.75
G0 X81.536 Y141.536
;TIME_ELAPSED:101.661714
;LAYER:3
G0 X81.536 Y141.536 Z1.8
;TYPE:FILL
G1 F2100 X68.464 Y141.536 A29.716
G1 X68.464 Y128.464 A29.99775
G1 X81.536 Y128.464 A30.27951
G1 X81.536 Y141.536 A30.56126
G0 F7200 X89.393 Y149.393
G1 F2100 X60.607 Y149.393 A31.1817
G1 X60.607 Y120.607 A31.80215
G1 X89.393 Y120.607 A32.4226
G1 X89.393 Y149.393 A33.04304
G0 F7200 X97.18 Y157.18
G0 X97.25 Y157.25
;TYPE:WALL-OUTER
G1 F1050 X52.75 Y157.25 A34.00218
G1 X52.75 Y112.75 A34.96133
G1 X97.25 Y112.75 A35.92047
G1 X97.25 Y157.25 A36.87961
G0 F7200 X94.5 Y157.25
G0 X91.75 Y151.75
G0 X81.536 Y141.536
;TIME_ELAPSED:117.253922
;LAYER:4
G0 X81.536 Y141.536 Z2.3
;TYPE:FILL
G1 F2100 X68.464 Y141.536 A37.16136
G1 X68.464 Y128.464 A37.44311
G1 X81.536 Y128.464 A37.72486
G1 X81.536 Y141.536 A38.00662
G0 F7200 X89.393 Y149.393
G1 F2100 X60.607 Y149.393 A38.62706
G1 X60.607 Y120.607 A39.24751
G1 X89.393 Y120.607 A39.86796
G1 X89.393 Y149.393 A40.4884
G0 F7200 X97.18 Y157.18
G0 X97.25 Y157.25
;TYPE:WALL-OUTER
G1 F1050 X52.75 Y157.25 A41.44754
G1 X52.75 Y112.75 A42.40669
G1 X97.25 Y112.75 A43.36583
G1 X97.25 Y157.25 A44.32497
G0 F7200 X94.5 Y157.25
G0 X91.75 Y151.75
G0 X81.536 Y141.536
;TIME_ELAPSED:132.846130
;LAYER:5
G0 X81.536 Y141.536 Z2.8
;TYPE:FILL
G1 F2100 X68.464 Y141.536 A44.60672
G1 X68.464 Y128.464 A44.88847
G1 X81.536 Y128.464 A45.17022
G1 X81.536 Y141.536 A45.45197
G0 F7200 X89.393 Y149.393
G1 F2100 X60.607 Y149.393 A46.07242
G1 X60.607 Y120.607 A46.69287
G1 X89.393 Y120.607 A47.31331
G1 X89.393 Y149.393 A47.93376
G0 F7200 X97.18 Y157.18
G0 X97.25 Y157.25
;TYPE:WALL-OUTER
G1 F1050 X52.75 Y157.25 A48.8929
G1 X52.75 Y112.75 A49.85205
G1 X97.25 Y112.75 A50.81119
G1 X97.25 Y157.25 A51.77033
G0 F7200 X94.5 Y157.25
G0 X91.75 Y151.75
G0 X81.536 Y141.536
;TIME_ELAPSED:148.438338
;LAYER:6
G0 X81.536 Y141.536 Z3.3
;TYPE:FILL
G1 F2100 X68.464 Y141.536 A52.05208
G1 X68.464 Y128.464 A52.33383
G1 X81.536 Y128.464 A52.61558
G1 X81.536 Y141.536 A52.89733
G0 F7200 X89.393 Y149.393
G1 F2100 X60.607 Y149.393 A53.51778
G1 X60.607 Y120.607 A54.13823
G1 X89.393 Y120.607 A54.75867
G1 X89.393 Y149.393 A55.37912
G0 F7200 X97.18 Y157.18
G0 X97.25 Y157.25
;TYPE:WALL-OUTER
G1 F1050 X52.75 Y157.25 A56.33826
G1 X52.75 Y112.75 A57.29741
G1 X97.25 Y112.75 A58.25655
G1 X97.25 Y157.25 A59.21569
G0 F7200 X94.5 Y157.25
G0 X91.75 Y151.75
G0 X81.536 Y141.536
;TIME_ELAPSED:164.030545
;LAYER:7
G0 X81.536 Y141.536 Z3.8
;TYPE:FILL
G1 F2100 X68.464 Y141.536 A59.49744
G1 X68.464 Y128.464 A59.77919
G1 X81.536 Y128.464 A60.06094
G1 X81.536 Y141.536 A60.34269
G0 F7200 X89.393 Y149.393
G1 F2100 X60.607 Y149.393 A60.96314
G1 X60.607 Y120.607 A61.58359
G1 X89.393 Y120.607 A62.20403
G1 X89.393 Y149.393 A62.82448
G0 F7200 X97.18 Y157.18
G0 X97.25 Y157.25
;TYPE:WALL-OUTER
G1 F1050 X52.75 Y157.25 A63.78362
G1 X52.75 Y112.75 A64.74276
G1 X97.25 Y112.75 A65.70191
G1 X97.25 Y157.25 A66.66105
G0 F7200 X94.5 Y157.25
G0 X91.75 Y151.75
G0 X81.536 Y141.536
;TIME_ELAPSED:179.622753
;LAYER:8
G0 X81.536 Y141.536 Z4.3
;TYPE:FILL
G1 F2100 X68.464 Y141.536 A66.9428
G1 X68.464 Y128.464 A67.22455
G1 X81.536 Y128.464 A67.5063
G1 X81.536 Y141.536 A67.78805
G0 F7200 X89.393 Y149.393
G1 F2100 X60.607 Y149.393 A68.4085
G1 X60.607 Y120.607 A69.02895
G1 X89.393 Y120.607 A69.64939
G1 X89.393 Y149.393 A70.26984
G0 F7200 X97.18 Y157.18
G0 X97.25 Y157.25
;TYPE:WALL-OUTER
G1 F1050 X52.75 Y157.25 A71.22898
G1 X52.75 Y112.75 A72.18812
G1 X97.25 Y112.75 A73.14727
G1 X97.25 Y157.25 A74.10641
G0 F7200 X94.5 Y157.25
G0 X91.75 Y151.75
G0 X81.536 Y141.536
;TIME_ELAPSED:195.214961
;LAYER:9
G0 X81.536 Y141.536 Z4.8
;TYPE:FILL
G1 F2100 X68.464 Y141.536 A74.38816
G1 X68.464 Y128.464 A74.66991
G1 X81.536 Y128.464 A74.95166
G1 X81.536 Y141.536 A75.23341
G0 F7200 X89.393 Y149.393
G1 F2100 X60.607 Y149.393 A75.85386
G1 X60.607 Y120.607 A76.47431
G1 X89.393 Y120.607 A77.09475
G1 X89.393 Y149.393 A77.7152
G0 F7200 X97.18 Y157.18
G0 X97.25 Y157.25
;TYPE:WALL-OUTER
G1 F1050 X52.75 Y157.25 A78.67434
G1 X52.75 Y112.75 A79.63348
G1 X97.25 Y112.75 A80.59263
G1 X97.25 Y157.25 A81.55177
G0 F7200 X94.5 Y157.25
G0 X91.75 Y151.75
G0 X81.536 Y141.536
;TIME_ELAPSED:210.807169
;LAYER:10
G0 X81.536 Y141.536 Z5.3
;TYPE:FILL
G1 F2100 X68.464 Y141.536 A81.83352
G1 X68.464 Y128.464 A82.11527
G1 X81.536 Y128.464 A82.39702
G1 X81.536 Y141.536 A82.67877
G0 F7200 X89.393 Y149.393
G1 F2100 X60.607 Y149.393 A83.29922
G1 X60.607 Y120.607 A83.91966
G1 X89.393 Y120.607 A84.54011
G1 X89.393 Y149.393 A85.16056
G0 F7200 X97.18 Y157.18
G0 X97.25 Y157.25
;TYPE:WALL-OUTER
G1 F1050 X52.75 Y157.25 A86.1197
G1 X52.75 Y112.75 A87.07884
G1 X97.25 Y112.75 A88.03799
G1 X97.25 Y157.25 A88.99713
G0 F7200 X94.5 Y157.25
G0 X91.75 Y151.75
G0 X81.536 Y141.536
;TIME_ELAPSED:226.399377
;LAYER:11
G0 X81.536 Y141.536 Z5.8
;TYPE:FILL
G1 F2100 X68.464 Y141.536 A89.27888
G1 X68.464 Y128.464 A89.56063
G1 X81.536 Y128.464 A89.84238
G1 X81.536 Y141.536 A90.12413
G0 F7200 X89.393 Y149.393
G1 F2100 X60.607 Y149.393 A90.74458
G1 X60.607 Y120.607 A91.36502
G1 X89.393 Y120.607 A91.98547
G1 X89.393 Y149.393 A92.60592
G0 F7200 X97.18 Y157.18
G0 X97.25 Y157.25
;TYPE:WALL-OUTER
G1 F1050 X52.75 Y157.25 A93.56506
G1 X52.75 Y112.75 A94.5242
G1 X97.25 Y112.75 A95.48334
G1 X97.25 Y157.25 A96.44249
G0 F7200 X94.5 Y157.25
G0 X91.75 Y151.75
G0 X81.536 Y141.536
;TIME_ELAPSED:241.991585
;LAYER:12
G0 X81.536 Y141.536 Z6.3
;TYPE:FILL
G1 F2100 X68.464 Y141.536 A96.72424
G1 X68.464 Y128.464 A97.00599
G1 X81.536 Y128.464 A97.28774
G1 X81.536 Y141.536 A97.56949
G0 F7200 X89.393 Y149.393
G1 F2100 X60.607 Y149.393 A98.18994
G1 X60.607 Y120.607 A98.81038
G1 X89.393 Y120.607 A99.43083
G1 X89.393 Y149.393 A100.05128
G0 F7200 X97.18 Y157.18
G0 X97.25 Y157.25
;TYPE:WALL-OUTER
G1 F1050 X52.75 Y157.25 A101.01042
G1 X52.75 Y112.75 A101.96956
G1 X97.25 Y112.75 A102.9287
G1 X97.25 Y157.25 A103.88785
G0 F7200 X94.5 Y157.25
G0 X91.75 Y151.75
G0 X81.536 Y141.536
;TIME_ELAPSED:257.583793
;LAYER:13
G0 X81.536 Y141.536 Z6.8
;TYPE:FILL
G1 F2100 X68.464 Y141.536 A104.1696
G1 X68.464 Y128.464 A104.45135
G1 X81.536 Y128.464 A104.7331
G1 X81.536 Y141.536 A105.01485
G0 F7200 X89.393 Y149.393
G1 F2100 X60.607 Y149.393 A105.6353
G1 X60.607 Y120.607 A106.25574
G1 X89.393 Y120.607 A106.87619
G1 X89.393 Y149.393 A107.49664
G0 F7200 X97.18 Y157.18
G0 X97.25 Y157.25
;TYPE:WALL-OUTER
G1 F1050 X52.75 Y157.25 A108.45578
G1 X52.75 Y112.75 A109.41492
G1 X97.25 Y112.75 A110.37406
G1 X97.25 Y157.25 A111.33321
G0 F7200 X94.5 Y157.25
G0 X91.75 Y151.75
G0 X81.536 Y141.536
;TIME_ELAPSED:273.176001
;LAYER:14
G0 X81.536 Y141.536 Z7.3
;TYPE:FILL
G1 F2100 X68.464 Y141.536 A111.61496
G1 X68.464 Y128.464 A111.89671
G1 X81.536 Y128.464 A112.17846
G1 X81.536 Y141.536 A112.46021
G0 F7200 X89.393 Y149.393
G1 F2100 X60.607 Y149.393 A113.08066
G1 X60.607 Y120.607 A113.7011
G1 X89.393 Y120.607 A114.32155
G1 X89.393 Y149.393 A114.942
G0 F7200 X97.18 Y157.18
G0 X97.25 Y157.25
;TYPE:WALL-OUTER
G1 F1050 X52.75 Y157.25 A115.90114
G1 X52.75 Y112.75 A116.86028
G1 X97.25 Y112.75 A117.81942
G1 X97.25 Y157.25 A118.77857
G0 F7200 X94.5 Y157.25
G0 X91.75 Y151.75
G0 X81.536 Y141.536
;TIME_ELAPSED:288.768208
;LAYER:15
G0 X81.536 Y141.536 Z7.8
;TYPE:FILL
G1 F2100 X68.464 Y141.536 A119.06032
G1 X68.464 Y128.464 A119.34207
G1 X81.536 Y128.464 A119.62382
G1 X81.536 Y141.536 A119.90557
G0 F7200 X89.393 Y149.393
G1 F2100 X60.607 Y149.393 A120.52601
G1 X60.607 Y120.607 A121.14646
G1 X89.393 Y120.607 A121.76691
G1 X89.393 Y149.393 A122.38735
G0 F7200 X97.18 Y157.18
G0 X97.25 Y157.25
;TYPE:WALL-OUTER
G1 F1050 X52.75 Y157.25 A123.3465
G1 X52.75 Y112.75 A124.30564
G1 X97.25 Y112.75 A125.26478
G1 X97.25 Y157.25 A126.22392
G0 F7200 X94.5 Y157.25
G0 X91.75 Y151.75
G0 X81.536 Y141.536
;TIME_ELAPSED:304.360416
;LAYER:16
G0 X81.536 Y141.536 Z8.3
;TYPE:FILL
G1 F2100 X68.464 Y141.536 A126.50568
G1 X68.464 Y128.464 A126.78743
G1 X81.536 Y128.464 A127.06918
G1 X81.536 Y141.536 A127.35093
G0 F7200 X89.393 Y149.393
G1 F2100 X60.607 Y149.393 A127.97137
G1 X60.607 Y120.607 A128.59182
G1 X89.393 Y120.607 A129.21227
G1 X89.393 Y149.393 A129.83271
G0 F7200 X97.18 Y157.18
G0 X97.25 Y157.25
;TYPE:WALL-OUTER
G1 F1050 X52.75 Y157.25 A130.79186
G1 X52.75 Y112.75 A131.751
G1 X97.25 Y112.75 A132.71014
G1 X97.25 Y157.25 A133.66928
G0 F7200 X94.5 Y157.25
G0 X91.75 Y151.75
G0 X81.536 Y141.536
;TIME_ELAPSED:319.952624
;LAYER:17
G0 X81.536 Y141.536 Z8.8
;TYPE:FILL
G1 F2100 X68.464 Y141.536 A133.95103
G1 X68.464 Y128.464 A134.23279
G1 X81.536 Y128.464 A134.51454
G1 X81.536 Y141.536 A134.79629
G0 F7200 X89.393 Y149.393
G1 F2100 X60.607 Y149.393 A135.41673
G1 X60.607 Y120.607 A136.03718
G1 X89.393 Y120.607 A136.65763
G1 X89.393 Y149.393 A137.27807
G0 F7200 X97.18 Y157.18
G0 X97.25 Y157.25
;TYPE:WALL-OUTER
G1 F1050 X52.75 Y157.25 A138.23722
G1 X52.75 Y112.75 A139.19636
G1 X97.25 Y112.75 A140.1555
G1 X97.25 Y157.25 A141.11464
G0 F7200 X94.5 Y157.25
G0 X91.75 Y151.75
G0 X81.536 Y141.536
;TIME_ELAPSED:335.544832
;LAYER:18
G0 X81.536 Y141.536 Z9.3
;TYPE:FILL
G1 F2100 X68.464 Y141.536 A141.39639
G1 X68.464 Y128.464 A141.67814
G1 X81.536 Y128.464 A141.9599
G1 X81.536 Y141.536 A142.24165
G0 F7200 X89.393 Y149.393
G1 F2100 X60.607 Y149.393 A142.86209
G1 X60.607 Y120.607 A143.48254
G1 X89.393 Y120.607 A144.10299
G1 X89.393 Y149.393 A144.72343
G0 F7200 X97.18 Y157.18
G0 X97.25 Y157.25
;TYPE:WALL-OUTER
G1 F1050 X52.75 Y157.25 A145.68258
G1 X52.75 Y112.75 A146.64172
G1 X97.25 Y112.75 A147.60086
G1 X97.25 Y157.25 A148.56
G0 F7200 X94.5 Y157.25
G0 X91.75 Y151.75
G0 X81.536 Y141.536
;TIME_ELAPSED:351.137040
;LAYER:19
G0 X81.536 Y141.536 Z9.8
;TYPE:FILL
G1 F2100 X68.464 Y141.536 A148.84175
G1 X68.464 Y128.464 A149.1235
G1 X81.536 Y128.464 A149.40525
G1 X81.536 Y141.536 A149.68701
G0 F7200 X89.393 Y149.393
G1 F2100 X60.607 Y149.393 A150.30745
G1 X60.607 Y120.607 A150.9279
G1 X89.393 Y120.607 A151.54835
G1 X89.393 Y149.393 A152.16879
G0 F7200 X97.18 Y157.18
G0 X97.25 Y157.25
;TYPE:WALL-OUTER
G1 F1050 X52.75 Y157.25 A153.12793
G1 X52.75 Y112.75 A154.08708
G1 X97.25 Y112.75 A155.04622
G1 X97.25 Y157.25 A156.00536
G0 F7200 X94.5 Y157.25
G0 X91.75 Y151.75
G0 X81.536 Y141.536
;TIME_ELAPSED:366.729248
;LAYER:20
G0 X81.536 Y141.536 Z10.3
;TYPE:FILL
G1 F2100 X68.464 Y141.536 A156.28711
G1 X68.464 Y128.464 A156.56886
G1 X81.536 Y128.464 A156.85061
G1 X81.536 Y141.536 A157.13237
G0 F7200 X89.393 Y149.393
G1 F2100 X60.607 Y149.393 A157.75281
G1 X60.607 Y120.607 A158.37326
G1 X89.393 Y120.607 A158.9937
G1 X89.393 Y149.393 A159.61415
G0 F7200 X97.18 Y157.18
G0 X97.25 Y157.25
;TYPE:WALL-OUTER
G1 F1050 X52.75 Y157.25 A160.57329
G1 X52.75 Y112.75 A161.53244
G1 X97.25 Y112.75 A162.49158
G1 X97.25 Y157.25 A163.45072
G0 F7200 X94.5 Y157.25
G0 X91.75 Y151.75
G0 X81.536 Y141.536
;TIME_ELAPSED:382.321456
;LAYER:21
G0 X81.536 Y141.536 Z10.8
;TYPE:FILL
G1 F2100 X68.464 Y141.536 A163.73247
G1 X68.464 Y128.464 A164.01422
G1 X81.536 Y128.464 A164.29597
G1 X81.536 Y141.536 A164.57772
G0 F7200 X89.393 Y149.393
G1 F2100 X60.607 Y149.393 A165.19817
G1 X60.607 Y120.607 A165.81862
G1 X89.393 Y120.607 A166.43906
G1 X89.393 Y149.393 A167.05951
G0 F7200 X97.18 Y157.18
G0 X97.25 Y157.25
;TYPE:WALL-OUTER
G1 F1050 X52.75 Y157.25 A168.01865
G1 X52.75 Y112.75 A168.9778
G1 X97.25 Y112.75 A169.93694
G1 X97.25 Y157.25 A170.89608
G0 F7200 X94.5 Y157.25
G0 X91.75 Y151.75
G0 X81.536 Y141.536
;TIME_ELAPSED:397.913664
;LAYER:22
G0 X81.536 Y141.536 Z11.3
;TYPE:FILL
G1 F2100 X68.464 Y141.536 A171.17783
G1 X68.464 Y128.464 A171.45958
G1 X81.536 Y128.464 A171.74133
G1 X81.536 Y141.536 A172.02308
G0 F7200 X89.393 Y149.393
G1 F2100 X60.607 Y149.393 A172.64353
G1 X60.607 Y120.607 A173.26398
G1 X89.393 Y120.607 A173.88442
G1 X89.393 Y149.393 A174.50487
G0 F7200 X97.18 Y157.18
G0 X97.25 Y157.25
;TYPE:WALL-OUTER
G1 F1050 X52.75 Y157.25 A175.46401
G1 X52.75 Y112.75 A176.42316
G1 X97.25 Y112.75 A177.3823
G1 X97.25 Y157.25 A178.34144
G0 F7200 X94.5 Y157.25
G0 X91.75 Y151.75
G0 X81.536 Y141.536
;TIME_ELAPSED:413.505871
;LAYER:23
G0 X81.536 Y141.536 Z11.8
;TYPE:FILL
G1 F2100 X68.464 Y141.536 A178.62319
G1 X68.464 Y128.464 A178.90494
G1 X81.536 Y128.464 A179.18669
G1 X81.536 Y141.536 A179.46844
G0 F7200 X89.393 Y149.393
G1 F2100 X60.607 Y149.393 A180.08889
G1 X60.607 Y120.607 A180.70934
G1 X89.393 Y120.607 A181.32978
G1 X89.393 Y149.393 A181.95023
G0 F7200 X97.18 Y157.18
G0 X97.25 Y157.25
;TYPE:WALL-OUTER
G1 F1050 X52.75 Y157.25 A182.90937
G1 X52.75 Y112.75 A183.86851
G1 X97.25 Y112.75 A184.82766
G1 X97.25 Y157.25 A185.7868
G0 F7200 X94.5 Y157.25
G0 X91.75 Y151.75
G0 X81.536 Y141.536
;TIME_ELAPSED:429.098079
;LAYER:24
G0 X81.536 Y141.536 Z12.3
;TYPE:FILL
G1 F2100 X68.464 Y141.536 A186.06855
G1 X68.464 Y128.464 A186.3503
G1 X81.536 Y128.464 A186.63205
G1 X81.536 Y141.536 A186.9138
G0 F7200 X89.393 Y149.393
G1 F2100 X60.607 Y149.393 A187.53425
G1 X60.607 Y120.607 A188.1547
G1 X89.393 Y120.607 A188.77514
G1 X89.393 Y149.393 A189.39559
G0 F7200 X97.18 Y157.18
G0 X97.25 Y157.25
;TYPE:WALL-OUTER
G1 F1050 X52.75 Y157.25 A190.35473
G1 X52.75 Y112.75 A191.31387
G1 X97.25 Y112.75 A192.27302
G1 X97.25 Y157.25 A193.23216
G0 F7200 X94.5 Y157.25
G0 X91.75 Y151.75
G0 X81.536 Y141.536
;TIME_ELAPSED:444.690287
;LAYER:25
G0 X81.536 Y141.536 Z12.8
;TYPE:FILL
G1 F2100 X68.464 Y141.536 A193.51391
G1 X68.464 Y128.464 A193.79566
G1 X81.536 Y128.464 A194.07741
G1 X81.536 Y141.536 A194.35916
G0 F7200 X89.393 Y149.393
G1 F2100 X60.607 Y149.393 A194.97961
G1 X60.607 Y120.607 A195.60006
G1 X89.393 Y120.607 A196.2205
G1 X89.393 Y149.393 A196.84095
G0 F7200 X97.18 Y157.18
G0 X97.25 Y157.25
;TYPE:WALL-OUTER
G1 F1050 X52.75 Y157.25 A197.80009
G1 X52.75 Y112.75 A198.75923
G1 X97.25 Y112.75 A199.71838
G1 X97.25 Y157.25 A200.67752
G0 F7200 X94.5 Y157.25
G0 X91.75 Y151.75
G0 X81.536 Y141.536
;TIME_ELAPSED:460.282495
;LAYER:26
G0 X81.536 Y141.536 Z13.3
;TYPE:FILL
G1 F2100 X68.464 Y141.536 A200.95927
G1 X68.464 Y128.464 A201.24102
G1 X81.536 Y128.464 A201.52277
G1 X81.536 Y141.536 A201.80452
G0 F7200 X89.393 Y149.393
G1 F2100 X60.607 Y149.393 A202.42497
G1 X60.607 Y120.607 A203.04541
G1 X89.393 Y120.607 A203.66586
G1 X89.393 Y149.393 A204.28631
G0 F7200 X97.18 Y157.18
G0 X97.25 Y157.25
;TYPE:WALL-OUTER
G1 F1050 X52.75 Y157.25 A205.24545
G1 X52.75 Y112.75 A206.20459
G1 X97.25 Y112.75 A207.16373
G1 X97.25 Y157.25 A208.12288
G0 F7200 X94.5 Y157.25
G0 X91.75 Y151.75
G0 X81.536 Y141.536
;TIME_ELAPSED:475.874703
;LAYER:27
G0 X81.536 Y141.536 Z13.8
;TYPE:FILL
G1 F2100 X68.464 Y141.536 A208.40463
G1 X68.464 Y128.464 A208.68638
G1 X81.536 Y128.464 A208.96813
G1 X81.536 Y141.536 A209.24988
G0 F7200 X89.393 Y149.393
G1 F2100 X60.607 Y149.393 A209.87033
G1 X60.607 Y120.607 A210.49077
G1 X89.393 Y120.607 A211.11122
G1 X89.393 Y149.393 A211.73167
G0 F7200 X97.18 Y157.18
G0 X97.25 Y157.25
;TYPE:WALL-OUTER
G1 F1050 X52.75 Y157.25 A212.69081
G1 X52.75 Y112.75 A213.64995
G1 X97.25 Y112.75 A214.60909
G1 X97.25 Y157.25 A215.56824
G0 F7200 X94.5 Y157.25
G0 X91.75 Y151.75
G0 X81.536 Y141.536
;TIME_ELAPSED:491.466911
;LAYER:28
G0 X81.536 Y141.536 Z14.3
;TYPE:FILL
G1 F2100 X68.464 Y141.536 A215.84999
G1 X68.464 Y128.464 A216.13174
G1 X81.536 Y128.464 A216.41349
G1 X81.536 Y141.536 A216.69524
G0 F7200 X89.393 Y149.393
G1 F2100 X60.607 Y149.393 A217.31569
G1 X60.607 Y120.607 A217.93613
G1 X89.393 Y120.607 A218.55658
G1 X89.393 Y149.393 A219.17703
G0 F7200 X97.18 Y157.18
G0 X97.25 Y157.25
;TYPE:WALL-OUTER
G1 F1050 X52.75 Y157.25 A220.13617
G1 X52.75 Y112.75 A221.09531
G1 X97.25 Y112.75 A222.05445
G1 X97.25 Y157.25 A223.0136
G0 F7200 X94.5 Y157.25
G0 X91.75 Y151.75
G0 X81.536 Y141.536
;TIME_ELAPSED:507.059119
;LAYER:29
G0 X81.536 Y141.536 Z14.8
;TYPE:FILL
G1 F2100 X68.464 Y141.536 A223.29535
G1 X68.464 Y128.464 A223.5771
G1 X81.536 Y128.464 A223.85885
G1 X81.536 Y141.536 A224.1406
G0 F7200 X89.393 Y149.393
G1 F2100 X60.607 Y149.393 A224.76105
G1 X60.607 Y120.607 A225.38149
G1 X89.393 Y120.607 A226.00194
G1 X89.393 Y149.393 A226.62239
G0 F7200 X97.18 Y157.18
G0 X97.25 Y157.25
;TYPE:WALL-OUTER
G1 F1050 X52.75 Y157.25 A227.58153
G1 X52.75 Y112.75 A228.54067
G1 X97.25 Y112.75 A229.49981
G1 X97.25 Y157.25 A230.45896
G0 F7200 X94.5 Y157.25
G0 X91.75 Y151.75
G0 X81.536 Y141.536
;TIME_ELAPSED:522.651327
;LAYER:30
G0 X81.536 Y141.536 Z15.3
;TYPE:FILL
G1 F2100 X68.464 Y141.536 A230.74071
G1 X68.464 Y128.464 A231.02246
G1 X81.536 Y128.464 A231.30421
G1 X81.536 Y141.536 A231.58596
G0 F7200 X89.393 Y149.393
G1 F2100 X60.607 Y149.393 A232.20641
G1 X60.607 Y120.607 A232.82685
G1 X89.393 Y120.607 A233.4473
G1 X89.393 Y149.393 A234.06775
G0 F7200 X97.18 Y157.18
G0 X97.25 Y157.25
;TYPE:WALL-OUTER
G1 F1050 X52.75 Y157.25 A235.02689
G1 X52.75 Y112.75 A235.98603
G1 X97.25 Y112.75 A236.94517
G1 X97.25 Y157.25 A237.90431
G0 F7200 X94.5 Y157.25
G0 X91.75 Y151.75
G0 X81.536 Y141.536
;TIME_ELAPSED:538.243534
;LAYER:31
G0 X81.536 Y141.536 Z15.8
;TYPE:FILL
G1 F2100 X68.464 Y141.536 A238.18607
G1 X68.464 Y128.464 A238.46782
G1 X81.536 Y128.464 A238.74957
G1 X81.536 Y141.536 A239.03132
G0 F7200 X89.393 Y149.393
G1 F2100 X60.607 Y149.393 A239.65176
G1 X60.607 Y120.607 A240.27221
G1 X89.393 Y120.607 A240.89266
G1 X89.393 Y149.393 A241.5131
G0 F7200 X97.18 Y157.18
G0 X97.25 Y157.25
;TYPE:WALL-OUTER
G1 F1050 X52.75 Y157.25 A242.47225
G1 X52.75 Y112.75 A243.43139
G1 X97.25 Y112.75 A244.39053
G1 X97.25 Y157.25 A245.34967
G0 F7200 X94.5 Y157.25
G0 X91.75 Y151.75
G0 X81.536 Y141.536
;TIME_ELAPSED:553.835742
;LAYER:32
G0 X81.536 Y141.536 Z16.3
;TYPE:FILL
G1 F2100 X68.464 Y141.536 A245.63142
G1 X68.464 Y128.464 A245.91318
G1 X81.536 Y128.464 A246.19493
G1 X81.536 Y141.536 A246.47668
G0 F7200 X89.393 Y149.393
G1 F2100 X60.607 Y149.393 A247.09712
G1 X60.607 Y120.607 A247.71757
G1 X89.393 Y120.607 A248.33802
G1 X89.393 Y149.393 A248.95846
G0 F7200 X97.18 Y157.18
G0 X97.25 Y157.25
;TYPE:WALL-OUTER
G1 F1050 X52.75 Y157.25 A249.91761
G1 X52.75 Y112.75 A250.87675
G1 X97.25 Y112.75 A251.83589
G1 X97.25 Y157.25 A252.79503
G0 F7200 X94.5 Y157.25
G0 X91.75 Y151.75
G0 X81.536 Y141.536
;TIME_ELAPSED:569.427950
;LAYER:33
G0 X81.536 Y141.536 Z16.8
;TYPE:FILL
G1 F2100 X68.464 Y141.536 A253.07678
G1 X68.464 Y128.464 A253.35854
G1 X81.536 Y128.464 A253.64029
G1 X81.536 Y141.536 A253.92204
G0 F7200 X89.393 Y149.393
G1 F2100 X60.607 Y149.393 A254.54248
G1 X60.607 Y120.607 A255.16293
G1 X89.393 Y120.607 A255.78338
G1 X89.393 Y149.393 A256.40382
G0 F7200 X97.18 Y157.18
G0 X97.25 Y157.25
;TYPE:WALL-OUTER
G1 F1050 X52.75 Y157.25 A257.36297
G1 X52.75 Y112.75 A258.32211
G1 X97.25 Y112.75 A259.28125
G1 X97.25 Y157.25 A260.24039
G0 F7200 X94.5 Y157.25
G0 X91.75 Y151.75
G0 X81.536 Y141.536
;TIME_ELAPSED:585.020158
;LAYER:34
G0 X81.536 Y141.536 Z17.3
;TYPE:FILL
G1 F2100 X68.464 Y141.536 A260.52214
G1 X68.464 Y128.464 A260.80389
G1 X81.536 Y128.464 A261.08565
G1 X81.536 Y141.536 A261.3674
G0 F7200 X89.393 Y149.393
G1 F2100 X60.607 Y149.393 A261.98784
G1 X60.607 Y120.607 A262.60829
G1 X89.393 Y120.607 A263.22874
G1 X89.393 Y149.393 A263.84918
G0 F7200 X97.18 Y157.18
G0 X97.25 Y157.25
;TYPE:WALL-OUTER
G1 F1050 X52.75 Y157.25 A264.80832
G1 X52.75 Y112.75 A265.76747
G1 X97.25 Y112.75 A266.72661
G1 X97.25 Y157.25 A267.68575
G0 F7200 X94.5 Y157.25
G0 X91.75 Y151.75
G0 X81.536 Y141.536
;TIME_ELAPSED:600.612366
;LAYER:35
G0 X81.536 Y141.536 Z17.8
;TYPE:FILL
G1 F2100 X68.464 Y141.536 A267.9675
G1 X68.464 Y128.464 A268.24925
G1 X81.536 Y128.464 A268.531
G1 X81.536 Y141.536 A268.81276
G0 F7200 X89.393 Y149.393
G1 F2100 X60.607 Y149.393 A269.4332
G1 X60.607 Y120.607 A270.05365
G1 X89.393 Y120.607 A270.6741
G1 X89.393 Y149.393 A271.29454
G0 F7200 X97.18 Y157.18
G0 X97.25 Y157.25
;TYPE:WALL-OUTER
G1 F1050 X52.75 Y157.25 A272.25368
G1 X52.75 Y112.75 A273.21283
G1 X97.25 Y112.75 A274.17197
G1 X97.25 Y157.25 A275.13111
G0 F7200 X94.5 Y157.25
G0 X91.75 Y151.75
G0 X81.536 Y141.536
;TIME_ELAPSED:616.204574
;LAYER:36
G0 X81.536 Y141.536 Z18.3
;TYPE:FILL
G1 F2100 X68.464 Y141.536 A275.41286
G1 X68.464 Y128.464 A275.69461
G1 X81.536 Y128.464 A275.97636
G1 X81.536 Y141.536 A276.25811
G0 F7200 X89.393 Y149.393
G1 F2100 X60.607 Y149.393 A276.87856
G1 X60.607 Y120.607 A277.49901
G1 X89.393 Y120.607 A278.11945
G1 X89.393 Y149.393 A278.7399
G0 F7200 X97.18 Y157.18
G0 X97.25 Y157.25
;TYPE:WALL-OUTER
G1 F1050 X52.75 Y157.25 A279.69904
G1 X52.75 Y112.75 A280.65819
G1 X97.25 Y112.75 A281.61733
G1 X97.25 Y157.25 A282.57647
G0 F7200 X94.5 Y157.25
G0 X91.75 Y151.75
G0 X81.536 Y141.536
;TIME_ELAPSED:631.796782
;LAYER:37
G0 X81.536 Y141.536 Z18.8
;TYPE:FILL
G1 F2100 X68.464 Y141.536 A282.85822
G1 X68.464 Y128.464 A283.13997
G1 X81.536 Y128.464 A283.42172
G1 X81.536 Y141.536 A283.70347
G0 F7200 X89.393 Y149.393
G1 F2100 X60.607 Y149.393 A284.32392
G1 X60.607 Y120.607 A284.94437
G1 X89.393 Y120.607 A285.56481
G1 X89.393 Y149.393 A286.18526
G0 F7200 X97.18 Y157.18
G0 X97.25 Y157.25
;TYPE:WALL-OUTER
G1 F1050 X52.75 Y157.25 A287.1444
G1 X52.75 Y112.75 A288.10355
G1 X97.25 Y112.75 A289.06269
G1 X97.25 Y157.25 A290.02183
G0 F7200 X94.5 Y157.25
G0 X91.75 Y151.75
G0 X81.536 Y141.536
;TIME_ELAPSED:647.388989
;LAYER:38
G0 X81.536 Y141.536 Z19.3
;TYPE:FILL
G1 F2100 X68.464 Y141.536 A290.30358
G1 X68.464 Y128.464 A290.58533
G1 X81.536 Y128.464 A290.86708
G1 X81.536 Y141.536 A291.14883
G0 F7200 X89.393 Y149.393
G1 F2100 X60.607 Y149.393 A291.76928
G1 X60.607 Y120.607 A292.38973
G1 X89.393 Y120.607 A293.01017
G1 X89.393 Y149.393 A293.63062
G0 F7200 X97.18 Y157.18
G0 X97.25 Y157.25
;TYPE:WALL-OUTER
G1 F1050 X52.75 Y157.25 A294.58976
G1 X52.75 Y112.75 A295.5489
G1 X97.25 Y112.75 A296.50805
G1 X97.25 Y157.25 A297.46719
G0 F7200 X94.5 Y157.25
G0 X91.75 Y151.75
G0 X81.536 Y141.536
;TIME_ELAPSED:662.981197
;LAYER:39
G0 X81.536 Y141.536 Z19.8
;TYPE:FILL
G1 F2100 X68.464 Y141.536 A297.74894
G1 X68.464 Y128.464 A298.03069
G1 X81.536 Y128.464 A298.31244
G1 X81.536 Y141.536 A298.59419
G0 F7200 X89.393 Y149.393
G1 F2100 X60.607 Y149.393 A299.21464
G1 X60.607 Y120.607 A299.83509
G1 X89.393 Y120.607 A300.45553
G1 X89.393 Y149.393 A301.07598
G0 F7200 X97.18 Y157.18
G0 X97.25 Y157.25
;TYPE:WALL-OUTER
G1 F1050 X52.75 Y157.25 A302.03512
G1 X52.75 Y112.75 A302.99426
G1 X97.25 Y112.75 A303.95341
G1 X97.25 Y157.25 A304.91255
G0 F7200 X94.5 Y157.25
G0 X91.75 Y151.75
G0 X81.536 Y141.536
;TIME_ELAPSED:678.573405
;LAYER:40
G0 X81.536 Y141.536 Z20.3
;TYPE:FILL
G1 F2100 X68.464 Y141.536 A305.1943
G1 X68.464 Y128.464 A305.47605
G1 X81.536 Y128.464 A305.7578
G1 X81.536 Y141.536 A306.03955
G0 F7200 X89.393 Y149.393
G1 F2100 X60.607 Y149.393 A306.66
G1 X60.607 Y120.607 A307.28045
G1 X89.393 Y120.607 A307.90089
G1 X89.393 Y149.393 A308.52134
G0 F7200 X97.18 Y157.18
G0 X97.25 Y157.25
;TYPE:WALL-OUTER
G1 F1050 X52.75 Y157.25 A309.48048
G1 X52.75 Y112.75 A310.43962
G1 X97.25 Y112.75 A311.39877
G1 X97.25 Y157.25 A312.35791
G0 F7200 X94.5 Y157.25
G0 X91.75 Y151.75
G0 X81.536 Y141.536
;TIME_ELAPSED:694.165613
;LAYER:41
G0 X81.536 Y141.536 Z20.8
;TYPE:FILL
G1 F2100 X68.464 Y141.536 A312.63966
G1 X68.464 Y128.464 A312.92141
G1 X81.536 Y128.464 A313.20316
G1 X81.536 Y141.536 A313.48491
G0 F7200 X89.393 Y149.393
G1 F2100 X60.607 Y149.393 A314.10536
G1 X60.607 Y120.607 A314.7258
G1 X89.393 Y120.607 A315.34625
G1 X89.393 Y149.393 A315.9667
G0 F7200 X97.18 Y157.18
G0 X97.25 Y157.25
;TYPE:WALL-OUTER
G1 F1050 X52.75 Y157.25 A316.92584
G1 X52.75 Y112.75 A317.88498
G1 X97.25 Y112.75 A318.84413
G1 X97.25 Y157.25 A319.80327
G0 F7200 X94.5 Y157.25
G0 X91.75 Y151.75
G0 X81.536 Y141.536
;TIME_ELAPSED:709.757821
;LAYER:42
G0 X81.536 Y141.536 Z21.3
;TYPE:FILL
G1 F2100 X68.464 Y141.536 A320.08502
G1 X68.464 Y128.464 A320.36677
G1 X81.536 Y128.464 A320.64852
G1 X81.536 Y141.536 A320.93027
G0 F7200 X89.393 Y149.393
G1 F2100 X60.607 Y149.393 A321.55072
G1 X60.607 Y120.607 A322.17116
G1 X89.393 Y120.607 A322.79161
G1 X89.393 Y149.393 A323.41206
G0 F7200 X97.18 Y157.18
G0 X97.25 Y157.25
;TYPE:WALL-OUTER
G1 F1050 X52.75 Y157.25 A324.3712
G1 X52.75 Y112.75 A325.33034
G1 X97.25 Y112.75 A326.28948
G1 X97.25 Y157.25 A327.24863
G0 F7200 X94.5 Y157.25
G0 X91.75 Y151.75
G0 X81.536 Y141.536
;TIME_ELAPSED:725.350029
;LAYER:43
G0 X81.536 Y141.536 Z21.8
;TYPE:FILL
G1 F2100 X68.464 Y141.536 A327.53038
G1 X68.464 Y128.464 A327.81213
G1 X81.536 Y128.464 A328.09388
G1 X81.536 Y141.536 A328.37563
G0 F7200 X89.393 Y149.393
G1 F2100 X60.607 Y149.393 A328.99608
G1 X60.607 Y120.607 A329.61652
G1 X89.393 Y120.607 A330.23697
G1 X89.393 Y149.393 A330.85742
G0 F7200 X97.18 Y157.18
G0 X97.25 Y157.25
;TYPE:WALL-OUTER
G1 F1050 X52.75 Y157.25 A331.81656
G1 X52.75 Y112.75 A332.7757
G1 X97.25 Y112.75 A333.73484
G1 X97.25 Y157.25 A334.69399
G0 F7200 X94.5 Y157.25
G0 X91.75 Y151.75
G0 X81.536 Y141.536
;TIME_ELAPSED:740.942237
;LAYER:44
G0 X81.536 Y141.536 Z22.3
;TYPE:FILL
G1 F2100 X68.464 Y141.536 A334.97574
G1 X68.464 Y128.464 A335.25749
G1 X81.536 Y128.464 A335.53924
G1 X81.536 Y141.536 A335.82099
G0 F7200 X89.393 Y149.393
G1 F2100 X60.607 Y149.393 A336.44144
G1 X60.607 Y120.607 A337.06188
G1 X89.393 Y120.607 A337.68233
G1 X89.393 Y149.393 A338.30278
G0 F7200 X97.18 Y157.18
G0 X97.25 Y157.25
;TYPE:WALL-OUTER
G1 F1050 X52.75 Y157.25 A339.26192
G1 X52.75 Y112.75 A340.22106
G1 X97.25 Y112.75 A341.1802
G1 X97.25 Y157.25 A342.13935
G0 F7200 X94.5 Y157.25
G0 X91.75 Y151.75
G0 X81.536 Y141.536
;TIME_ELAPSED:756.534445
;LAYER:45
G0 X81.536 Y141.536 Z22.8
;TYPE:FILL
G1 F2100 X68.464 Y141.536 A342.4211
G1 X68.464 Y128.464 A342.70285
G1 X81.536 Y128.464 A342.9846
G1 X81.536 Y141.536 A343.26635
G0 F7200 X89.393 Y149.393
G1 F2100 X60.607 Y149.393 A343.8868
G1 X60.607 Y120.607 A344.50724
G1 X89.393 Y120.607 A345.12769
G1 X89.393 Y149.393 A345.74814
G0 F7200 X97.18 Y157.18
G0 X97.25 Y157.25
;TYPE:WALL-OUTER
G1 F1050 X52.75 Y157.25 A346.70728
G1 X52.75 Y112.75 A347.66642
G1 X97.25 Y112.75 A348.62556
G1 X97.25 Y157.25 A349.58471
G0 F7200 X94.5 Y157.25
G0 X91.75 Y151.75
G0 X81.536 Y141.536
;TIME_ELAPSED:772.126652
;LAYER:46
G0 X81.536 Y141.536 Z23.3
;TYPE:FILL
G1 F2100 X68.464 Y141.536 A349.86646
G1 X68.464 Y128.464 A350.14821
G1 X81.536 Y128.464 A350.42996
G1 X81.536 Y141.536 A350.71171
G0 F7200 X89.393 Y149.393
G1 F2100 X60.607 Y149.393 A351.33215
G1 X60.607 Y120.607 A351.9526
G1 X89.393 Y120.607 A352.57305
G1 X89.393 Y149.393 A353.19349
G0 F7200 X97.18 Y157.18
G0 X97.25 Y157.25
;TYPE:WALL-OUTER
G1 F1050 X52.75 Y157.25 A354.15264
G1 X52.75 Y112.75 A355.11178
G1 X97.25 Y112.75 A356.07092
G1 X97.25 Y157.25 A357.03006
G0 F7200 X94.5 Y157.25
G0 X91.75 Y151.75
G0 X81.536 Y141.536
;TIME_ELAPSED:787.718860
;LAYER:47
G0 X81.536 Y141.536 Z23.8
;TYPE:FILL
G1 F2100 X68.464 Y141.536 A357.31182
G1 X68.464 Y128.464 A357.59357
G1 X81.536 Y128.464 A357.87532
G1 X81.536 Y141.536 A358.15707
G0 F7200 X89.393 Y149.393
G1 F2100 X60.607 Y149.393 A358.77751
G1 X60.607 Y120.607 A359.39796
G1 X89.393 Y120.607 A360.01841
G1 X89.393 Y149.393 A360.63885
G0 F7200 X97.18 Y157.18
G0 X97.25 Y157.25
;TYPE:WALL-OUTER
G1 F1050 X52.75 Y157.25 A361.598
G1 X52.75 Y112.75 A362.55714
G1 X97.25 Y112.75 A363.51628
G1 X97.25 Y157.25 A364.47542
G0 F7200 X94.5 Y157.25
G0 X91.75 Y151.75
G0 X81.536 Y141.536
;TIME_ELAPSED:803.311068
;LAYER:48
G0 X81.536 Y141.536 Z24.3
;TYPE:FILL
G1 F2100 X68.464 Y141.536 A364.75717
G1 X68.464 Y128.464 A365.03893
G1 X81.536 Y128.464 A365.32068
G1 X81.536 Y141.536 A365.60243
G0 F7200 X89.393 Y149.393
G1 F2100 X60.607 Y149.393 A366.22287
G1 X60.607 Y120.607 A366.84332
G1 X89.393 Y120.607 A367.46377
G1 X89.393 Y149.393 A368.08421
G0 F7200 X97.18 Y157.18
G0 X97.25 Y157.25
;TYPE:WALL-OUTER
G1 F1050 X52.75 Y157.25 A369.04336
G1 X52.75 Y112.75 A370.0025
G1 X97.25 Y112.75 A370.96164
G1 X97.25 Y157.25 A371.92078
G0 F7200 X94.5 Y157.25
G0 X91.75 Y151.75
G0 X81.536 Y141.536
;TIME_ELAPSED:818.903276
;LAYER:49
G0 X81.536 Y141.536 Z24.8
;TYPE:FILL
G1 F2100 X68.464 Y141.536 A372.20253
G1 X68.464 Y128.464 A372.48428
G1 X81.536 Y128.464 A372.76604
G1 X81.536 Y141.536 A373.04779
G0 F7200 X89.393 Y149.393
G1 F2100 X60.607 Y149.393 A373.66823
G1 X60.607 Y120.607 A374.28868
G1 X89.393 Y120.607 A374.90913
G1 X89.393 Y149.393 A375.52957
G0 F7200 X97.18 Y157.18
G0 X97.25 Y157.25
;TYPE:WALL-OUTER
G1 F1050 X52.75 Y157.25 A376.48872
G1 X52.75 Y112.75 A377.44786
G1 X97.25 Y112.75 A378.407
G1 X97.25 Y157.25 A379.36614
G0 F7200 X94.5 Y157.25
G0 X91.75 Y151.75
G0 X81.536 Y141.536
;TIME_ELAPSED:834.495484
;LAYER:50
G0 X81.536 Y141.536 Z25.3
;TYPE:FILL
G1 F2100 X68.464 Y141.536 A379.64789
G1 X68.464 Y128.464 A379.92964
G1 X81.536 Y128.464 A380.21139
G1 X81.536 Y141.536 A380.49315
G0 F7200 X89.393 Y149.393
G1 F2100 X60.607 Y149.393 A381.11359
G1 X60.607 Y120.607 A381.73404
G1 X89.393 Y120.607 A382.35449
G1 X89.393 Y149.393 A382.97493
G0 F7200 X97.18 Y157.18
G0 X97.25 Y157.25
;TYPE:WALL-OUTER
G1 F1050 X52.75 Y157.25 A383.93407
G1 X52.75 Y112.75 A384.89322
G1 X97.25 Y112.75 A385.85236
G1 X97.25 Y157.25 A386.8115
G0 F7200 X94.5 Y157.25
G0 X91.75 Y151.75
G0 X81.536 Y141.536
;TIME_ELAPSED:850.087692
;LAYER:51
G0 X81.536 Y141.536 Z25.8
;TYPE:FILL
G1 F2100 X68.464 Y141.536 A387.09325
G1 X68.464 Y128.464 A387.375
G1 X81.536 Y128.464 A387.65675
G1 X81.536 Y141.536 A387.9385
G0 F7200 X89.393 Y149.393
G1 F2100 X60.607 Y149.393 A388.55895
G1 X60.607 Y120.607 A389.1794
G1 X89.393 Y120.607 A389.79984
G1 X89.393 Y149.393 A390.42029
G0 F7200 X97.18 Y157.18
G0 X97.25 Y157.25
;TYPE:WALL-OUTER
G1 F1050 X52.75 Y157.25 A391.37943
G1 X52.75 Y112.75 A392.33858
G1 X97.25 Y112.75 A393.29772
G1 X97.25 Y157.25 A394.25686
G0 F7200 X94.5 Y157.25
G0 X91.75 Y151.75
G0 X81.536 Y141.536
;TIME_ELAPSED:865.679900
;LAYER:52
G0 X81.536 Y141.536 Z26.3
;TYPE:FILL
G1 F2100 X68.464 Y141.536 A394.53861
G1 X68.464 Y128.464 A394.82036
G1 X81.536 Y128.464 A395.10211
G1 X81.536 Y141.536 A395.38386
G0 F7200 X89.393 Y149.393
G1 F2100 X60.607 Y149.393 A396.00431
G1 X60.607 Y120.607 A396.62476
G1 X89.393 Y120.607 A397.2452
G1 X89.393 Y149.393 A397.86565
G0 F7200 X97.18 Y157.18
G0 X97.25 Y157.25
;TYPE:WALL-OUTER
G1 F1050 X52.75 Y157.25 A398.82479
G1 X52.75 Y112.75 A399.78394
G1 X97.25 Y112.75 A400.74308
G1 X97.25 Y157.25 A401.70222
G0 F7200 X94.5 Y157.25
G0 X91.75 Y151.75
G0 X81.536 Y141.536
;TIME_ELAPSED:881.272108
;LAYER:53
G0 X81.536 Y141.536 Z26.8
;TYPE:FILL
G1 F2100 X68.464 Y141.536 A401.98397
G1 X68.464 Y128.464 A402.26572
G1 X81.536 Y128.464 A402.54747
G1 X81.536 Y141.536 A402.82922
G0 F7200 X89.393 Y149.393
G1 F2100 X60.607 Y149.393 A403.44967
G1 X60.607 Y120.607 A404.07012
G1 X89.393 Y120.607 A404.69056
G1 X89.393 Y149.393 A405.31101
G0 F7200 X97.18 Y157.18
G0 X97.25 Y157.25
;TYPE:WALL-OUTER
G1 F1050 X52.75 Y157.25 A406.27015
G1 X52.75 Y112.75 A407.22929
G1 X97.25 Y112.75 A408.18844
G1 X97.25 Y157.25 A409.14758
G0 F7200 X94.5 Y157.25
G0 X91.75 Y151.75
G0 X81.536 Y141.536
;TIME_ELAPSED:896.864315
;LAYER:54
G0 X81.536 Y141.536 Z27.3
;TYPE:FILL
G1 F2100 X68.464 Y141.536 A409.42933
G1 X68.464 Y128.464 A409.71108
G1 X81.536 Y128.464 A409.99283
G1 X81.536 Y141.536 A410.27458
G0 F7200 X89.393 Y149.393
G1 F2100 X60.607 Y149.393 A410.89503
G1 X60.607 Y120.607 A411.51548
G1 X89.393 Y120.607 A412.13592
G1 X89.393 Y149.393 A412.75637
G0 F7200 X97.18 Y157.18
G0 X97.25 Y157.25
;TYPE:WALL-OUTER
G1 F1050 X52.75 Y157.25 A413.71551
G1 X52.75 Y112.75 A414.67465
G1 X97.25 Y112.75 A415.6338
G1 X97.25 Y157.25 A416.59294
G0 F7200 X94.5 Y157.25
G0 X91.75 Y151.75
G0 X81.536 Y141.536
;TIME_ELAPSED:912.456523
;LAYER:55
G0 X81.536 Y141.536 Z27.8
;TYPE:FILL
G1 F2100 X68.464 Y141.536 A416.87469
G1 X68.464 Y128.464 A417.15644
G1 X81.536 Y128.464 A417.43819
G1 X81.536 Y141.536 A417.71994
G0 F7200 X89.393 Y149.393
G1 F2100 X60.607 Y149.393 A418.34039
G1 X60.607 Y120.607 A418.96084
G1 X89.393 Y120.607 A419.58128
G1 X89.393 Y149.393 A420.20173
G0 F7200 X97.18 Y157.18
G0 X97.25 Y157.25
;TYPE:WALL-OUTER
G1 F1050 X52.75 Y157.25 A421.16087
G1 X52.75 Y112.75 A422.12001
G1 X97.25 Y112.75 A423.07916
G1 X97.25 Y157.25 A424.0383
G0 F7200 X94.5 Y157.25
G0 X91.75 Y151.75
G0 X81.536 Y141.536
;TIME_ELAPSED:928.048731
;LAYER:56
G0 X81.536 Y141.536 Z28.3
;TYPE:FILL
G1 F2100 X68.464 Y141.536 A424.32005
G1 X68.464 Y128.464 A424.6018
G1 X81.536 Y128.464 A424.88355
G1 X81.536 Y141.536 A425.1653
G0 F7200 X89.393 Y149.393
G1 F2100 X60.607 Y149.393 A425.78575
G1 X60.607 Y120.607 A426.40619
G1 X89.393 Y120.607 A427.02664
G1 X89.393 Y149.393 A427.64709
G0 F7200 X97.18 Y157.18
G0 X97.25 Y157.25
;TYPE:WALL-OUTER
G1 F1050 X52.75 Y157.25 A428.60623
G1 X52.75 Y112.75 A429.56537
G1 X97.25 Y112.75 A430.52452
G1 X97.25 Y157.25 A431.48366
G0 F7200 X94.5 Y157.25
G0 X91.75 Y151.75
G0 X81.536 Y141.536
;TIME_ELAPSED:943.640939
;LAYER:57
G0 X81.536 Y141.536 Z28.8
;TYPE:FILL
G1 F2100 X68.464 Y141.536 A431.76541
G1 X68.464 Y128.464 A432.04716
G1 X81.536 Y128.464 A432.32891
G1 X81.536 Y141.536 A432.61066
G0 F7200 X89.393 Y149.393
G1 F2100 X60.607 Y149.393 A433.23111
G1 X60.607 Y120.607 A433.85155
G1 X89.393 Y120.607 A434.472
G1 X89.393 Y149.393 A435.09245
G0 F7200 X97.18 Y157.18
G0 X97.25 Y157.25
;TYPE:WALL-OUTER
G1 F1050 X52.75 Y157.25 A436.05159
G1 X52.75 Y112.75 A437.01073
G1 X97.25 Y112.75 A437.96987
G1 X97.25 Y157.25 A438.92902
G0 F7200 X94.5 Y157.25
G0 X91.75 Y151.75
G0 X81.536 Y141.536
;TIME_ELAPSED:959.233147
;LAYER:58
G0 X81.536 Y141.536 Z29.3
;TYPE:FILL
G1 F2100 X68.464 Y141.536 A439.21077
G1 X68.464 Y128.464 A439.49252
G1 X81.536 Y128.464 A439.77427
G1 X81.536 Y141.536 A440.05602
G0 F7200 X89.393 Y149.393
G1 F2100 X60.607 Y149.393 A440.67647
G1 X60.607 Y120.607 A441.29691
G1 X89.393 Y120.607 A441.91736
G1 X89.393 Y149.393 A442.53781
G0 F7200 X97.18 Y157.18
G0 X97.25 Y157.25
;TYPE:WALL-OUTER
G1 F1050 X52.75 Y157.25 A443.49695
G1 X52.75 Y112.75 A444.45609
G1 X97.25 Y112.75 A445.41523
G1 X97.25 Y157.25 A446.37438
G0 F7200 X94.5 Y157.25
G0 X91.75 Y151.75
G0 X81.536 Y141.536
;TIME_ELAPSED:974.825355
;LAYER:59
G0 X81.536 Y141.536 Z29.8
;TYPE:FILL
G1 F2100 X68.464 Y141.536 A446.65613
G1 X68.464 Y128.464 A446.93788
G1 X81.536 Y128.464 A447.21963
G1 X81.536 Y141.536 A447.50138
G0 F7200 X89.393 Y149.393
G1 F2100 X60.607 Y149.393 A448.12183
G1 X60.607 Y120.607 A448.74227
G1 X89.393 Y120.607 A449.36272
G1 X89.393 Y149.393 A449.98317
G0 F7200 X97.18 Y157.18
G0 X97.25 Y157.25
;TYPE:WALL-OUTER
G1 F1050 X52.75 Y157.25 A450.94231
G1 X52.75 Y112.75 A451.90145
G1 X97.25 Y112.75 A452.86059
G1 X97.25 Y157.25 A453.81974
G0 F7200 X94.5 Y157.25
G0 X91.75 Y151.75
G0 X81.536 Y141.536
;TIME_ELAPSED:990.417563
;LAYER:60
G0 X81.536 Y141.536 Z30.3
;TYPE:FILL
G1 F2100 X68.464 Y141.536 A454.10149
G1 X68.464 Y128.464 A454.38324
G1 X81.536 Y128.464 A454.66499
G1 X81.536 Y141.536 A454.94674
G0 F7200 X89.393 Y149.393
G1 F2100 X60.607 Y149.393 A455.56719
G1 X60.607 Y120.607 A456.18763
G1 X89.393 Y120.607 A456.80808
G1 X89.393 Y149.393 A457.42853
G0 F7200 X97.18 Y157.18
G0 X97.25 Y157.25
;TYPE:WALL-OUTER
G1 F1050 X52.75 Y157.25 A458.38767
G1 X52.75 Y112.75 A459.34681
G1 X97.25 Y112.75 A460.30595
G1 X97.25 Y157.25 A461.2651
G0 F7200 X94.5 Y157.25
G0 X91.75 Y151.75
G0 X81.536 Y141.536
;TIME_ELAPSED:1006.009771
;LAYER:61
G0 X81.536 Y141.536 Z30.8
;TYPE:FILL
G1 F2100 X68.464 Y141.536 A461.54685
G1 X68.464 Y128.464 A461.8286
G1 X81.536 Y128.464 A462.11035
G1 X81.536 Y141.536 A462.3921
G0 F7200 X89.393 Y149.393
G1 F2100 X60.607 Y149.393 A463.01255
G1 X60.607 Y120.607 A463.63299
G1 X89.393 Y120.607 A464.25344
G1 X89.393 Y149.393 A464.87388
G0 F7200 X97.18 Y157.18
G0 X97.25 Y157.25
;TYPE:WALL-OUTER
G1 F1050 X52.75 Y157.25 A465.83303
G1 X52.75 Y112.75 A466.79217
G1 X97.25 Y112.75 A467.75131
G1 X97.25 Y157.25 A468.71045
G0 F7200 X94.5 Y157.25
G0 X91.75 Y151.75
G0 X81.536 Y141.536
;TIME_ELAPSED:1021.601978
;LAYER:62
G0 X81.536 Y141.536 Z31.3
;TYPE:FILL
G1 F2100 X68.464 Y141.536 A468.99221
G1 X68.464 Y128.464 A469.27396
G1 X81.536 Y128.464 A469.55571
G1 X81.536 Y141.536 A469.83746
G0 F7200 X89.393 Y149.393
G1 F2100 X60.607 Y149.393 A470.4579
G1 X60.607 Y120.607 A471.07835
G1 X89.393 Y120.607 A471.6988
G1 X89.393 Y149.393 A472.31924
G0 F7200 X97.18 Y157.18
G0 X97.25 Y157.25
;TYPE:WALL-OUTER
G1 F1050 X52.75 Y157.25 A473.27839
G1 X52.75 Y112.75 A474.23753
G1 X97.25 Y112.75 A475.19667
G1 X97.25 Y157.25 A476.15581
G0 F7200 X94.5 Y157.25
G0 X91.75 Y151.75
G0 X81.536 Y141.536
;TIME_ELAPSED:1037.194186
;LAYER:63
G0 X81.536 Y141.536 Z31.8
;TYPE:FILL
G1 F2100 X68.464 Y141.536 A476.43756
G1 X68.464 Y128.464 A476.71932
G1 X81.536 Y128.464 A477.00107
G1 X81.536 Y141.536 A477.28282
G0 F7200 X89.393 Y149.393
G1 F2100 X60.607 Y149.393 A477.90326
G1 X60.607 Y120.607 A478.52371
G1 X89.393 Y120.607 A479.14416
G1 X89.393 Y149.393 A479.7646
G0 F7200 X97.18 Y157.18
G0 X97.25 Y157.25
;TYPE:WALL-OUTER
G1 F1050 X52.75 Y157.25 A480.72375
G1 X52.75 Y112.75 A481.68289
G1 X97.25 Y112.75 A482.64203
G1 X97.25 Y157.25 A483.60117
G0 F7200 X94.5 Y157.25
G0 X91.75 Y151.75
G0 X81.536 Y141.536
;TIME_ELAPSED:1052.786394
;LAYER:64
G0 X81.536 Y141.536 Z32.3
;TYPE:FILL
G1 F2100 X68.464 Y141.536 A483.88292
G1 X68.464 Y128.464 A484.16467
G1 X81.536 Y128.464 A484.44643
G1 X81.536 Y141.536 A484.72818
G0 F7200 X89.393 Y149.393
G1 F2100 X60.607 Y149.393 A485.34862
G1 X60.607 Y120.607 A485.96907
G1 X89.393 Y120.607 A486.58952
G1 X89.393 Y149.393 A487.20996
G0 F7200 X97.18 Y157.18
G0 X97.25 Y157.25
;TYPE:WALL-OUTER
G1 F1050 X52.75 Y157.25 A488.16911
G1 X52.75 Y112.75 A489.12825
G1 X97.25 Y112.75 A490.08739
G1 X97.25 Y157.25 A491.04653
G0 F7200 X94.5 Y157.25
G0 X91.75 Y151.75
G0 X81.536 Y141.536
;TIME_ELAPSED:1068.378602
;LAYER:65
G0 X81.536 Y141.536 Z32.8
;TYPE:FILL
G1 F2100 X68.464 Y141.536 A491.32828
G1 X68.464 Y128.464 A491.61003
G1 X81.536 Y128.464 A491.89179
G1 X81.536 Y141.536 A492.17354
G0 F7200 X89.393 Y149.393
G1 F2100 X60.607 Y149.393 A492.79398
G1 X60.607 Y120.607 A493.41443
G1 X89.393 Y120.607 A494.03488
G1 X89.393 Y149.393 A494.65532
G0 F7200 X97.18 Y157.18
G0 X97.25 Y157.25
;TYPE:WALL-OUTER
G1 F1050 X52.75 Y157.25 A495.61446
G1 X52.75 Y112.75 A496.57361
G1 X97.25 Y112.75 A497.53275
G1 X97.25 Y157.25 A498.49189
G0 F7200 X94.5 Y157.25
G0 X91.75 Y151.75
G0 X81.536 Y141.536
;TIME_ELAPSED:1083.970810
;LAYER:66
G0 X81.536 Y141.536 Z33.3
;TYPE:FILL
G1 F2100 X68.464 Y141.536 A498.77364
G1 X68.464 Y128.464 A499.05539
G1 X81.536 Y128.464 A499.33714
G1 X81.536 Y141.536 A499.6189
G0 F7200 X89.393 Y149.393
G1 F2100 X60.607 Y149.393 A500.23934
G1 X60.607 Y120.607 A500.85979
G1 X89.393 Y120.607 A501.48024
G1 X89.393 Y149.393 A502.10068
G0 F7200 X97.18 Y157.18
G0 X97.25 Y157.25
;TYPE:WALL-OUTER
G1 F1050 X52.75 Y157.25 A503.05982
G1 X52.75 Y112.75 A504.01897
G1 X97.25 Y112.75 A504.97811
G1 X97.25 Y157.25 A505.93725
G0 F7200 X94.5 Y157.25
G0 X91.75 Y151.75
G0 X81.536 Y141.536
;TIME_ELAPSED:1099.563018
;LAYER:67
G0 X81.536 Y141.536 Z33.8
;TYPE:FILL
G1 F2100 X68.464 Y141.536 A506.219
G1 X68.464 Y128.464 A506.50075
G1 X81.536 Y128.464 A506.7825
G1 X81.536 Y141.536 A507.06425
G0 F7200 X89.393 Y149.393
G1 F2100 X60.607 Y149.393 A507.6847
G1 X60.607 Y120.607 A508.30515
G1 X89.393 Y120.607 A508.92559
G1 X89.393 Y149.393 A509.54604
G0 F7200 X97.18 Y157.18
G0 X97.25 Y157.25
;TYPE:WALL-OUTER
G1 F1050 X52.75 Y157.25 A510.50518
G1 X52.75 Y112.75 A511.46433
G1 X97.25 Y112.75 A512.42347
G1 X97.25 Y157.25 A513.38261
G0 F7200 X94.5 Y157.25
G0 X91.75 Y151.75
G0 X81.536 Y141.536
;TIME_ELAPSED:1115.155226
;LAYER:68
G0 X81.536 Y141.536 Z34.3
;TYPE:FILL
G1 F2100 X68.464 Y141.536 A513.66436
G1 X68.464 Y128.464 A513.94611
G1 X81.536 Y128.464 A514.22786
G1 X81.536 Y141.536 A514.50961
G0 F7200 X89.393 Y149.393
G1 F2100 X60.607 Y149.393 A515.13006
G1 X60.607 Y120.607 A515.75051
G1 X89.393 Y120.607 A516.37095
G1 X89.393 Y149.393 A516.9914
G0 F7200 X97.18 Y157.18
G0 X97.25 Y157.25
;TYPE:WALL-OUTER
G1 F1050 X52.75 Y157.25 A517.95054
G1 X52.75 Y112.75 A518.90969
G1 X97.25 Y112.75 A519.86883
G1 X97.25 Y157.25 A520.82797
G0 F7200 X94.5 Y157.25
G0 X91.75 Y151.75
G0 X81.536 Y141.536
;TIME_ELAPSED:1130.747433
;LAYER:69
G0 X81.536 Y141.536 Z34.8
;TYPE:FILL
G1 F2100 X68.464 Y141.536 A521.10972
G1 X68.464 Y128.464 A521.39147
G1 X81.536 Y128.464 A521.67322
G1 X81.536 Y141.536 A521.95497
G0 F7200 X89.393 Y149.393
G1 F2100 X60.607 Y149.393 A522.57542
G1 X60.607 Y120.607 A523.19587
G1 X89.393 Y120.607 A523.81631
G1 X89.393 Y149.393 A524.43676
G0 F7200 X97.18 Y157.18
G0 X97.25 Y157.25
;TYPE:WALL-OUTER
G1 F1050 X52.75 Y157.25 A525.3959
G1 X52.75 Y112.75 A526.35504
G1 X97.25 Y112.75 A527.31419
G1 X97.25 Y157.25 A528.27333
G0 F7200 X94.5 Y157.25
G0 X91.75 Y151.75
G0 X81.536 Y141.536
;TIME_ELAPSED:1146.339641
;LAYER:70
G0 X81.536 Y141.536 Z35.3
;TYPE:FILL
G1 F2100 X68.464 Y141.536 A528.55508
G1 X68.464 Y128.464 A528.83683
G1 X81.536 Y128.464 A529.11858
G1 X81.536 Y141.536 A529.40033
G0 F7200 X89.393 Y149.393
G1 F2100 X60.607 Y149.393 A530.02078
G1 X60.607 Y120.607 A530.64123
G1 X89.393 Y120.607 A531.26167
G1 X89.393 Y149.393 A531.88212
G0 F7200 X97.18 Y157.18
G0 X97.25 Y157.25
;TYPE:WALL-OUTER
G1 F1050 X52.75 Y157.25 A532.84126
G1 X52.75 Y112.75 A533.8004
G1 X97.25 Y112.75 A534.75955
G1 X97.25 Y157.25 A535.71869
G0 F7200 X94.5 Y157.25
G0 X91.75 Y151.75
G0 X81.536 Y141.536
;TIME_ELAPSED:1161.931849
;LAYER:71
G0 X81.536 Y141.536 Z35.8
;TYPE:FILL
G1 F2100 X68.464 Y141.536 A536.00044
G1 X68.464 Y128.464 A536.28219
G1 X81.536 Y128.464 A536.56394
G1 X81.536 Y141.536 A536.84569
G0 F7200 X89.393 Y149.393
G1 F2100 X60.607 Y149.393 A537.46614
G1 X60.607 Y120.607 A538.08659
G1 X89.393 Y120.607 A538.70703
G1 X89.393 Y149.393 A539.32748
G0 F7200 X97.18 Y157.18
G0 X97.25 Y157.25
;TYPE:WALL-OUTER
G1 F1050 X52.75 Y157.25 A540.28662
G1 X52.75 Y112.75 A541.24576
G1 X97.25 Y112.75 A542.20491
G1 X97.25 Y157.25 A543.16405
G0 F7200 X94.5 Y157.25
G0 X91.75 Y151.75
G0 X81.536 Y141.536
;TIME_ELAPSED:1177.524057
;LAYER:72
G0 X81.536 Y141.536 Z36.3
;TYPE:FILL
G1 F2100 X68.464 Y141.536 A543.4458
G1 X68.464 Y128.464 A543.72755
G1 X81.536 Y128.464 A544.0093
G1 X81.536 Y141.536 A544.29105
G0 F7200 X89.393 Y149.393
G1 F2100 X60.607 Y149.393 A544.9115
G1 X60.607 Y120.607 A545.53194
G1 X89.393 Y120.607 A546.15239
G1 X89.393 Y149.393 A546.77284
G0 F7200 X97.18 Y157.18
G0 X97.25 Y157.25
;TYPE:WALL-OUTER
G1 F1050 X52.75 Y157.25 A547.73198
G1 X52.75 Y112.75 A548.69112
G1 X97.25 Y112.75 A549.65027
G1 X97.25 Y157.25 A550.60941
G0 F7200 X94.5 Y157.25
G0 X91.75 Y151.75
G0 X81.536 Y141.536
;TIME_ELAPSED:1193.116265
;LAYER:73
G0 X81.536 Y141.536 Z36.8
;TYPE:FILL
G1 F2100 X68.464 Y141.536 A550.89116
G1 X68.464 Y128.464 A551.17291
G1 X81.536 Y128.464 A551.45466
G1 X81.536 Y141.536 A551.73641
G0 F7200 X89.393 Y149.393
G1 F2100 X60.607 Y149.393 A552.35686
G1 X60.607 Y120.607 A552.9773
G1 X89.393 Y120.607 A553.59775
G1 X89.393 Y149.393 A554.2182
G0 F7200 X97.18 Y157.18
G0 X97.25 Y157.25
;TYPE:WALL-OUTER
G1 F1050 X52.75 Y157.25 A555.17734
G1 X52.75 Y112.75 A556.13648
G1 X97.25 Y112.75 A557.09562
G1 X97.25 Y157.25 A558.05477
G0 F7200 X94.5 Y157.25
G0 X91.75 Y151.75
G0 X81.536 Y141.536
;TIME_ELAPSED:1208.708473
;LAYER:74
G0 X81.536 Y141.536 Z37.3
;TYPE:FILL
G1 F2100 X68.464 Y141.536 A558.33652
G1 X68.464 Y128.464 A558.61827
G1 X81.536 Y128.464 A558.90002
G1 X81.536 Y141.536 A559.18177
G0 F7200 X89.393 Y149.393
G1 F2100 X60.607 Y149.393 A559.80222
G1 X60.607 Y120.607 A560.42266
G1 X89.393 Y120.607 A561.04311
G1 X89.393 Y149.393 A561.66356
G0 F7200 X97.18 Y157.18
G0 X97.25 Y157.25
;TYPE:WALL-OUTER
G1 F1050 X52.75 Y157.25 A562.6227
G1 X52.75 Y112.75 A563.58184
G1 X97.25 Y112.75 A564.54098
G1 X97.25 Y157.25 A565.50013
G0 F7200 X94.5 Y157.25
G0 X91.75 Y151.75
G0 X81.536 Y141.536
;TIME_ELAPSED:1224.300681
;LAYER:75
G0 X81.536 Y141.536 Z37.8
;TYPE:FILL
G1 F2100 X68.464 Y141.536 A565.78188
G1 X68.464 Y128.464 A566.06363
G1 X81.536 Y128.464 A566.34538
G1 X81.536 Y141.536 A566.62713
G0 F7200 X89.393 Y149.393
G1 F2100 X60.607 Y149.393 A567.24758
G1 X60.607 Y120.607 A567.86802
G1 X89.393 Y120.607 A568.48847
G1 X89.393 Y149.393 A569.10892
G0 F7200 X97.18 Y157.18
G0 X97.25 Y157.25
;TYPE:WALL-OUTER
G1 F1050 X52.75 Y157.25 A570.06806
G1 X52.75 Y112.75 A571.0272
G1 X97.25 Y112.75 A571.98634
G1 X97.25 Y157.25 A572.94549
G0 F7200 X94.5 Y157.25
G0 X91.75 Y151.75
G0 X81.536 Y141.536
;TIME_ELAPSED:1239.892889
;LAYER:76
G0 X81.536 Y141.536 Z38.3
;TYPE:FILL
G1 F2100 X68.464 Y141.536 A573.22724
G1 X68.464 Y128.464 A573.50899
G1 X81.536 Y128.464 A573.79074
G1 X81.536 Y141.536 A574.07249
G0 F7200 X89.393 Y149.393
G1 F2100 X60.607 Y149.393 A574.69294
G1 X60.607 Y120.607 A575.31338
G1 X89.393 Y120.607 A575.93383
G1 X89.393 Y149.393 A576.55428
G0 F7200 X97.18 Y157.18
G0 X97.25 Y157.25
;TYPE:WALL-OUTER
G1 F1050 X52.75 Y157.25 A577.51342
G1 X52.75 Y112.75 A578.47256
G1 X97.25 Y112.75 A579.4317
G1 X97.25 Y157.25 A580.39084
G0 F7200 X94.5 Y157.25
G0 X91.75 Y151.75
G0 X81.536 Y141.536
;TIME_ELAPSED:1255.485096
;LAYER:77
G0 X81.536 Y141.536 Z38.8
;TYPE:FILL
G1 F2100 X68.464 Y141.536 A580.6726
G1 X68.464 Y128.464 A580.95435
G1 X81.536 Y128.464 A581.2361
G1 X81.536 Y141.536 A581.51785
G0 F7200 X89.393 Y149.393
G1 F2100 X60.607 Y149.393 A582.13829
G1 X60.607 Y120.607 A582.75874
G1 X89.393 Y120.607 A583.37919
G1 X89.393 Y149.393 A583.99963
G0 F7200 X97.18 Y157.18
G0 X97.25 Y157.25
;TYPE:WALL-OUTER
G1 F1050 X52.75 Y157.25 A584.95878
G1 X52.75 Y112.75 A585.91792
G1 X97.25 Y112.75 A586.87706
G1 X97.25 Y157.25 A587.8362
G0 F7200 X94.5 Y157.25
G0 X91.75 Y151.75
G0 X81.536 Y141.536
;TIME_ELAPSED:1271.077304
;LAYER:78
G0 X81.536 Y141.536 Z39.3
;TYPE:FILL
G1 F2100 X68.464 Y141.536 A588.11796
G1 X68.464 Y128.464 A588.39971
G1 X81.536 Y128.464 A588.68146
G1 X81.536 Y141.536 A588.96321
G0 F7200 X89.393 Y149.393
G1 F2100 X60.607 Y149.393 A589.58365
G1 X60.607 Y120.607 A590.2041
G1 X89.393 Y120.607 A590.82455
G1 X89.393 Y149.393 A591.44499
G0 F7200 X97.18 Y157.18
G0 X97.25 Y157.25
;TYPE:WALL-OUTER
G1 F1050 X52.75 Y157.25 A592.40414
G1 X52.75 Y112.75 A593.36328
G1 X97.25 Y112.75 A594.32242
G1 X97.25 Y157.25 A595.28156
G0 F7200 X94.5 Y157.25
G0 X91.75 Y151.75
G0 X81.536 Y141.536
;TIME_ELAPSED:1286.669512
;LAYER:79
G0 X81.536 Y141.536 Z39.8
;TYPE:FILL
G1 F2100 X68.464 Y141.536 A595.56331
G1 X68.464 Y128.464 A595.84507
G1 X81.536 Y128.464 A596.12682
G1 X81.536 Y141.536 A596.40857
G0 F7200 X89.393 Y149.393
G1 F2100 X60.607 Y149.393 A597.02901
G1 X60.607 Y120.607 A597.64946
G1 X89.393 Y120.607 A598.26991
G1 X89.393 Y149.393 A598.89035
G0 F7200 X97.18 Y157.18
G0 X97.25 Y157.25
;TYPE:WALL-OUTER
G1 F1050 X52.75 Y157.25 A599.8495
G1 X52.75 Y112.75 A600.80864
G1 X97.25 Y112.75 A601.76778
G1 X97.25 Y157.25 A602.72692
G0 F7200 X94.5 Y157.25
G0 X91.75 Y151.75
G0 X81.536 Y141.536
;TIME_ELAPSED:1302.261720
;LAYER:80
G0 X81.536 Y141.536 Z40.3
;TYPE:FILL
G1 F2100 X68.464 Y141.536 A603.00867
G1 X68.464 Y128.464 A603.29042
G1 X81.536 Y128.464 A603.57218
G1 X81.536 Y141.536 A603.85393
G0 F7200 X89.393 Y149.393
G1 F2100 X60.607 Y149.393 A604.47437
G1 X60.607 Y120.607 A605.09482
G1 X89.393 Y120.607 A605.71527
G1 X89.393 Y149.393 A606.33571
G0 F7200 X97.18 Y157.18
G0 X97.25 Y157.25
;TYPE:WALL-OUTER
G1 F1050 X52.75 Y157.25 A607.29486
G1 X52.75 Y112.75 A608.254
G1 X97.25 Y112.75 A609.21314
G1 X97.25 Y157.25 A610.17228
G0 F7200 X94.5 Y157.25
G0 X91.75 Y151.75
G0 X81.536 Y141.536
;TIME_ELAPSED:1317.853928
;LAYER:81
G0 X81.536 Y141.536 Z40.8
;TYPE:FILL
G1 F2100 X68.464 Y141.536 A610.45403
G1 X68.464 Y128.464 A610.73578
G1 X81.536 Y128.464 A611.01753
G1 X81.536 Y141.536 A611.29929
G0 F7200 X89.393 Y149.393
G1 F2100 X60.607 Y149.393 A611.91973
G1 X60.607 Y120.607 A612.54018
G1 X89.393 Y120.607 A613.16063
G1 X89.393 Y149.393 A613.78107
G0 F7200 X97.18 Y157.18
G0 X97.25 Y157.25
;TYPE:WALL-OUTER
G1 F1050 X52.75 Y157.25 A614.74021
G1 X52.75 Y112.75 A615.69936
G1 X97.25 Y112.75 A616.6585
G1 X97.25 Y157.25 A617.61764
G0 F7200 X94.5 Y157.25
G0 X91.75 Y151.75
G0 X81.536 Y141.536
;TIME_ELAPSED:1333.446136
;LAYER:82
G0 X81.536 Y141.536 Z41.3
;TYPE:FILL
G1 F2100 X68.464 Y141.536 A617.89939
G1 X68.464 Y128.464 A618.18114
G1 X81.536 Y128.464 A618.46289
G1 X81.536 Y141.536 A618.74464
G0 F7200 X89.393 Y149.393
G1 F2100 X60.607 Y149.393 A619.36509
G1 X60.607 Y120.607 A619.98554
G1 X89.393 Y120.607 A620.60598
G1 X89.393 Y149.393 A621.22643
G0 F7200 X97.18 Y157.18
G0 X97.25 Y157.25
;TYPE:WALL-OUTER
G1 F1050 X52.75 Y157.25 A622.18557
G1 X52.75 Y112.75 A623.14472
G1 X97.25 Y112.75 A624.10386
G1 X97.25 Y157.25 A625.063
G0 F7200 X94.5 Y157.25
G0 X91.75 Y151.75
G0 X81.536 Y141.536
;TIME_ELAPSED:1349.038344
;LAYER:83
G0 X81.536 Y141.536 Z41.8
;TYPE:FILL
G1 F2100 X68.464 Y141.536 A625.34475
G1 X68.464 Y128.464 A625.6265
G1 X81.536 Y128.464 A625.90825
G1 X81.536 Y141.536 A626.19
G0 F7200 X89.393 Y149.393
G1 F2100 X60.607 Y149.393 A626.81045
G1 X60.607 Y120.607 A627.4309
G1 X89.393 Y120.607 A628.05134
G1 X89.393 Y149.393 A628.67179
G0 F7200 X97.18 Y157.18
G0 X97.25 Y157.25
;TYPE:WALL-OUTER
G1 F1050 X52.75 Y157.25 A629.63093
G1 X52.75 Y112.75 A630.59008
G1 X97.25 Y112.75 A631.54922
G1 X97.25 Y157.25 A632.50836
G0 F7200 X94.5 Y157.25
G0 X91.75 Y151.75
G0 X81.536 Y141.536
;TIME_ELAPSED:1364.630552
;LAYER:84
G0 X81.536 Y141.536 Z42.3
;TYPE:FILL
G1 F2100 X68.464 Y141.536 A632.79011
G1 X68.464 Y128.464 A633.07186
G1 X81.536 Y128.464 A633.35361
G1 X81.536 Y141.536 A633.63536
G0 F7200 X89.393 Y149.393
G1 F2100 X60.607 Y149.393 A634.25581
G1 X60.607 Y120.607 A634.87626
G1 X89.393 Y120.607 A635.4967
G1 X89.393 Y149.393 A636.11715
G0 F7200 X97.18 Y157.18
G0 X97.25 Y157.25
;TYPE:WALL-OUTER
G1 F1050 X52.75 Y157.25 A637.07629
G1 X52.75 Y112.75 A638.03543
G1 X97.25 Y112.75 A638.99458
G1 X97.25 Y157.25 A639.95372
G0 F7200 X94.5 Y157.25
G0 X91.75 Y151.75
G0 X81.536 Y141.536
;TIME_ELAPSED:1380.222759
;LAYER:85
G0 X81.536 Y141.536 Z42.8
;TYPE:FILL
G1 F2100 X68.464 Y141.536 A640.23547
G1 X68.464 Y128.464 A640.51722
G1 X81.536 Y128.464 A640.79897
G1 X81.536 Y141.536 A641.08072
G0 F7200 X89.393 Y149.393
G1 F2100 X60.607 Y149.393 A641.70117
G1 X60.607 Y120.607 A642.32162
G1 X89.393 Y120.607 A642.94206
G1 X89.393 Y149.393 A643.56251
G0 F7200 X97.18 Y157.18
G0 X97.25 Y157.25
;TYPE:WALL-OUTER
G1 F1050 X52.75 Y157.25 A644.52165
G1 X52.75 Y112.75 A645.48079
G1 X97.25 Y112.75 A646.43994
G1 X97.25 Y157.25 A647.39908
G0 F7200 X94.5 Y157.25
G0 X91.75 Y151.75
G0 X81.536 Y141.536
;TIME_ELAPSED:1395.814967
;LAYER:86
G0 X81.536 Y141.536 Z43.3
;TYPE:FILL
G1 F2100 X68.464 Y141.536 A647.68083
G1 X68.464 Y128.464 A647.96258
G1 X81.536 Y128.464 A648.24433
G1 X81.536 Y141.536 A648.52608
G0 F7200 X89.393 Y149.393
G1 F2100 X60.607 Y149.393 A649.14653
G1 X60.607 Y120.607 A649.76698
G1 X89.393 Y120.607 A650.38742
G1 X89.393 Y149.393 A651.00787
G0 F7200 X97.18 Y157.18
G0 X97.25 Y157.25
;TYPE:WALL-OUTER
G1 F1050 X52.75 Y157.25 A651.96701
G1 X52.75 Y112.75 A652.92615
G1 X97.25 Y112.75 A653.8853
G1 X97.25 Y157.25 A654.84444
G0 F7200 X94.5 Y157.25
G0 X91.75 Y151.75
G0 X81.536 Y141.536
;TIME_ELAPSED:1411.407175
;LAYER:87
G0 X81.536 Y141.536 Z43.8
;TYPE:FILL
G1 F2100 X68.464 Y141.536 A655.12619
G1 X68.464 Y128.464 A655.40794
G1 X81.536 Y128.464 A655.68969
G1 X81.536 Y141.536 A655.97144
G0 F7200 X89.393 Y149.393
G1 F2100 X60.607 Y149.393 A656.59189
G1 X60.607 Y120.607 A657.21233
G1 X89.393 Y120.607 A657.83278
G1 X89.393 Y149.393 A658.45323
G0 F7200 X97.18 Y157.18
G0 X97.25 Y157.25
;TYPE:WALL-OUTER
G1 F1050 X52.75 Y157.25 A659.41237
G1 X52.75 Y112.75 A660.37151
G1 X97.25 Y112.75 A661.33066
G1 X97.25 Y157.25 A662.2898
G0 F7200 X94.5 Y157.25
G0 X91.75 Y151.75
G0 X81.536 Y141.536
;TIME_ELAPSED:1426.999383
;LAYER:88
G0 X81.536 Y141.536 Z44.3
;TYPE:FILL
G1 F2100 X68.464 Y141.536 A662.57155
G1 X68.464 Y128.464 A662.8533
G1 X81.536 Y128.464 A663.13505
G1 X81.536 Y141.536 A663.4168
G0 F7200 X89.393 Y149.393
G1 F2100 X60.607 Y149.393 A664.03725
G1 X60.607 Y120.607 A664.65769
G1 X89.393 Y120.607 A665.27814
G1 X89.393 Y149.393 A665.89859
G0 F7200 X97.18 Y157.18
G0 X97.25 Y157.25
;TYPE:WALL-OUTER
G1 F1050 X52.75 Y157.25 A666.85773
G1 X52.75 Y112.75 A667.81687
G1 X97.25 Y112.75 A668.77601
G1 X97.25 Y157.25 A669.73516
G0 F7200 X94.5 Y157.25
G0 X91.75 Y151.75
G0 X81.536 Y141.536
;TIME_ELAPSED:1442.591591
;LAYER:89
G0 X81.536 Y141.536 Z44.8
;TYPE:FILL
G1 F2100 X68.464 Y141.536 A670.01691
G1 X68.464 Y128.464 A670.29866
G1 X81.536 Y128.464 A670.58041
G1 X81.536 Y141.536 A670.86216
G0 F7200 X89.393 Y149.393
G1 F2100 X60.607 Y149.393 A671.48261
G1 X60.607 Y120.607 A672.10305
G1 X89.393 Y120.607 A672.7235
G1 X89.393 Y149.393 A673.34395
G0 F7200 X97.18 Y157.18
G0 X97.25 Y157.25
;TYPE:WALL-OUTER
G1 F1050 X52.75 Y157.25 A674.30309
G1 X52.75 Y112.75 A675.26223
G1 X97.25 Y112.75 A676.22137
G1 X97.25 Y157.25 A677.18052
G0 F7200 X94.5 Y157.25
G0 X91.75 Y151.75
G0 X81.536 Y141.536
;TIME_ELAPSED:1458.183799
;LAYER:90
G0 X81.536 Y141.536 Z45.3
;TYPE:FILL
G1 F2100 X68.464 Y141.536 A677.46227
G1 X68.464 Y128.464 A677.74402
G1 X81.536 Y128.464 A678.02577
G1 X81.536 Y141.536 A678.30752
G0 F7200 X89.393 Y149.393
G1 F2100 X60.607 Y149.393 A678.92797
G1 X60.607 Y120.607 A679.54841
G1 X89.393 Y120.607 A680.16886
G1 X89.393 Y149.393 A680.78931
G0 F7200 X97.18 Y157.18
G0 X97.25 Y157.25
;TYPE:WALL-OUTER
G1 F1050 X52.75 Y157.25 A681.74845
G1 X52.75 Y112.75 A682.70759
G1 X97.25 Y112.75 A683.66673
G1 X97.25 Y157.25 A684.62588
G0 F7200 X94.5 Y157.25
G0 X91.75 Y151.75
G0 X81.536 Y141.536
;TIME_ELAPSED:1473.776007
;LAYER:91
G0 X81.536 Y141.536 Z45.8
;TYPE:FILL
G1 F2100 X68.464 Y141.536 A684.90763
G1 X68.464 Y128.464 A685.18938
G1 X81.536 Y128.464 A685.47113
G1 X81.536 Y141.536 A685.75288
G0 F7200 X89.393 Y149.393
G1 F2100 X60.607 Y149.393 A686.37333
G1 X60.607 Y120.607 A686.99377
G1 X89.393 Y120.607 A687.61422
G1 X89.393 Y149.393 A688.23467
G0 F7200 X97.18 Y157.18
G0 X97.25 Y157.25
;TYPE:WALL-OUTER
G1 F1050 X52.75 Y157.25 A689.19381
G1 X52.75 Y112.75 A690.15295
G1 X97.25 Y112.75 A691.11209
G1 X97.25 Y157.25 A692.07124
G0 F7200 X94.5 Y157.25
G0 X91.75 Y151.75
G0 X81.536 Y141.536
;TIME_ELAPSED:1489.368214
;LAYER:92
G0 X81.536 Y141.536 Z46.3
;TYPE:FILL
G1 F2100 X68.464 Y141.536 A692.35299
G1 X68.464 Y128.464 A692.63474
G1 X81.536 Y128.464 A692.91649
G1 X81.536 Y141.536 A693.19824
G0 F7200 X89.393 Y149.393
G1 F2100 X60.607 Y149.393 A693.81868
G1 X60.607 Y120.607 A694.43913
G1 X89.393 Y120.607 A695.05958
G1 X89.393 Y149.393 A695.68002
G0 F7200 X97.18 Y157.18
G0 X97.25 Y157.25
;TYPE:WALL-OUTER
G1 F1050 X52.75 Y157.25 A696.63917
G1 X52.75 Y112.75 A697.59831
G1 X97.25 Y112.75 A698.55745
G1 X97.25 Y157.25 A699.51659
G0 F7200 X94.5 Y157.25
G0 X91.75 Y151.75
G0 X81.536 Y141.536
;TIME_ELAPSED:1504.960422
;LAYER:93
G0 X81.536 Y141.536 Z46.8
;TYPE:FILL
G1 F2100 X68.464 Y141.536 A699.79835
G1 X68.464 Y128.464 A700.0801
G1 X81.536 Y128.464 A700.36185
G1 X81.536 Y141.536 A700.6436
G0 F7200 X89.393 Y149.393
G1 F2100 X60.607 Y149.393 A701.26404
G1 X60.607 Y120.607 A701.88449
G1 X89.393 Y120.607 A702.50494
G1 X89.393 Y149.393 A703.12538
G0 F7200 X97.18 Y157.18
G0 X97.25 Y157.25
;TYPE:WALL-OUTER
G1 F1050 X52.75 Y157.25 A704.08453
G1 X52.75 Y112.75 A705.04367
G1 X97.25 Y112.75 A706.00281
G1 X97.25 Y157.25 A706.96195
G0 F7200 X94.5 Y157.25
G0 X91.75 Y151.75
G0 X81.536 Y141.536
;TIME_ELAPSED:1520.552630
;LAYER:94
G0 X81.536 Y141.536 Z47.3
;TYPE:FILL
G1 F2100 X68.464 Y141.536 A707.2437
G1 X68.464 Y128.464 A707.52546
G1 X81.536 Y128.464 A707.80721
G1 X81.536 Y141.536 A708.08896
G0 F7200 X89.393 Y149.393
G1 F2100 X60.607 Y149.393 A708.7094
G1 X60.607 Y120.607 A709.32985
G1 X89.393 Y120.607 A709.9503
G1 X89.393 Y149.393 A710.57074
G0 F7200 X97.18 Y157.18
G0 X97.25 Y157.25
;TYPE:WALL-OUTER
G1 F1050 X52.75 Y157.25 A711.52989
G1 X52.75 Y112.75 A712.48903
G1 X97.25 Y112.75 A713.44817
G1 X97.25 Y157.25 A714.40731
G0 F7200 X94.5 Y157.25
G0 X91.75 Y151.75
G0 X81.536 Y141.536
;TIME_ELAPSED:1536.144838
;LAYER:95
G0 X81.536 Y141.536 Z47.8
;TYPE:FILL
G1 F2100 X68.464 Y141.536 A714.68906
G1 X68.464 Y128.464 A714.97081
G1 X81.536 Y128.464 A715.25257
G1 X81.536 Y141.536 A715.53432
G0 F7200 X89.393 Y149.393
G1 F2100 X60.607 Y149.393 A716.15476
G1 X60.607 Y120.607 A716.77521
G1 X89.393 Y120.607 A717.39566
G1 X89.393 Y149.393 A718.0161
G0 F7200 X97.18 Y157.18
G0 X97.25 Y157.25
;TYPE:WALL-OUTER
G1 F1050 X52.75 Y157.25 A718.97525
G1 X52.75 Y112.75 A719.93439
G1 X97.25 Y112.75 A720.89353
G1 X97.25 Y157.25 A721.85267
G0 F7200 X94.5 Y157.25
G0 X91.75 Y151.75
G0 X81.536 Y141.536
;TIME_ELAPSED:1551.737046
;LAYER:96
G0 X81.536 Y141.536 Z48.3
;TYPE:FILL
G1 F2100 X68.464 Y141.536 A722.13442
G1 X68.464 Y128.464 A722.41617
G1 X81.536 Y128.464 A722.69792
G1 X81.536 Y141.536 A722.97968
G0 F7200 X89.393 Y149.393
G1 F2100 X60.607 Y149.393 A723.60012
G1 X60.607 Y120.607 A724.22057
G1 X89.393 Y120.607 A724.84102
G1 X89.393 Y149.393 A725.46146
G0 F7200 X97.18 Y157.18
G0 X97.25 Y157.25
;TYPE:WALL-OUTER
G1 F1050 X52.75 Y157.25 A726.4206
G1 X52.75 Y112.75 A727.37975
G1 X97.25 Y112.75 A728.33889
G1 X97.25 Y157.25 A729.29803
G0 F7200 X94.5 Y157.25
G0 X91.75 Y151.75
G0 X81.536 Y141.536
;TIME_ELAPSED:1567.329254
;LAYER:97
G0 X81.536 Y141.536 Z48.8
;TYPE:FILL
G1 F2100 X68.464 Y141.536 A729.57978
G1 X68.464 Y128.464 A729.86153
G1 X81.536 Y128.464 A730.14328
G1 X81.536 Y141.536 A730.42504
G0 F7200 X89.393 Y149.393
G1 F2100 X60.607 Y149.393 A731.04548
G1 X60.607 Y120.607 A731.66593
G1 X89.393 Y120.607 A732.28637
G1 X89.393 Y149.393 A732.90682
G0 F7200 X97.18 Y157.18
G0 X97.25 Y157.25
;TYPE:WALL-OUTER
G1 F1050 X52.75 Y157.25 A733.86596
G1 X52.75 Y112.75 A734.82511
G1 X97.25 Y112.75 A735.78425
G1 X97.25 Y157.25 A736.74339
G0 F7200 X94.5 Y157.25
G0 X91.75 Y151.75
G0 X97.25 Y157.25
;TIME_ELAPSED:1582.884150
;LAYER:98
G0 X97.25 Y157.25 Z49.3
;TYPE:WALL-OUTER
G1 F1050 X52.75 Y157.25 A737.70253
G1 X52.75 Y112.75 A738.66168
G1 X97.25 Y112.75 A739.62082
G1 X97.25 Y157.25 A740.57996
G0 F7200 X94.5 Y157.25
G0 X91.76 Y151.76
;TYPE:SKIN
G1 F1050 X58.24 Y151.76 A741.30244
G1 X58.24 Y118.24 A742.02493
G1 X91.76 Y118.24 A742.74741
G1 X91.76 Y151.76 A743.46989
G0 F7200 X89.284 Y128.175
G1 F1050 X81.823 Y120.714 A743.69731
G0 F7200 X74.045 Y120.714
G1 F1050 X89.284 Y135.954 A744.16184
G0 F7200 X89.284 Y143.732
G1 F1050 X66.267 Y120.714 A744.86345
G0 F7200 X60.715 Y122.94
G1 F1050 X87.058 Y149.284 A745.66644
G0 F7200 X79.28 Y149.284
G1 F1050 X60.715 Y130.718 A746.23235
G0 F7200 X60.715 Y138.496
G1 F1050 X71.502 Y149.284 A746.56117
G0 F7200 X63.724 Y149.284
G1 F1050 X60.715 Y146.274 A746.6529
G0 F7200 X97.18 Y157.18
G0 X97.25 Y157.25
;TIME_ELAPSED:1610.518870
;LAYER:99
G0 X97.25 Y157.25 Z49.8
;TYPE:WALL-OUTER
G1 F1050 X52.75 Y157.25 A747.61205
G1 X52.75 Y112.75 A748.57119
G1 X97.25 Y112.75 A749.53033
G1 X97.25 Y157.25 A750.48947
G0 F7200 X94.5 Y157.25
G0 X91.76 Y151.76
;TYPE:SKIN
G1 F1050 X58.24 Y151.76 A751.21195
G1 X58.24 Y118.24 A751.93444
G1 X91.76 Y118.24 A752.65692
G1 X91.76 Y151.76 A753.3794
G0 F7200 X84.06 Y149.284
G1 F1050 X89.284 Y144.06 A753.53864
G0 F7200 X89.284 Y136.282
G1 F1050 X76.282 Y149.284 A753.93496
G0 F7200 X68.504 Y149.284
G1 F1050 X89.284 Y128.503 A754.56838
G0 F7200 X89.284 Y120.725
G1 F1050 X60.726 Y149.284 A755.43889
G0 F7200 X60.715 Y141.517
G1 F1050 X81.518 Y120.714 A756.073
G0 F7200 X73.739 Y120.714
G1 F1050 X60.715 Y133.739 A756.47001
G0 F7200 X60.715 Y125.961
G1 F1050 X65.961 Y120.714 A756.62993
;TIME_ELAPSED:1637.875792
M107
M104 S0
M140 S0
;Retract the filament
G92 A1
G1 A-1 F300
M84
M82 ;absolute extrusion mode
;End of Gcode
;SETTING_3 {"extruder_quality": ["[general]\\nversion = 4\\nname = Fine #2\\ndef
;SETTING_3 inition = fdmprinter\\n\\n[metadata]\\nposition = 0\\nquality_type = 
;SETTING_3 normal\\ntype = quality_changes\\nsetting_version = 5\\n\\n[values]\\
;SETTING_3 ninfill_pattern = concentric\\ninfill_sparse_density = 70\\nmaterial_
;SETTING_3 flow = 5\\nmaterial_print_temperature = 0\\nretraction_enable = False
;SETTING_3 \\nspeed_print = 35\\ntop_bottom_thickness = 1\\nwall_thickness = 5.5
;SETTING_3 \\n\\n", "[general]\\nversion = 4\\nname = Fine #2\\ndefinition = fdm
;SETTING_3 printer\\n\\n[metadata]\\nposition = 1\\nquality_type = normal\\ntype
;SETTING_3  = quality_changes\\nsetting_version = 5\\n\\n[values]\\n\\n", "[gene
;SETTING_3 ral]\\nversion = 4\\nname = Fine #2\\ndefinition = fdmprinter\\n\\n[m
;SETTING_3 etadata]\\nposition = 2\\nquality_type = normal\\ntype = quality_chan
;SETTING_3 ges\\nsetting_version = 5\\n\\n[values]\\n\\n", "[general]\\nversion 
;SETTING_3 = 4\\nname = Fine #2\\ndefinition = fdmprinter\\n\\n[metadata]\\nposi
;SETTING_3 tion = 3\\nquality_type = normal\\ntype = quality_changes\\nsetting_v
;SETTING_3 ersion = 5\\n\\n[values]\\n\\n", "[general]\\nversion = 4\\nname = Fi
;SETTING_3 ne #2\\ndefinition = fdmprinter\\n\\n[metadata]\\nposition = 4\\nqual
;SETTING_3 ity_type = normal\\ntype = quality_changes\\nsetting_version = 5\\n\\
;SETTING_3 n[values]\\n\\n", "[general]\\nversion = 4\\nname = Fine #2\\ndefinit
;SETTING_3 ion = fdmprinter\\n\\n[metadata]\\nposition = 5\\nquality_type = norm
;SETTING_3 al\\ntype = quality_changes\\nsetting_version = 5\\n\\n[values]\\n\\n
;SETTING_3 ", "[general]\\nversion = 4\\nname = Fine #2\\ndefinition = fdmprinte
;SETTING_3 r\\n\\n[metadata]\\nposition = 6\\nquality_type = normal\\ntype = qua
;SETTING_3 lity_changes\\nsetting_version = 5\\n\\n[values]\\n\\n", "[general]\\
;SETTING_3 nversion = 4\\nname = Fine #2\\ndefinition = fdmprinter\\n\\n[metadat
;SETTING_3 a]\\nposition = 7\\nquality_type = normal\\ntype = quality_changes\\n
;SETTING_3 setting_version = 5\\n\\n[values]\\n\\n"], "global_quality": "[genera
;SETTING_3 l]\\nversion = 4\\nname = Fine #2\\ndefinition = fdmprinter\\n\\n[met
;SETTING_3 adata]\\nquality_type = normal\\ntype = quality_changes\\nsetting_ver
;SETTING_3 sion = 5\\n\\n[values]\\nlayer_height = 0.5\\n\\n"}
