;FLAVOR:Mach3
;TIME:1637
;Generated with Cura_SteamEngine 3.5.1
M109 S0
M82 ;absolute extrusion mode
G90
G92 Z0
G1 F6000 Z-170.0
;Prime the extruder
G92 A0 X0 Y0 Z0
G1 F200 A0.01
G92 A0
G92 A0
;LAYER_COUNT:101
;LAYER:0
M107
;TYPE:SKIRT
G1 X46.871 Y102.366 Z0.3
G1 F1050 X47.637 Y102.096 A0.02101
G1 X48.425 Y101.902 A0.042
G1 X49.229 Y101.786 A0.06301
G1 X50 Y101.75 A0.08297
G1 X100 Y101.75 A1.3762
G1 X100.811 Y101.79 A1.3972
G1 X101.614 Y101.91 A1.4182
G1 X102.402 Y102.107 A1.43921
G1 X103.167 Y102.382 A1.46023
G1 X103.9 Y102.73 A1.48122
G1 X104.596 Y103.149 A1.50223
G1 X105.247 Y103.634 A1.52323
G1 X105.848 Y104.181 A1.54425
G1 X106.392 Y104.784 A1.56525
G1 X106.874 Y105.438 A1.58627
G1 X107.289 Y106.136 A1.60727
G1 X107.634 Y106.871 A1.62827
G1 X107.904 Y107.637 A1.64928
G1 X108.098 Y108.425 A1.67027
G1 X108.214 Y109.229 A1.69128
G1 X108.25 Y110 A1.71124
G1 X108.25 Y160 A3.00447
G1 X108.21 Y160.811 A3.02547
G1 X108.09 Y161.614 A3.04647
G1 X107.893 Y162.402 A3.06748
G1 X107.618 Y163.167 A3.0885
G1 X107.27 Y163.9 A3.10949
G1 X106.851 Y164.596 A3.1305
G1 X106.366 Y165.247 A3.1515
G1 X105.819 Y165.848 A3.17252
G1 X105.216 Y166.392 A3.19352
G1 X104.562 Y166.874 A3.21453
G1 X103.864 Y167.289 A3.23554
G1 X103.129 Y167.634 A3.25654
G1 X102.363 Y167.904 A3.27754
G1 X101.575 Y168.098 A3.29853
G1 X100.771 Y168.214 A3.31955
G1 X100 Y168.25 A3.33951
G1 X50 Y168.25 A4.63273
G1 X49.189 Y168.21 A4.65374
G1 X48.386 Y168.09 A4.67474
G1 X47.598 Y167.893 A4.69574
G1 X46.833 Y167.618 A4.71677
G1 X46.1 Y167.27 A4.73776
G1 X45.404 Y166.851 A4.75877
G1 X44.753 Y166.366 A4.77977
G1 X44.152 Y165.819 A4.80078
G1 X43.608 Y165.216 A4.82179
G1 X43.126 Y164.562 A4.8428
G1 X42.711 Y163.864 A4.86381
G1 X42.366 Y163.129 A4.88481
G1 X42.096 Y162.363 A4.90581
G1 X41.902 Y161.575 A4.9268
G1 X41.786 Y160.771 A4.94781
G1 X41.75 Y160 A4.96778
G1 X41.75 Y110 A6.261
G1 X41.79 Y109.189 A6.282
G1 X41.91 Y108.386 A6.303
G1 X42.107 Y107.598 A6.32401
G1 X42.382 Y106.833 A6.34504
G1 X42.73 Y106.1 A6.36603
G1 X43.149 Y105.404 A6.38704
G1 X43.634 Y104.753 A6.40803
G1 X44.181 Y104.152 A6.42905
G1 X44.784 Y103.608 A6.45006
G1 X45.438 Y103.126 A6.47107
G1 X46.136 Y102.711 A6.49208
G1 X46.871 Y102.366 A6.51308
G0 F3600 X48.989 Y107.443
G1 F1050 X49.438 Y107.308 A6.5252
G1 X50 Y107.25 A6.53982
G1 X100 Y107.25 A7.83304
G1 X100.467 Y107.29 A7.84516
G1 X100.92 Y107.409 A7.85728
G1 X101.347 Y107.602 A7.8694
G1 X101.734 Y107.866 A7.88152
G1 X102.072 Y108.191 A7.89364
G1 X102.349 Y108.569 A7.90576
G1 X102.557 Y108.989 A7.91789
G1 X102.692 Y109.438 A7.93001
G1 X102.75 Y110 A7.94463
G1 X102.75 Y160 A9.23785
G1 X102.71 Y160.467 A9.24997
G1 X102.591 Y160.92 A9.26209
G1 X102.398 Y161.347 A9.27421
G1 X102.134 Y161.734 A9.28633
G1 X101.809 Y162.072 A9.29845
G1 X101.431 Y162.349 A9.31057
G1 X101.011 Y162.557 A9.3227
G1 X100.562 Y162.692 A9.33482
G1 X100 Y162.75 A9.34944
G1 X50 Y162.75 A10.64266
G1 X49.533 Y162.71 A10.65479
G1 X49.08 Y162.591 A10.6669
G1 X48.653 Y162.398 A10.67902
G1 X48.266 Y162.134 A10.69114
G1 X47.928 Y161.809 A10.70326
G1 X47.651 Y161.431 A10.71538
G1 X47.443 Y161.011 A10.72751
G1 X47.308 Y160.562 A10.73963
G1 X47.25 Y160 A10.75425
G1 X47.25 Y110 A12.04747
G1 X47.29 Y109.533 A12.0596
G1 X47.409 Y109.08 A12.07171
G1 X47.602 Y108.653 A12.08383
G1 X47.866 Y108.266 A12.09595
G1 X48.191 Y107.928 A12.10807
G1 X48.569 Y107.651 A12.1202
G1 X48.989 Y107.443 A12.13232
G0 F3600 X52.764 Y109.335
G0 X52.764 Y112.764
G0 X97.15 Y157.18
G0 X97.25 Y157.25
;TYPE:WALL-OUTER
G1 F1050 X52.75 Y157.25 A13.28329
G1 X52.75 Y112.75 A14.43426
G1 X97.25 Y112.75 A15.58523
G1 X97.25 Y157.25 A16.7362
G0 F3600 X94.5 Y157.25
G0 X91.76 Y151.76
;TYPE:SKIN
G1 F1050 X58.24 Y151.76 A17.60318
G1 X58.24 Y118.24 A18.47016
G1 X91.76 Y118.24 A19.33714
G1 X91.76 Y151.76 A20.20412
G0 F3600 X89.284 Y128.175
G1 F1050 X81.823 Y120.714 A20.47702
G0 F3600 X74.045 Y120.714
G1 F1050 X89.284 Y135.954 A21.03445
G0 F3600 X89.284 Y143.732
G1 F1050 X66.267 Y120.714 A21.87639
G0 F3600 X60.715 Y122.94
G1 F1050 X87.058 Y149.284 A22.83998
G0 F3600 X79.28 Y149.284
G1 F1050 X60.715 Y130.718 A23.51906
G0 F3600 X60.715 Y138.496
G1 F1050 X71.502 Y149.284 A23.91365
G0 F3600 X63.724 Y149.284
G1 F1050 X60.715 Y146.274 A24.02373
G0 F3600 X97.18 Y157.18
G0 X97.25 Y157.25
;TIME_ELAPSED:58.299973
;LAYER:1
M106 S255
G0 F5400 X97.25 Y157.25 Z0.8
;TYPE:WALL-OUTER
G1 F1050 X52.75 Y157.25 A25.94202
G1 X52.75 Y112.75 A27.8603
G1 X97.25 Y112.75 A29.77859
G1 X97.25 Y157.25 A31.69687
G0 F5400 X94.5 Y157.25
G0 X91.76 Y151.76
;TYPE:SKIN
G1 F1050 X58.24 Y151.76 A33.14183
G1 X58.24 Y118.24 A34.5868
G1 X91.76 Y118.24 A36.03176
G1 X91.76 Y151.76 A37.47673
G0 F5400 X84.06 Y149.284
G1 F1050 X89.284 Y144.06 A37.7952
G0 F5400 X89.284 Y136.282
G1 F1050 X76.282 Y149.284 A38.58784
G0 F5400 X68.504 Y149.284
G1 F1050 X89.284 Y128.503 A39.85469
G0 F5400 X89.284 Y120.725
G1 F1050 X60.726 Y149.284 A41.59571
G0 F5400 X60.715 Y141.517
G1 F1050 X81.518 Y120.714 A42.86393
G0 F5400 X73.739 Y120.714
G1 F1050 X60.715 Y133.739 A43.65794
G0 F5400 X60.715 Y125.961
G1 F1050 X65.961 Y120.714 A43.97779
G0 F5400 X81.536 Y141.536
;TIME_ELAPSED:86.069506
;LAYER:2
G0 F7200 X81.536 Y141.536 Z1.3
;TYPE:FILL
G1 F2100 X68.464 Y141.536 A44.54129
G1 X68.464 Y128.464 A45.10479
G1 X81.536 Y128.464 A45.66829
G1 X81.536 Y141.536 A46.23179
G0 F7200 X89.393 Y149.393
G1 F2100 X60.607 Y149.393 A47.47269
G1 X60.607 Y120.607 A48.71358
G1 X89.393 Y120.607 A49.95447
G1 X89.393 Y149.393 A51.19537
G0 F7200 X97.18 Y157.18
G0 X97.25 Y157.25
;TYPE:WALL-OUTER
G1 F1050 X52.75 Y157.25 A53.11365
G1 X52.75 Y112.75 A55.03194
G1 X97.25 Y112.75 A56.95022
G1 X97.25 Y157.25 A58.86851
G0 F7200 X94.5 Y157.25
G0 X91.75 Y151.75
G0 X81.536 Y141.536
;TIME_ELAPSED:101.661714
;LAYER:3
G0 X81.536 Y141.536 Z1.8
;TYPE:FILL
G1 F2100 X68.464 Y141.536 A59.43201
G1 X68.464 Y128.464 A59.99551
G1 X81.536 Y128.464 A60.55901
G1 X81.536 Y141.536 A61.12251
G0 F7200 X89.393 Y149.393
G1 F2100 X60.607 Y149.393 A62.36341
G1 X60.607 Y120.607 A63.6043
G1 X89.393 Y120.607 A64.84519
G1 X89.393 Y149.393 A66.08609
G0 F7200 X97.18 Y157.18
G0 X97.25 Y157.25
;TYPE:WALL-OUTER
G1 F1050 X52.75 Y157.25 A68.00437
G1 X52.75 Y112.75 A69.92265
G1 X97.25 Y112.75 A71.84094
G1 X97.25 Y157.25 A73.75922
G0 F7200 X94.5 Y157.25
G0 X91.75 Y151.75
G0 X81.536 Y141.536
;TIME_ELAPSED:117.253922
;LAYER:4
G0 X81.536 Y141.536 Z2.3
;TYPE:FILL
G1 F2100 X68.464 Y141.536 A74.32273
G1 X68.464 Y128.464 A74.88623
G1 X81.536 Y128.464 A75.44973
G1 X81.536 Y141.536 A76.01323
G0 F7200 X89.393 Y149.393
G1 F2100 X60.607 Y149.393 A77.25412
G1 X60.607 Y120.607 A78.49502
G1 X89.393 Y120.607 A79.73591
G1 X89.393 Y149.393 A80.9768
G0 F7200 X97.18 Y157.18
G0 X97.25 Y157.25
;TYPE:WALL-OUTER
G1 F1050 X52.75 Y157.25 A82.89509
G1 X52.75 Y112.75 A84.81337
G1 X97.25 Y112.75 A86.73166
G1 X97.25 Y157.25 A88.64994
G0 F7200 X94.5 Y157.25
G0 X91.75 Y151.75
G0 X81.536 Y141.536
;TIME_ELAPSED:132.846130
;LAYER:5
G0 X81.536 Y141.536 Z2.8
;TYPE:FILL
G1 F2100 X68.464 Y141.536 A89.21344
G1 X68.464 Y128.464 A89.77695
G1 X81.536 Y128.464 A90.34045
G1 X81.536 Y141.536 A90.90395
G0 F7200 X89.393 Y149.393
G1 F2100 X60.607 Y149.393 A92.14484
G1 X60.607 Y120.607 A93.38574
G1 X89.393 Y120.607 A94.62663
G1 X89.393 Y149.393 A95.86752
G0 F7200 X97.18 Y157.18
G0 X97.25 Y157.25
;TYPE:WALL-OUTER
G1 F1050 X52.75 Y157.25 A97.78581
G1 X52.75 Y112.75 A99.70409
G1 X97.25 Y112.75 A101.62238
G1 X97.25 Y157.25 A103.54066
G0 F7200 X94.5 Y157.25
G0 X91.75 Y151.75
G0 X81.536 Y141.536
;TIME_ELAPSED:148.438338
;LAYER:6
G0 X81.536 Y141.536 Z3.3
;TYPE:FILL
G1 F2100 X68.464 Y141.536 A104.10416
G1 X68.464 Y128.464 A104.66767
G1 X81.536 Y128.464 A105.23117
G1 X81.536 Y141.536 A105.79467
G0 F7200 X89.393 Y149.393
G1 F2100 X60.607 Y149.393 A107.03556
G1 X60.607 Y120.607 A108.27645
G1 X89.393 Y120.607 A109.51735
G1 X89.393 Y149.393 A110.75824
G0 F7200 X97.18 Y157.18
G0 X97.25 Y157.25
;TYPE:WALL-OUTER
G1 F1050 X52.75 Y157.25 A112.67653
G1 X52.75 Y112.75 A114.59481
G1 X97.25 Y112.75 A116.5131
G1 X97.25 Y157.25 A118.43138
G0 F7200 X94.5 Y157.25
G0 X91.75 Y151.75
G0 X81.536 Y141.536
;TIME_ELAPSED:164.030545
;LAYER:7
G0 X81.536 Y141.536 Z3.8
;TYPE:FILL
G1 F2100 X68.464 Y141.536 A118.99488
G1 X68.464 Y128.464 A119.55838
G1 X81.536 Y128.464 A120.12189
G1 X81.536 Y141.536 A120.68539
G0 F7200 X89.393 Y149.393
G1 F2100 X60.607 Y149.393 A121.92628
G1 X60.607 Y120.607 A123.16717
G1 X89.393 Y120.607 A124.40807
G1 X89.393 Y149.393 A125.64896
G0 F7200 X97.18 Y157.18
G0 X97.25 Y157.25
;TYPE:WALL-OUTER
G1 F1050 X52.75 Y157.25 A127.56724
G1 X52.75 Y112.75 A129.48553
G1 X97.25 Y112.75 A131.40381
G1 X97.25 Y157.25 A133.3221
G0 F7200 X94.5 Y157.25
G0 X91.75 Y151.75
G0 X81.536 Y141.536
;TIME_ELAPSED:179.622753
;LAYER:8
G0 X81.536 Y141.536 Z4.3
;TYPE:FILL
G1 F2100 X68.464 Y141.536 A133.8856
G1 X68.464 Y128.464 A134.4491
G1 X81.536 Y128.464 A135.0126
G1 X81.536 Y141.536 A135.57611
G0 F7200 X89.393 Y149.393
G1 F2100 X60.607 Y149.393 A136.817
G1 X60.607 Y120.607 A138.05789
G1 X89.393 Y120.607 A139.29879
G1 X89.393 Y149.393 A140.53968
G0 F7200 X97.18 Y157.18
G0 X97.25 Y157.25
;TYPE:WALL-OUTER
G1 F1050 X52.75 Y157.25 A142.45796
G1 X52.75 Y112.75 A144.37625
G1 X97.25 Y112.75 A146.29453
G1 X97.25 Y157.25 A148.21282
G0 F7200 X94.5 Y157.25
G0 X91.75 Y151.75
G0 X81.536 Y141.536
;TIME_ELAPSED:195.214961
;LAYER:9
G0 X81.536 Y141.536 Z4.8
;TYPE:FILL
G1 F2100 X68.464 Y141.536 A148.77632
G1 X68.464 Y128.464 A149.33982
G1 X81.536 Y128.464 A149.90332
G1 X81.536 Y141.536 A150.46682
G0 F7200 X89.393 Y149.393
G1 F2100 X60.607 Y149.393 A151.70772
G1 X60.607 Y120.607 A152.94861
G1 X89.393 Y120.607 A154.1895
G1 X89.393 Y149.393 A155.4304
G0 F7200 X97.18 Y157.18
G0 X97.25 Y157.25
;TYPE:WALL-OUTER
G1 F1050 X52.75 Y157.25 A157.34868
G1 X52.75 Y112.75 A159.26697
G1 X97.25 Y112.75 A161.18525
G1 X97.25 Y157.25 A163.10354
G0 F7200 X94.5 Y157.25
G0 X91.75 Y151.75
G0 X81.536 Y141.536
;TIME_ELAPSED:210.807169
;LAYER:10
G0 X81.536 Y141.536 Z5.3
;TYPE:FILL
G1 F2100 X68.464 Y141.536 A163.66704
G1 X68.464 Y128.464 A164.23054
G1 X81.536 Y128.464 A164.79404
G1 X81.536 Y141.536 A165.35754
G0 F7200 X89.393 Y149.393
G1 F2100 X60.607 Y149.393 A166.59844
G1 X60.607 Y120.607 A167.83933
G1 X89.393 Y120.607 A169.08022
G1 X89.393 Y149.393 A170.32112
G0 F7200 X97.18 Y157.18
G0 X97.25 Y157.25
;TYPE:WALL-OUTER
G1 F1050 X52.75 Y157.25 A172.2394
G1 X52.75 Y112.75 A174.15769
G1 X97.25 Y112.75 A176.07597
G1 X97.25 Y157.25 A177.99426
G0 F7200 X94.5 Y157.25
G0 X91.75 Y151.75
G0 X81.536 Y141.536
;TIME_ELAPSED:226.399377
;LAYER:11
G0 X81.536 Y141.536 Z5.8
;TYPE:FILL
G1 F2100 X68.464 Y141.536 A178.55776
G1 X68.464 Y128.464 A179.12126
G1 X81.536 Y128.464 A179.68476
G1 X81.536 Y141.536 A180.24826
G0 F7200 X89.393 Y149.393
G1 F2100 X60.607 Y149.393 A181.48915
G1 X60.607 Y120.607 A182.73005
G1 X89.393 Y120.607 A183.97094
G1 X89.393 Y149.393 A185.21183
G0 F7200 X97.18 Y157.18
G0 X97.25 Y157.25
;TYPE:WALL-OUTER
G1 F1050 X52.75 Y157.25 A187.13012
G1 X52.75 Y112.75 A189.0484
G1 X97.25 Y112.75 A190.96669
G1 X97.25 Y157.25 A192.88497
G0 F7200 X94.5 Y157.25
G0 X91.75 Y151.75
G0 X81.536 Y141.536
;TIME_ELAPSED:241.991585
;LAYER:12
G0 X81.536 Y141.536 Z6.3
;TYPE:FILL
G1 F2100 X68.464 Y141.536 A193.44848
G1 X68.464 Y128.464 A194.01198
G1 X81.536 Y128.464 A194.57548
G1 X81.536 Y141.536 A195.13898
G0 F7200 X89.393 Y149.393
G1 F2100 X60.607 Y149.393 A196.37987
G1 X60.607 Y120.607 A197.62077
G1 X89.393 Y120.607 A198.86166
G1 X89.393 Y149.393 A200.10255
G0 F7200 X97.18 Y157.18
G0 X97.25 Y157.25
;TYPE:WALL-OUTER
G1 F1050 X52.75 Y157.25 A202.02084
G1 X52.75 Y112.75 A203.93912
G1 X97.25 Y112.75 A205.85741
G1 X97.25 Y157.25 A207.77569
G0 F7200 X94.5 Y157.25
G0 X91.75 Y151.75
G0 X81.536 Y141.536
;TIME_ELAPSED:257.583793
;LAYER:13
G0 X81.536 Y141.536 Z6.8
;TYPE:FILL
G1 F2100 X68.464 Y141.536 A208.33919
G1 X68.464 Y128.464 A208.9027
G1 X81.536 Y128.464 A209.4662
G1 X81.536 Y141.536 A210.0297
G0 F7200 X89.393 Y149.393
G1 F2100 X60.607 Y149.393 A211.27059
G1 X60.607 Y120.607 A212.51149
G1 X89.393 Y120.607 A213.75238
G1 X89.393 Y149.393 A214.99327
G0 F7200 X97.18 Y157.18
G0 X97.25 Y157.25
;TYPE:WALL-OUTER
G1 F1050 X52.75 Y157.25 A216.91156
G1 X52.75 Y112.75 A218.82984
G1 X97.25 Y112.75 A220.74813
G1 X97.25 Y157.25 A222.66641
G0 F7200 X94.5 Y157.25
G0 X91.75 Y151.75
G0 X81.536 Y141.536
;TIME_ELAPSED:273.176001
;LAYER:14
G0 X81.536 Y141.536 Z7.3
;TYPE:FILL
G1 F2100 X68.464 Y141.536 A223.22991
G1 X68.464 Y128.464 A223.79341
G1 X81.536 Y128.464 A224.35692
G1 X81.536 Y141.536 A224.92042
G0 F7200 X89.393 Y149.393
G1 F2100 X60.607 Y149.393 A226.16131
G1 X60.607 Y120.607 A227.4022
G1 X89.393 Y120.607 A228.6431
G1 X89.393 Y149.393 A229.88399
G0 F7200 X97.18 Y157.18
G0 X97.25 Y157.25
;TYPE:WALL-OUTER
G1 F1050 X52.75 Y157.25 A231.80228
G1 X52.75 Y112.75 A233.72056
G1 X97.25 Y112.75 A235.63885
G1 X97.25 Y157.25 A237.55713
G0 F7200 X94.5 Y157.25
G0 X91.75 Y151.75
G0 X81.536 Y141.536
;TIME_ELAPSED:288.768208
;LAYER:15
G0 X81.536 Y141.536 Z7.8
;TYPE:FILL
G1 F2100 X68.464 Y141.536 A238.12063
G1 X68.464 Y128.464 A238.68413
G1 X81.536 Y128.464 A239.24764
G1 X81.536 Y141.536 A239.81114
G0 F7200 X89.393 Y149.393
G1 F2100 X60.607 Y149.393 A241.05203
G1 X60.607 Y120.607 A242.29292
G1 X89.393 Y120.607 A243.53382
G1 X89.393 Y149.393 A244.77471
G0 F7200 X97.18 Y157.18
G0 X97.25 Y157.25
;TYPE:WALL-OUTER
G1 F1050 X52.75 Y157.25 A246.69299
G1 X52.75 Y112.75 A248.61128
G1 X97.25 Y112.75 A250.52956
G1 X97.25 Y157.25 A252.44785
G0 F7200 X94.5 Y157.25
G0 X91.75 Y151.75
G0 X81.536 Y141.536
;TIME_ELAPSED:304.360416
;LAYER:16
G0 X81.536 Y141.536 Z8.3
;TYPE:FILL
G1 F2100 X68.464 Y141.536 A253.01135
G1 X68.464 Y128.464 A253.57485
G1 X81.536 Y128.464 A254.13835
G1 X81.536 Y141.536 A254.70186
G0 F7200 X89.393 Y149.393
G1 F2100 X60.607 Y149.393 A255.94275
G1 X60.607 Y120.607 A257.18364
G1 X89.393 Y120.607 A258.42453
G1 X89.393 Y149.393 A259.66543
G0 F7200 X97.18 Y157.18
G0 X97.25 Y157.25
;TYPE:WALL-OUTER
G1 F1050 X52.75 Y157.25 A261.58371
G1 X52.75 Y112.75 A263.502
G1 X97.25 Y112.75 A265.42028
G1 X97.25 Y157.25 A267.33857
G0 F7200 X94.5 Y157.25
G0 X91.75 Y151.75
G0 X81.536 Y141.536
;TIME_ELAPSED:319.952624
;LAYER:17
G0 X81.536 Y141.536 Z8.8
;TYPE:FILL
G1 F2100 X68.464 Y141.536 A267.90207
G1 X68.464 Y128.464 A268.46557
G1 X81.536 Y128.464 A269.02907
G1 X81.536 Y141.536 A269.59257
G0 F7200 X89.393 Y149.393
G1 F2100 X60.607 Y149.393 A270.83347
G1 X60.607 Y120.607 A272.07436
G1 X89.393 Y120.607 A273.31525
G1 X89.393 Y149.393 A274.55615
G0 F7200 X97.18 Y157.18
G0 X97.25 Y157.25
;TYPE:WALL-OUTER
G1 F1050 X52.75 Y157.25 A276.47443
G1 X52.75 Y112.75 A278.39272
G1 X97.25 Y112.75 A280.311
G1 X97.25 Y157.25 A282.22929
G0 F7200 X94.5 Y157.25
G0 X91.75 Y151.75
G0 X81.536 Y141.536
;TIME_ELAPSED:335.544832
;LAYER:18
G0 X81.536 Y141.536 Z9.3
;TYPE:FILL
G1 F2100 X68.464 Y141.536 A282.79279
G1 X68.464 Y128.464 A283.35629
G1 X81.536 Y128.464 A283.91979
G1 X81.536 Y141.536 A284.48329
G0 F7200 X89.393 Y149.393
G1 F2100 X60.607 Y149.393 A285.72419
G1 X60.607 Y120.607 A286.96508
G1 X89.393 Y120.607 A288.20597
G1 X89.393 Y149.393 A289.44687
G0 F7200 X97.18 Y157.18
G0 X97.25 Y157.25
;TYPE:WALL-OUTER
G1 F1050 X52.75 Y157.25 A291.36515
G1 X52.75 Y112.75 A293.28344
G1 X97.25 Y112.75 A295.20172
G1 X97.25 Y157.25 A297.12001
G0 F7200 X94.5 Y157.25
G0 X91.75 Y151.75
G0 X81.536 Y141.536
;TIME_ELAPSED:351.137040
;LAYER:19
G0 X81.536 Y141.536 Z9.8
;TYPE:FILL
G1 F2100 X68.464 Y141.536 A297.68351
G1 X68.464 Y128.464 A298.24701
G1 X81.536 Y128.464 A298.81051
G1 X81.536 Y141.536 A299.37401
G0 F7200 X89.393 Y149.393
G1 F2100 X60.607 Y149.393 A300.6149
G1 X60.607 Y120.607 A301.8558
G1 X89.393 Y120.607 A303.09669
G1 X89.393 Y149.393 A304.33758
G0 F7200 X97.18 Y157.18
G0 X97.25 Y157.25
;TYPE:WALL-OUTER
G1 F1050 X52.75 Y157.25 A306.25587
G1 X52.75 Y112.75 A308.17415
G1 X97.25 Y112.75 A310.09244
G1 X97.25 Y157.25 A312.01072
G0 F7200 X94.5 Y157.25
G0 X91.75 Y151.75
G0 X81.536 Y141.536
;TIME_ELAPSED:366.729248
;LAYER:20
G0 X81.536 Y141.536 Z10.3
;TYPE:FILL
G1 F2100 X68.464 Y141.536 A312.57423
G1 X68.464 Y128.464 A313.13773
G1 X81.536 Y128.464 A313.70123
G1 X81.536 Y141.536 A314.26473
G0 F7200 X89.393 Y149.393
G1 F2100 X60.607 Y149.393 A315.50562
G1 X60.607 Y120.607 A316.74652
G1 X89.393 Y120.607 A317.98741
G1 X89.393 Y149.393 A319.2283
G0 F7200 X97.18 Y157.18
G0 X97.25 Y157.25
;TYPE:WALL-OUTER
G1 F1050 X52.75 Y157.25 A321.14659
G1 X52.75 Y112.75 A323.06487
G1 X97.25 Y112.75 A324.98316
G1 X97.25 Y157.25 A326.90144
G0 F7200 X94.5 Y157.25
G0 X91.75 Y151.75
G0 X81.536 Y141.536
;TIME_ELAPSED:382.321456
;LAYER:21
G0 X81.536 Y141.536 Z10.8
;TYPE:FILL
G1 F2100 X68.464 Y141.536 A327.46494
G1 X68.464 Y128.464 A328.02845
G1 X81.536 Y128.464 A328.59195
G1 X81.536 Y141.536 A329.15545
G0 F7200 X89.393 Y149.393
G1 F2100 X60.607 Y149.393 A330.39634
G1 X60.607 Y120.607 A331.63724
G1 X89.393 Y120.607 A332.87813
G1 X89.393 Y149.393 A334.11902
G0 F7200 X97.18 Y157.18
G0 X97.25 Y157.25
;TYPE:WALL-OUTER
G1 F1050 X52.75 Y157.25 A336.03731
G1 X52.75 Y112.75 A337.95559
G1 X97.25 Y112.75 A339.87388
G1 X97.25 Y157.25 A341.79216
G0 F7200 X94.5 Y157.25
G0 X91.75 Y151.75
G0 X81.536 Y141.536
;TIME_ELAPSED:397.913664
;LAYER:22
G0 X81.536 Y141.536 Z11.3
;TYPE:FILL
G1 F2100 X68.464 Y141.536 A342.35566
G1 X68.464 Y128.464 A342.91916
G1 X81.536 Y128.464 A343.48267
G1 X81.536 Y141.536 A344.04617
G0 F7200 X89.393 Y149.393
G1 F2100 X60.607 Y149.393 A345.28706
G1 X60.607 Y120.607 A346.52795
G1 X89.393 Y120.607 A347.76885
G1 X89.393 Y149.393 A349.00974
G0 F7200 X97.18 Y157.18
G0 X97.25 Y157.25
;TYPE:WALL-OUTER
G1 F1050 X52.75 Y157.25 A350.92803
G1 X52.75 Y112.75 A352.84631
G1 X97.25 Y112.75 A354.7646
G1 X97.25 Y157.25 A356.68288
G0 F7200 X94.5 Y157.25
G0 X91.75 Y151.75
G0 X81.536 Y141.536
;TIME_ELAPSED:413.505871
;LAYER:23
G0 X81.536 Y141.536 Z11.8
;TYPE:FILL
G1 F2100 X68.464 Y141.536 A357.24638
G1 X68.464 Y128.464 A357.80988
G1 X81.536 Y128.464 A358.37338
G1 X81.536 Y141.536 A358.93689
G0 F7200 X89.393 Y149.393
G1 F2100 X60.607 Y149.393 A360.17778
G1 X60.607 Y120.607 A361.41867
G1 X89.393 Y120.607 A362.65957
G1 X89.393 Y149.393 A363.90046
G0 F7200 X97.18 Y157.18
G0 X97.25 Y157.25
;TYPE:WALL-OUTER
G1 F1050 X52.75 Y157.25 A365.81874
G1 X52.75 Y112.75 A367.73703
G1 X97.25 Y112.75 A369.65531
G1 X97.25 Y157.25 A371.5736
G0 F7200 X94.5 Y157.25
G0 X91.75 Y151.75
G0 X81.536 Y141.536
;TIME_ELAPSED:429.098079
;LAYER:24
G0 X81.536 Y141.536 Z12.3
;TYPE:FILL
G1 F2100 X68.464 Y141.536 A372.1371
G1 X68.464 Y128.464 A372.7006
G1 X81.536 Y128.464 A373.2641
G1 X81.536 Y141.536 A373.8276
G0 F7200 X89.393 Y149.393
G1 F2100 X60.607 Y149.393 A375.0685
G1 X60.607 Y120.607 A376.30939
G1 X89.393 Y120.607 A377.55028
G1 X89.393 Y149.393 A378.79118
G0 F7200 X97.18 Y157.18
G0 X97.25 Y157.25
;TYPE:WALL-OUTER
G1 F1050 X52.75 Y157.25 A380.70946
G1 X52.75 Y112.75 A382.62775
G1 X97.25 Y112.75 A384.54603
G1 X97.25 Y157.25 A386.46432
G0 F7200 X94.5 Y157.25
G0 X91.75 Y151.75
G0 X81.536 Y141.536
;TIME_ELAPSED:444.690287
;LAYER:25
G0 X81.536 Y141.536 Z12.8
;TYPE:FILL
G1 F2100 X68.464 Y141.536 A387.02782
G1 X68.464 Y128.464 A387.59132
G1 X81.536 Y128.464 A388.15482
G1 X81.536 Y141.536 A388.71832
G0 F7200 X89.393 Y149.393
G1 F2100 X60.607 Y149.393 A389.95922
G1 X60.607 Y120.607 A391.20011
G1 X89.393 Y120.607 A392.441
G1 X89.393 Y149.393 A393.6819
G0 F7200 X97.18 Y157.18
G0 X97.25 Y157.25
;TYPE:WALL-OUTER
G1 F1050 X52.75 Y157.25 A395.60018
G1 X52.75 Y112.75 A397.51847
G1 X97.25 Y112.75 A399.43675
G1 X97.25 Y157.25 A401.35504
G0 F7200 X94.5 Y157.25
G0 X91.75 Y151.75
G0 X81.536 Y141.536
;TIME_ELAPSED:460.282495
;LAYER:26
G0 X81.536 Y141.536 Z13.3
;TYPE:FILL
G1 F2100 X68.464 Y141.536 A401.91854
G1 X68.464 Y128.464 A402.48204
G1 X81.536 Y128.464 A403.04554
G1 X81.536 Y141.536 A403.60904
G0 F7200 X89.393 Y149.393
G1 F2100 X60.607 Y149.393 A404.84994
G1 X60.607 Y120.607 A406.09083
G1 X89.393 Y120.607 A407.33172
G1 X89.393 Y149.393 A408.57262
G0 F7200 X97.18 Y157.18
G0 X97.25 Y157.25
;TYPE:WALL-OUTER
G1 F1050 X52.75 Y157.25 A410.4909
G1 X52.75 Y112.75 A412.40918
G1 X97.25 Y112.75 A414.32747
G1 X97.25 Y157.25 A416.24575
G0 F7200 X94.5 Y157.25
G0 X91.75 Y151.75
G0 X81.536 Y141.536
;TIME_ELAPSED:475.874703
;LAYER:27
G0 X81.536 Y141.536 Z13.8
;TYPE:FILL
G1 F2100 X68.464 Y141.536 A416.80926
G1 X68.464 Y128.464 A417.37276
G1 X81.536 Y128.464 A417.93626
G1 X81.536 Y141.536 A418.49976
G0 F7200 X89.393 Y149.393
G1 F2100 X60.607 Y149.393 A419.74065
G1 X60.607 Y120.607 A420.98155
G1 X89.393 Y120.607 A422.22244
G1 X89.393 Y149.393 A423.46333
G0 F7200 X97.18 Y157.18
G0 X97.25 Y157.25
;TYPE:WALL-OUTER
G1 F1050 X52.75 Y157.25 A425.38162
G1 X52.75 Y112.75 A427.2999
G1 X97.25 Y112.75 A429.21819
G1 X97.25 Y157.25 A431.13647
G0 F7200 X94.5 Y157.25
G0 X91.75 Y151.75
G0 X81.536 Y141.536
;TIME_ELAPSED:491.466911
;LAYER:28
G0 X81.536 Y141.536 Z14.3
;TYPE:FILL
G1 F2100 X68.464 Y141.536 A431.69998
G1 X68.464 Y128.464 A432.26348
G1 X81.536 Y128.464 A432.82698
G1 X81.536 Y141.536 A433.39048
G0 F7200 X89.393 Y149.393
G1 F2100 X60.607 Y149.393 A434.63137
G1 X60.607 Y120.607 A435.87227
G1 X89.393 Y120.607 A437.11316
G1 X89.393 Y149.393 A438.35405
G0 F7200 X97.18 Y157.18
G0 X97.25 Y157.25
;TYPE:WALL-OUTER
G1 F1050 X52.75 Y157.25 A440.27234
G1 X52.75 Y112.75 A442.19062
G1 X97.25 Y112.75 A444.10891
G1 X97.25 Y157.25 A446.02719
G0 F7200 X94.5 Y157.25
G0 X91.75 Y151.75
G0 X81.536 Y141.536
;TIME_ELAPSED:507.059119
;LAYER:29
G0 X81.536 Y141.536 Z14.8
;TYPE:FILL
G1 F2100 X68.464 Y141.536 A446.59069
G1 X68.464 Y128.464 A447.1542
G1 X81.536 Y128.464 A447.7177
G1 X81.536 Y141.536 A448.2812
G0 F7200 X89.393 Y149.393
G1 F2100 X60.607 Y149.393 A449.52209
G1 X60.607 Y120.607 A450.76298
G1 X89.393 Y120.607 A452.00388
G1 X89.393 Y149.393 A453.24477
G0 F7200 X97.18 Y157.18
G0 X97.25 Y157.25
;TYPE:WALL-OUTER
G1 F1050 X52.75 Y157.25 A455.16306
G1 X52.75 Y112.75 A457.08134
G1 X97.25 Y112.75 A458.99963
G1 X97.25 Y157.25 A460.91791
G0 F7200 X94.5 Y157.25
G0 X91.75 Y151.75
G0 X81.536 Y141.536
;TIME_ELAPSED:522.651327
;LAYER:30
G0 X81.536 Y141.536 Z15.3
;TYPE:FILL
G1 F2100 X68.464 Y141.536 A461.48141
G1 X68.464 Y128.464 A462.04491
G1 X81.536 Y128.464 A462.60842
G1 X81.536 Y141.536 A463.17192
G0 F7200 X89.393 Y149.393
G1 F2100 X60.607 Y149.393 A464.41281
G1 X60.607 Y120.607 A465.6537
G1 X89.393 Y120.607 A466.8946
G1 X89.393 Y149.393 A468.13549
G0 F7200 X97.18 Y157.18
G0 X97.25 Y157.25
;TYPE:WALL-OUTER
G1 F1050 X52.75 Y157.25 A470.05377
G1 X52.75 Y112.75 A471.97206
G1 X97.25 Y112.75 A473.89034
G1 X97.25 Y157.25 A475.80863
G0 F7200 X94.5 Y157.25
G0 X91.75 Y151.75
G0 X81.536 Y141.536
;TIME_ELAPSED:538.243534
;LAYER:31
G0 X81.536 Y141.536 Z15.8
;TYPE:FILL
G1 F2100 X68.464 Y141.536 A476.37213
G1 X68.464 Y128.464 A476.93563
G1 X81.536 Y128.464 A477.49913
G1 X81.536 Y141.536 A478.06264
G0 F7200 X89.393 Y149.393
G1 F2100 X60.607 Y149.393 A479.30353
G1 X60.607 Y120.607 A480.54442
G1 X89.393 Y120.607 A481.78532
G1 X89.393 Y149.393 A483.02621
G0 F7200 X97.18 Y157.18
G0 X97.25 Y157.25
;TYPE:WALL-OUTER
G1 F1050 X52.75 Y157.25 A484.94449
G1 X52.75 Y112.75 A486.86278
G1 X97.25 Y112.75 A488.78106
G1 X97.25 Y157.25 A490.69935
G0 F7200 X94.5 Y157.25
G0 X91.75 Y151.75
G0 X81.536 Y141.536
;TIME_ELAPSED:553.835742
;LAYER:32
G0 X81.536 Y141.536 Z16.3
;TYPE:FILL
G1 F2100 X68.464 Y141.536 A491.26285
G1 X68.464 Y128.464 A491.82635
G1 X81.536 Y128.464 A492.38985
G1 X81.536 Y141.536 A492.95335
G0 F7200 X89.393 Y149.393
G1 F2100 X60.607 Y149.393 A494.19425
G1 X60.607 Y120.607 A495.43514
G1 X89.393 Y120.607 A496.67603
G1 X89.393 Y149.393 A497.91693
G0 F7200 X97.18 Y157.18
G0 X97.25 Y157.25
;TYPE:WALL-OUTER
G1 F1050 X52.75 Y157.25 A499.83521
G1 X52.75 Y112.75 A501.7535
G1 X97.25 Y112.75 A503.67178
G1 X97.25 Y157.25 A505.59007
G0 F7200 X94.5 Y157.25
G0 X91.75 Y151.75
G0 X81.536 Y141.536
;TIME_ELAPSED:569.427950
;LAYER:33
G0 X81.536 Y141.536 Z16.8
;TYPE:FILL
G1 F2100 X68.464 Y141.536 A506.15357
G1 X68.464 Y128.464 A506.71707
G1 X81.536 Y128.464 A507.28057
G1 X81.536 Y141.536 A507.84407
G0 F7200 X89.393 Y149.393
G1 F2100 X60.607 Y149.393 A509.08497
G1 X60.607 Y120.607 A510.32586
G1 X89.393 Y120.607 A511.56675
G1 X89.393 Y149.393 A512.80765
G0 F7200 X97.18 Y157.18
G0 X97.25 Y157.25
;TYPE:WALL-OUTER
G1 F1050 X52.75 Y157.25 A514.72593
G1 X52.75 Y112.75 A516.64422
G1 X97.25 Y112.75 A518.5625
G1 X97.25 Y157.25 A520.48079
G0 F7200 X94.5 Y157.25
G0 X91.75 Y151.75
G0 X81.536 Y141.536
;TIME_ELAPSED:585.020158
;LAYER:34
G0 X81.536 Y141.536 Z17.3
;TYPE:FILL
G1 F2100 X68.464 Y141.536 A521.04429
G1 X68.464 Y128.464 A521.60779
G1 X81.536 Y128.464 A522.17129
G1 X81.536 Y141.536 A522.73479
G0 F7200 X89.393 Y149.393
G1 F2100 X60.607 Y149.393 A523.97569
G1 X60.607 Y120.607 A525.21658
G1 X89.393 Y120.607 A526.45747
G1 X89.393 Y149.393 A527.69836
G0 F7200 X97.18 Y157.18
G0 X97.25 Y157.25
;TYPE:WALL-OUTER
G1 F1050 X52.75 Y157.25 A529.61665
G1 X52.75 Y112.75 A531.53493
G1 X97.25 Y112.75 A533.45322
G1 X97.25 Y157.25 A535.3715
G0 F7200 X94.5 Y157.25
G0 X91.75 Y151.75
G0 X81.536 Y141.536
;TIME_ELAPSED:600.612366
;LAYER:35
G0 X81.536 Y141.536 Z17.8
;TYPE:FILL
G1 F2100 X68.464 Y141.536 A535.93501
G1 X68.464 Y128.464 A536.49851
G1 X81.536 Y128.464 A537.06201
G1 X81.536 Y141.536 A537.62551
G0 F7200 X89.393 Y149.393
G1 F2100 X60.607 Y149.393 A538.8664
G1 X60.607 Y120.607 A540.1073
G1 X89.393 Y120.607 A541.34819
G1 X89.393 Y149.393 A542.58908
G0 F7200 X97.18 Y157.18
G0 X97.25 Y157.25
;TYPE:WALL-OUTER
G1 F1050 X52.75 Y157.25 A544.50737
G1 X52.75 Y112.75 A546.42565
G1 X97.25 Y112.75 A548.34394
G1 X97.25 Y157.25 A550.26222
G0 F7200 X94.5 Y157.25
G0 X91.75 Y151.75
G0 X81.536 Y141.536
;TIME_ELAPSED:616.204574
;LAYER:36
G0 X81.536 Y141.536 Z18.3
;TYPE:FILL
G1 F2100 X68.464 Y141.536 A550.82572
G1 X68.464 Y128.464 A551.38923
G1 X81.536 Y128.464 A551.95273
G1 X81.536 Y141.536 A552.51623
G0 F7200 X89.393 Y149.393
G1 F2100 X60.607 Y149.393 A553.75712
G1 X60.607 Y120.607 A554.99802
G1 X89.393 Y120.607 A556.23891
G1 X89.393 Y149.393 A557.4798
G0 F7200 X97.18 Y157.18
G0 X97.25 Y157.25
;TYPE:WALL-OUTER
G1 F1050 X52.75 Y157.25 A559.39809
G1 X52.75 Y112.75 A561.31637
G1 X97.25 Y112.75 A563.23466
G1 X97.25 Y157.25 A565.15294
G0 F7200 X94.5 Y157.25
G0 X91.75 Y151.75
G0 X81.536 Y141.536
;TIME_ELAPSED:631.796782
;LAYER:37
G0 X81.536 Y141.536 Z18.8
;TYPE:FILL
G1 F2100 X68.464 Y141.536 A565.71644
G1 X68.464 Y128.464 A566.27994
G1 X81.536 Y128.464 A566.84345
G1 X81.536 Y141.536 A567.40695
G0 F7200 X89.393 Y149.393
G1 F2100 X60.607 Y149.393 A568.64784
G1 X60.607 Y120.607 A569.88873
G1 X89.393 Y120.607 A571.12963
G1 X89.393 Y149.393 A572.37052
G0 F7200 X97.18 Y157.18
G0 X97.25 Y157.25
;TYPE:WALL-OUTER
G1 F1050 X52.75 Y157.25 A574.28881
G1 X52.75 Y112.75 A576.20709
G1 X97.25 Y112.75 A578.12538
G1 X97.25 Y157.25 A580.04366
G0 F7200 X94.5 Y157.25
G0 X91.75 Y151.75
G0 X81.536 Y141.536
;TIME_ELAPSED:647.388989
;LAYER:38
G0 X81.536 Y141.536 Z19.3
;TYPE:FILL
G1 F2100 X68.464 Y141.536 A580.60716
G1 X68.464 Y128.464 A581.17066
G1 X81.536 Y128.464 A581.73417
G1 X81.536 Y141.536 A582.29767
G0 F7200 X89.393 Y149.393
G1 F2100 X60.607 Y149.393 A583.53856
G1 X60.607 Y120.607 A584.77945
G1 X89.393 Y120.607 A586.02035
G1 X89.393 Y149.393 A587.26124
G0 F7200 X97.18 Y157.18
G0 X97.25 Y157.25
;TYPE:WALL-OUTER
G1 F1050 X52.75 Y157.25 A589.17952
G1 X52.75 Y112.75 A591.09781
G1 X97.25 Y112.75 A593.01609
G1 X97.25 Y157.25 A594.93438
G0 F7200 X94.5 Y157.25
G0 X91.75 Y151.75
G0 X81.536 Y141.536
;TIME_ELAPSED:662.981197
;LAYER:39
G0 X81.536 Y141.536 Z19.8
;TYPE:FILL
G1 F2100 X68.464 Y141.536 A595.49788
G1 X68.464 Y128.464 A596.06138
G1 X81.536 Y128.464 A596.62488
G1 X81.536 Y141.536 A597.18839
G0 F7200 X89.393 Y149.393
G1 F2100 X60.607 Y149.393 A598.42928
G1 X60.607 Y120.607 A599.67017
G1 X89.393 Y120.607 A600.91107
G1 X89.393 Y149.393 A602.15196
G0 F7200 X97.18 Y157.18
G0 X97.25 Y157.25
;TYPE:WALL-OUTER
G1 F1050 X52.75 Y157.25 A604.07024
G1 X52.75 Y112.75 A605.98853
G1 X97.25 Y112.75 A607.90681
G1 X97.25 Y157.25 A609.8251
G0 F7200 X94.5 Y157.25
G0 X91.75 Y151.75
G0 X81.536 Y141.536
;TIME_ELAPSED:678.573405
;LAYER:40
G0 X81.536 Y141.536 Z20.3
;TYPE:FILL
G1 F2100 X68.464 Y141.536 A610.3886
G1 X68.464 Y128.464 A610.9521
G1 X81.536 Y128.464 A611.5156
G1 X81.536 Y141.536 A612.0791
G0 F7200 X89.393 Y149.393
G1 F2100 X60.607 Y149.393 A613.32
G1 X60.607 Y120.607 A614.56089
G1 X89.393 Y120.607 A615.80178
G1 X89.393 Y149.393 A617.04268
G0 F7200 X97.18 Y157.18
G0 X97.25 Y157.25
;TYPE:WALL-OUTER
G1 F1050 X52.75 Y157.25 A618.96096
G1 X52.75 Y112.75 A620.87925
G1 X97.25 Y112.75 A622.79753
G1 X97.25 Y157.25 A624.71582
G0 F7200 X94.5 Y157.25
G0 X91.75 Y151.75
G0 X81.536 Y141.536
;TIME_ELAPSED:694.165613
;LAYER:41
G0 X81.536 Y141.536 Z20.8
;TYPE:FILL
G1 F2100 X68.464 Y141.536 A625.27932
G1 X68.464 Y128.464 A625.84282
G1 X81.536 Y128.464 A626.40632
G1 X81.536 Y141.536 A626.96982
G0 F7200 X89.393 Y149.393
G1 F2100 X60.607 Y149.393 A628.21072
G1 X60.607 Y120.607 A629.45161
G1 X89.393 Y120.607 A630.6925
G1 X89.393 Y149.393 A631.9334
G0 F7200 X97.18 Y157.18
G0 X97.25 Y157.25
;TYPE:WALL-OUTER
G1 F1050 X52.75 Y157.25 A633.85168
G1 X52.75 Y112.75 A635.76997
G1 X97.25 Y112.75 A637.68825
G1 X97.25 Y157.25 A639.60654
G0 F7200 X94.5 Y157.25
G0 X91.75 Y151.75
G0 X81.536 Y141.536
;TIME_ELAPSED:709.757821
;LAYER:42
G0 X81.536 Y141.536 Z21.3
;TYPE:FILL
G1 F2100 X68.464 Y141.536 A640.17004
G1 X68.464 Y128.464 A640.73354
G1 X81.536 Y128.464 A641.29704
G1 X81.536 Y141.536 A641.86054
G0 F7200 X89.393 Y149.393
G1 F2100 X60.607 Y149.393 A643.10143
G1 X60.607 Y120.607 A644.34233
G1 X89.393 Y120.607 A645.58322
G1 X89.393 Y149.393 A646.82411
G0 F7200 X97.18 Y157.18
G0 X97.25 Y157.25
;TYPE:WALL-OUTER
G1 F1050 X52.75 Y157.25 A648.7424
G1 X52.75 Y112.75 A650.66068
G1 X97.25 Y112.75 A652.57897
G1 X97.25 Y157.25 A654.49725
G0 F7200 X94.5 Y157.25
G0 X91.75 Y151.75
G0 X81.536 Y141.536
;TIME_ELAPSED:725.350029
;LAYER:43
G0 X81.536 Y141.536 Z21.8
;TYPE:FILL
G1 F2100 X68.464 Y141.536 A655.06076
G1 X68.464 Y128.464 A655.62426
G1 X81.536 Y128.464 A656.18776
G1 X81.536 Y141.536 A656.75126
G0 F7200 X89.393 Y149.393
G1 F2100 X60.607 Y149.393 A657.99215
G1 X60.607 Y120.607 A659.23305
G1 X89.393 Y120.607 A660.47394
G1 X89.393 Y149.393 A661.71483
G0 F7200 X97.18 Y157.18
G0 X97.25 Y157.25
;TYPE:WALL-OUTER
G1 F1050 X52.75 Y157.25 A663.63312
G1 X52.75 Y112.75 A665.5514
G1 X97.25 Y112.75 A667.46969
G1 X97.25 Y157.25 A669.38797
G0 F7200 X94.5 Y157.25
G0 X91.75 Y151.75
G0 X81.536 Y141.536
;TIME_ELAPSED:740.942237
;LAYER:44
G0 X81.536 Y141.536 Z22.3
;TYPE:FILL
G1 F2100 X68.464 Y141.536 A669.95147
G1 X68.464 Y128.464 A670.51498
G1 X81.536 Y128.464 A671.07848
G1 X81.536 Y141.536 A671.64198
G0 F7200 X89.393 Y149.393
G1 F2100 X60.607 Y149.393 A672.88287
G1 X60.607 Y120.607 A674.12377
G1 X89.393 Y120.607 A675.36466
G1 X89.393 Y149.393 A676.60555
G0 F7200 X97.18 Y157.18
G0 X97.25 Y157.25
;TYPE:WALL-OUTER
G1 F1050 X52.75 Y157.25 A678.52384
G1 X52.75 Y112.75 A680.44212
G1 X97.25 Y112.75 A682.36041
G1 X97.25 Y157.25 A684.27869
G0 F7200 X94.5 Y157.25
G0 X91.75 Y151.75
G0 X81.536 Y141.536
;TIME_ELAPSED:756.534445
;LAYER:45
G0 X81.536 Y141.536 Z22.8
;TYPE:FILL
G1 F2100 X68.464 Y141.536 A684.84219
G1 X68.464 Y128.464 A685.40569
G1 X81.536 Y128.464 A685.9692
G1 X81.536 Y141.536 A686.5327
G0 F7200 X89.393 Y149.393
G1 F2100 X60.607 Y149.393 A687.77359
G1 X60.607 Y120.607 A689.01448
G1 X89.393 Y120.607 A690.25538
G1 X89.393 Y149.393 A691.49627
G0 F7200 X97.18 Y157.18
G0 X97.25 Y157.25
;TYPE:WALL-OUTER
G1 F1050 X52.75 Y157.25 A693.41456
G1 X52.75 Y112.75 A695.33284
G1 X97.25 Y112.75 A697.25113
G1 X97.25 Y157.25 A699.16941
G0 F7200 X94.5 Y157.25
G0 X91.75 Y151.75
G0 X81.536 Y141.536
;TIME_ELAPSED:772.126652
;LAYER:46
G0 X81.536 Y141.536 Z23.3
;TYPE:FILL
G1 F2100 X68.464 Y141.536 A699.73291
G1 X68.464 Y128.464 A700.29641
G1 X81.536 Y128.464 A700.85991
G1 X81.536 Y141.536 A701.42342
G0 F7200 X89.393 Y149.393
G1 F2100 X60.607 Y149.393 A702.66431
G1 X60.607 Y120.607 A703.9052
G1 X89.393 Y120.607 A705.1461
G1 X89.393 Y149.393 A706.38699
G0 F7200 X97.18 Y157.18
G0 X97.25 Y157.25
;TYPE:WALL-OUTER
G1 F1050 X52.75 Y157.25 A708.30527
G1 X52.75 Y112.75 A710.22356
G1 X97.25 Y112.75 A712.14184
G1 X97.25 Y157.25 A714.06013
G0 F7200 X94.5 Y157.25
G0 X91.75 Y151.75
G0 X81.536 Y141.536
;TIME_ELAPSED:787.718860
;LAYER:47
G0 X81.536 Y141.536 Z23.8
;TYPE:FILL
G1 F2100 X68.464 Y141.536 A714.62363
G1 X68.464 Y128.464 A715.18713
G1 X81.536 Y128.464 A715.75063
G1 X81.536 Y141.536 A716.31414
G0 F7200 X89.393 Y149.393
G1 F2100 X60.607 Y149.393 A717.55503
G1 X60.607 Y120.607 A718.79592
G1 X89.393 Y120.607 A720.03681
G1 X89.393 Y149.393 A721.27771
G0 F7200 X97.18 Y157.18
G0 X97.25 Y157.25
;TYPE:WALL-OUTER
G1 F1050 X52.75 Y157.25 A723.19599
G1 X52.75 Y112.75 A725.11428
G1 X97.25 Y112.75 A727.03256
G1 X97.25 Y157.25 A728.95085
G0 F7200 X94.5 Y157.25
G0 X91.75 Y151.75
G0 X81.536 Y141.536
;TIME_ELAPSED:803.311068
;LAYER:48
G0 X81.536 Y141.536 Z24.3
;TYPE:FILL
G1 F2100 X68.464 Y141.536 A729.51435
G1 X68.464 Y128.464 A730.07785
G1 X81.536 Y128.464 A730.64135
G1 X81.536 Y141.536 A731.20485
G0 F7200 X89.393 Y149.393
G1 F2100 X60.607 Y149.393 A732.44575
G1 X60.607 Y120.607 A733.68664
G1 X89.393 Y120.607 A734.92753
G1 X89.393 Y149.393 A736.16843
G0 F7200 X97.18 Y157.18
G0 X97.25 Y157.25
;TYPE:WALL-OUTER
G1 F1050 X52.75 Y157.25 A738.08671
G1 X52.75 Y112.75 A740.005
G1 X97.25 Y112.75 A741.92328
G1 X97.25 Y157.25 A743.84157
G0 F7200 X94.5 Y157.25
G0 X91.75 Y151.75
G0 X81.536 Y141.536
;TIME_ELAPSED:818.903276
;LAYER:49
G0 X81.536 Y141.536 Z24.8
;TYPE:FILL
G1 F2100 X68.464 Y141.536 A744.40507
G1 X68.464 Y128.464 A744.96857
G1 X81.536 Y128.464 A745.53207
G1 X81.536 Y141.536 A746.09557
G0 F7200 X89.393 Y149.393
G1 F2100 X60.607 Y149.393 A747.33647
G1 X60.607 Y120.607 A748.57736
G1 X89.393 Y120.607 A749.81825
G1 X89.393 Y149.393 A751.05915
G0 F7200 X97.18 Y157.18
G0 X97.25 Y157.25
;TYPE:WALL-OUTER
G1 F1050 X52.75 Y157.25 A752.97743
G1 X52.75 Y112.75 A754.89572
G1 X97.25 Y112.75 A756.814
G1 X97.25 Y157.25 A758.73228
G0 F7200 X94.5 Y157.25
G0 X91.75 Y151.75
G0 X81.536 Y141.536
;TIME_ELAPSED:834.495484
;LAYER:50
G0 X81.536 Y141.536 Z25.3
;TYPE:FILL
G1 F2100 X68.464 Y141.536 A759.29579
G1 X68.464 Y128.464 A759.85929
G1 X81.536 Y128.464 A760.42279
G1 X81.536 Y141.536 A760.98629
G0 F7200 X89.393 Y149.393
G1 F2100 X60.607 Y149.393 A762.22718
G1 X60.607 Y120.607 A763.46808
G1 X89.393 Y120.607 A764.70897
G1 X89.393 Y149.393 A765.94986
G0 F7200 X97.18 Y157.18
G0 X97.25 Y157.25
;TYPE:WALL-OUTER
G1 F1050 X52.75 Y157.25 A767.86815
G1 X52.75 Y112.75 A769.78643
G1 X97.25 Y112.75 A771.70472
G1 X97.25 Y157.25 A773.623
G0 F7200 X94.5 Y157.25
G0 X91.75 Y151.75
G0 X81.536 Y141.536
;TIME_ELAPSED:850.087692
;LAYER:51
G0 X81.536 Y141.536 Z25.8
;TYPE:FILL
G1 F2100 X68.464 Y141.536 A774.18651
G1 X68.464 Y128.464 A774.75001
G1 X81.536 Y128.464 A775.31351
G1 X81.536 Y141.536 A775.87701
G0 F7200 X89.393 Y149.393
G1 F2100 X60.607 Y149.393 A777.1179
G1 X60.607 Y120.607 A778.3588
G1 X89.393 Y120.607 A779.59969
G1 X89.393 Y149.393 A780.84058
G0 F7200 X97.18 Y157.18
G0 X97.25 Y157.25
;TYPE:WALL-OUTER
G1 F1050 X52.75 Y157.25 A782.75887
G1 X52.75 Y112.75 A784.67715
G1 X97.25 Y112.75 A786.59544
G1 X97.25 Y157.25 A788.51372
G0 F7200 X94.5 Y157.25
G0 X91.75 Y151.75
G0 X81.536 Y141.536
;TIME_ELAPSED:865.679900
;LAYER:52
G0 X81.536 Y141.536 Z26.3
;TYPE:FILL
G1 F2100 X68.464 Y141.536 A789.07722
G1 X68.464 Y128.464 A789.64073
G1 X81.536 Y128.464 A790.20423
G1 X81.536 Y141.536 A790.76773
G0 F7200 X89.393 Y149.393
G1 F2100 X60.607 Y149.393 A792.00862
G1 X60.607 Y120.607 A793.24952
G1 X89.393 Y120.607 A794.49041
G1 X89.393 Y149.393 A795.7313
G0 F7200 X97.18 Y157.18
G0 X97.25 Y157.25
;TYPE:WALL-OUTER
G1 F1050 X52.75 Y157.25 A797.64959
G1 X52.75 Y112.75 A799.56787
G1 X97.25 Y112.75 A801.48616
G1 X97.25 Y157.25 A803.40444
G0 F7200 X94.5 Y157.25
G0 X91.75 Y151.75
G0 X81.536 Y141.536
;TIME_ELAPSED:881.272108
;LAYER:53
G0 X81.536 Y141.536 Z26.8
;TYPE:FILL
G1 F2100 X68.464 Y141.536 A803.96794
G1 X68.464 Y128.464 A804.53144
G1 X81.536 Y128.464 A805.09495
G1 X81.536 Y141.536 A805.65845
G0 F7200 X89.393 Y149.393
G1 F2100 X60.607 Y149.393 A806.89934
G1 X60.607 Y120.607 A808.14023
G1 X89.393 Y120.607 A809.38113
G1 X89.393 Y149.393 A810.62202
G0 F7200 X97.18 Y157.18
G0 X97.25 Y157.25
;TYPE:WALL-OUTER
G1 F1050 X52.75 Y157.25 A812.54031
G1 X52.75 Y112.75 A814.45859
G1 X97.25 Y112.75 A816.37687
G1 X97.25 Y157.25 A818.29516
G0 F7200 X94.5 Y157.25
G0 X91.75 Y151.75
G0 X81.536 Y141.536
;TIME_ELAPSED:896.864315
;LAYER:54
G0 X81.536 Y141.536 Z27.3
;TYPE:FILL
G1 F2100 X68.464 Y141.536 A818.85866
G1 X68.464 Y128.464 A819.42216
G1 X81.536 Y128.464 A819.98566
G1 X81.536 Y141.536 A820.54917
G0 F7200 X89.393 Y149.393
G1 F2100 X60.607 Y149.393 A821.79006
G1 X60.607 Y120.607 A823.03095
G1 X89.393 Y120.607 A824.27185
G1 X89.393 Y149.393 A825.51274
G0 F7200 X97.18 Y157.18
G0 X97.25 Y157.25
;TYPE:WALL-OUTER
G1 F1050 X52.75 Y157.25 A827.43102
G1 X52.75 Y112.75 A829.34931
G1 X97.25 Y112.75 A831.26759
G1 X97.25 Y157.25 A833.18588
G0 F7200 X94.5 Y157.25
G0 X91.75 Y151.75
G0 X81.536 Y141.536
;TIME_ELAPSED:912.456523
;LAYER:55
G0 X81.536 Y141.536 Z27.8
;TYPE:FILL
G1 F2100 X68.464 Y141.536 A833.74938
G1 X68.464 Y128.464 A834.31288
G1 X81.536 Y128.464 A834.87638
G1 X81.536 Y141.536 A835.43988
G0 F7200 X89.393 Y149.393
G1 F2100 X60.607 Y149.393 A836.68078
G1 X60.607 Y120.607 A837.92167
G1 X89.393 Y120.607 A839.16256
G1 X89.393 Y149.393 A840.40346
G0 F7200 X97.18 Y157.18
G0 X97.25 Y157.25
;TYPE:WALL-OUTER
G1 F1050 X52.75 Y157.25 A842.32174
G1 X52.75 Y112.75 A844.24003
G1 X97.25 Y112.75 A846.15831
G1 X97.25 Y157.25 A848.0766
G0 F7200 X94.5 Y157.25
G0 X91.75 Y151.75
G0 X81.536 Y141.536
;TIME_ELAPSED:928.048731
;LAYER:56
G0 X81.536 Y141.536 Z28.3
;TYPE:FILL
G1 F2100 X68.464 Y141.536 A848.6401
G1 X68.464 Y128.464 A849.2036
G1 X81.536 Y128.464 A849.7671
G1 X81.536 Y141.536 A850.3306
G0 F7200 X89.393 Y149.393
G1 F2100 X60.607 Y149.393 A851.5715
G1 X60.607 Y120.607 A852.81239
G1 X89.393 Y120.607 A854.05328
G1 X89.393 Y149.393 A855.29418
G0 F7200 X97.18 Y157.18
G0 X97.25 Y157.25
;TYPE:WALL-OUTER
G1 F1050 X52.75 Y157.25 A857.21246
G1 X52.75 Y112.75 A859.13075
G1 X97.25 Y112.75 A861.04903
G1 X97.25 Y157.25 A862.96732
G0 F7200 X94.5 Y157.25
G0 X91.75 Y151.75
G0 X81.536 Y141.536
;TIME_ELAPSED:943.640939
;LAYER:57
G0 X81.536 Y141.536 Z28.8
;TYPE:FILL
G1 F2100 X68.464 Y141.536 A863.53082
G1 X68.464 Y128.464 A864.09432
G1 X81.536 Y128.464 A864.65782
G1 X81.536 Y141.536 A865.22132
G0 F7200 X89.393 Y149.393
G1 F2100 X60.607 Y149.393 A866.46222
G1 X60.607 Y120.607 A867.70311
G1 X89.393 Y120.607 A868.944
G1 X89.393 Y149.393 A870.1849
G0 F7200 X97.18 Y157.18
G0 X97.25 Y157.25
;TYPE:WALL-OUTER
G1 F1050 X52.75 Y157.25 A872.10318
G1 X52.75 Y112.75 A874.02146
G1 X97.25 Y112.75 A875.93975
G1 X97.25 Y157.25 A877.85803
G0 F7200 X94.5 Y157.25
G0 X91.75 Y151.75
G0 X81.536 Y141.536
;TIME_ELAPSED:959.233147
;LAYER:58
G0 X81.536 Y141.536 Z29.3
;TYPE:FILL
G1 F2100 X68.464 Y141.536 A878.42154
G1 X68.464 Y128.464 A878.98504
G1 X81.536 Y128.464 A879.54854
G1 X81.536 Y141.536 A880.11204
G0 F7200 X89.393 Y149.393
G1 F2100 X60.607 Y149.393 A881.35293
G1 X60.607 Y120.607 A882.59383
G1 X89.393 Y120.607 A883.83472
G1 X89.393 Y149.393 A885.07561
G0 F7200 X97.18 Y157.18
G0 X97.25 Y157.25
;TYPE:WALL-OUTER
G1 F1050 X52.75 Y157.25 A886.9939
G1 X52.75 Y112.75 A888.91218
G1 X97.25 Y112.75 A890.83047
G1 X97.25 Y157.25 A892.74875
G0 F7200 X94.5 Y157.25
G0 X91.75 Y151.75
G0 X81.536 Y141.536
;TIME_ELAPSED:974.825355
;LAYER:59
G0 X81.536 Y141.536 Z29.8
;TYPE:FILL
G1 F2100 X68.464 Y141.536 A893.31225
G1 X68.464 Y128.464 A893.87576
G1 X81.536 Y128.464 A894.43926
G1 X81.536 Y141.536 A895.00276
G0 F7200 X89.393 Y149.393
G1 F2100 X60.607 Y149.393 A896.24365
G1 X60.607 Y120.607 A897.48455
G1 X89.393 Y120.607 A898.72544
G1 X89.393 Y149.393 A899.96633
G0 F7200 X97.18 Y157.18
G0 X97.25 Y157.25
;TYPE:WALL-OUTER
G1 F1050 X52.75 Y157.25 A901.88462
G1 X52.75 Y112.75 A903.8029
G1 X97.25 Y112.75 A905.72119
G1 X97.25 Y157.25 A907.63947
G0 F7200 X94.5 Y157.25
G0 X91.75 Y151.75
G0 X81.536 Y141.536
;TIME_ELAPSED:990.417563
;LAYER:60
G0 X81.536 Y141.536 Z30.3
;TYPE:FILL
G1 F2100 X68.464 Y141.536 A908.20297
G1 X68.464 Y128.464 A908.76648
G1 X81.536 Y128.464 A909.32998
G1 X81.536 Y141.536 A909.89348
G0 F7200 X89.393 Y149.393
G1 F2100 X60.607 Y149.393 A911.13437
G1 X60.607 Y120.607 A912.37526
G1 X89.393 Y120.607 A913.61616
G1 X89.393 Y149.393 A914.85705
G0 F7200 X97.18 Y157.18
G0 X97.25 Y157.25
;TYPE:WALL-OUTER
G1 F1050 X52.75 Y157.25 A916.77534
G1 X52.75 Y112.75 A918.69362
G1 X97.25 Y112.75 A920.61191
G1 X97.25 Y157.25 A922.53019
G0 F7200 X94.5 Y157.25
G0 X91.75 Y151.75
G0 X81.536 Y141.536
;TIME_ELAPSED:1006.009771
;LAYER:61
G0 X81.536 Y141.536 Z30.8
;TYPE:FILL
G1 F2100 X68.464 Y141.536 A923.09369
G1 X68.464 Y128.464 A923.65719
G1 X81.536 Y128.464 A924.2207
G1 X81.536 Y141.536 A924.7842
G0 F7200 X89.393 Y149.393
G1 F2100 X60.607 Y149.393 A926.02509
G1 X60.607 Y120.607 A927.26598
G1 X89.393 Y120.607 A928.50688
G1 X89.393 Y149.393 A929.74777
G0 F7200 X97.18 Y157.18
G0 X97.25 Y157.25
;TYPE:WALL-OUTER
G1 F1050 X52.75 Y157.25 A931.66605
G1 X52.75 Y112.75 A933.58434
G1 X97.25 Y112.75 A935.50262
G1 X97.25 Y157.25 A937.42091
G0 F7200 X94.5 Y157.25
G0 X91.75 Y151.75
G0 X81.536 Y141.536
;TIME_ELAPSED:1021.601978
;LAYER:62
G0 X81.536 Y141.536 Z31.3
;TYPE:FILL
G1 F2100 X68.464 Y141.536 A937.98441
G1 X68.464 Y128.464 A938.54791
G1 X81.536 Y128.464 A939.11141
G1 X81.536 Y141.536 A939.67492
G0 F7200 X89.393 Y149.393
G1 F2100 X60.607 Y149.393 A940.91581
G1 X60.607 Y120.607 A942.1567
G1 X89.393 Y120.607 A943.3976
G1 X89.393 Y149.393 A944.63849
G0 F7200 X97.18 Y157.18
G0 X97.25 Y157.25
;TYPE:WALL-OUTER
G1 F1050 X52.75 Y157.25 A946.55677
G1 X52.75 Y112.75 A948.47506
G1 X97.25 Y112.75 A950.39334
G1 X97.25 Y157.25 A952.31163
G0 F7200 X94.5 Y157.25
G0 X91.75 Y151.75
G0 X81.536 Y141.536
;TIME_ELAPSED:1037.194186
;LAYER:63
G0 X81.536 Y141.536 Z31.8
;TYPE:FILL
G1 F2100 X68.464 Y141.536 A952.87513
G1 X68.464 Y128.464 A953.43863
G1 X81.536 Y128.464 A954.00213
G1 X81.536 Y141.536 A954.56563
G0 F7200 X89.393 Y149.393
G1 F2100 X60.607 Y149.393 A955.80653
G1 X60.607 Y120.607 A957.04742
G1 X89.393 Y120.607 A958.28831
G1 X89.393 Y149.393 A959.52921
G0 F7200 X97.18 Y157.18
G0 X97.25 Y157.25
;TYPE:WALL-OUTER
G1 F1050 X52.75 Y157.25 A961.44749
G1 X52.75 Y112.75 A963.36578
G1 X97.25 Y112.75 A965.28406
G1 X97.25 Y157.25 A967.20235
G0 F7200 X94.5 Y157.25
G0 X91.75 Y151.75
G0 X81.536 Y141.536
;TIME_ELAPSED:1052.786394
;LAYER:64
G0 X81.536 Y141.536 Z32.3
;TYPE:FILL
G1 F2100 X68.464 Y141.536 A967.76585
G1 X68.464 Y128.464 A968.32935
G1 X81.536 Y128.464 A968.89285
G1 X81.536 Y141.536 A969.45635
G0 F7200 X89.393 Y149.393
G1 F2100 X60.607 Y149.393 A970.69725
G1 X60.607 Y120.607 A971.93814
G1 X89.393 Y120.607 A973.17903
G1 X89.393 Y149.393 A974.41993
G0 F7200 X97.18 Y157.18
G0 X97.25 Y157.25
;TYPE:WALL-OUTER
G1 F1050 X52.75 Y157.25 A976.33821
G1 X52.75 Y112.75 A978.2565
G1 X97.25 Y112.75 A980.17478
G1 X97.25 Y157.25 A982.09307
G0 F7200 X94.5 Y157.25
G0 X91.75 Y151.75
G0 X81.536 Y141.536
;TIME_ELAPSED:1068.378602
;LAYER:65
G0 X81.536 Y141.536 Z32.8
;TYPE:FILL
G1 F2100 X68.464 Y141.536 A982.65657
G1 X68.464 Y128.464 A983.22007
G1 X81.536 Y128.464 A983.78357
G1 X81.536 Y141.536 A984.34707
G0 F7200 X89.393 Y149.393
G1 F2100 X60.607 Y149.393 A985.58796
G1 X60.607 Y120.607 A986.82886
G1 X89.393 Y120.607 A988.06975
G1 X89.393 Y149.393 A989.31064
G0 F7200 X97.18 Y157.18
G0 X97.25 Y157.25
;TYPE:WALL-OUTER
G1 F1050 X52.75 Y157.25 A991.22893
G1 X52.75 Y112.75 A993.14721
G1 X97.25 Y112.75 A995.0655
G1 X97.25 Y157.25 A996.98378
G0 F7200 X94.5 Y157.25
G0 X91.75 Y151.75
G0 X81.536 Y141.536
;TIME_ELAPSED:1083.970810
;LAYER:66
G0 X81.536 Y141.536 Z33.3
;TYPE:FILL
G1 F2100 X68.464 Y141.536 A997.54729
G1 X68.464 Y128.464 A998.11079
G1 X81.536 Y128.464 A998.67429
G1 X81.536 Y141.536 A999.23779
G0 F7200 X89.393 Y149.393
G1 F2100 X60.607 Y149.393 A1000.47868
G1 X60.607 Y120.607 A1001.71958
G1 X89.393 Y120.607 A1002.96047
G1 X89.393 Y149.393 A1004.20136
G0 F7200 X97.18 Y157.18
G0 X97.25 Y157.25
;TYPE:WALL-OUTER
G1 F1050 X52.75 Y157.25 A1006.11965
G1 X52.75 Y112.75 A1008.03793
G1 X97.25 Y112.75 A1009.95622
G1 X97.25 Y157.25 A1011.8745
G0 F7200 X94.5 Y157.25
G0 X91.75 Y151.75
G0 X81.536 Y141.536
;TIME_ELAPSED:1099.563018
;LAYER:67
G0 X81.536 Y141.536 Z33.8
;TYPE:FILL
G1 F2100 X68.464 Y141.536 A1012.438
G1 X68.464 Y128.464 A1013.00151
G1 X81.536 Y128.464 A1013.56501
G1 X81.536 Y141.536 A1014.12851
G0 F7200 X89.393 Y149.393
G1 F2100 X60.607 Y149.393 A1015.3694
G1 X60.607 Y120.607 A1016.6103
G1 X89.393 Y120.607 A1017.85119
G1 X89.393 Y149.393 A1019.09208
G0 F7200 X97.18 Y157.18
G0 X97.25 Y157.25
;TYPE:WALL-OUTER
G1 F1050 X52.75 Y157.25 A1021.01037
G1 X52.75 Y112.75 A1022.92865
G1 X97.25 Y112.75 A1024.84694
G1 X97.25 Y157.25 A1026.76522
G0 F7200 X94.5 Y157.25
G0 X91.75 Y151.75
G0 X81.536 Y141.536
;TIME_ELAPSED:1115.155226
;LAYER:68
G0 X81.536 Y141.536 Z34.3
;TYPE:FILL
G1 F2100 X68.464 Y141.536 A1027.32872
G1 X68.464 Y128.464 A1027.89222
G1 X81.536 Y128.464 A1028.45573
G1 X81.536 Y141.536 A1029.01923
G0 F7200 X89.393 Y149.393
G1 F2100 X60.607 Y149.393 A1030.26012
G1 X60.607 Y120.607 A1031.50101
G1 X89.393 Y120.607 A1032.74191
G1 X89.393 Y149.393 A1033.9828
G0 F7200 X97.18 Y157.18
G0 X97.25 Y157.25
;TYPE:WALL-OUTER
G1 F1050 X52.75 Y157.25 A1035.90109
G1 X52.75 Y112.75 A1037.81937
G1 X97.25 Y112.75 A1039.73766
G1 X97.25 Y157.25 A1041.65594
G0 F7200 X94.5 Y157.25
G0 X91.75 Y151.75
G0 X81.536 Y141.536
;TIME_ELAPSED:1130.747433
;LAYER:69
G0 X81.536 Y141.536 Z34.8
;TYPE:FILL
G1 F2100 X68.464 Y141.536 A1042.21944
G1 X68.464 Y128.464 A1042.78294
G1 X81.536 Y128.464 A1043.34644
G1 X81.536 Y141.536 A1043.90995
G0 F7200 X89.393 Y149.393
G1 F2100 X60.607 Y149.393 A1045.15084
G1 X60.607 Y120.607 A1046.39173
G1 X89.393 Y120.607 A1047.63263
G1 X89.393 Y149.393 A1048.87352
G0 F7200 X97.18 Y157.18
G0 X97.25 Y157.25
;TYPE:WALL-OUTER
G1 F1050 X52.75 Y157.25 A1050.7918
G1 X52.75 Y112.75 A1052.71009
G1 X97.25 Y112.75 A1054.62837
G1 X97.25 Y157.25 A1056.54666
G0 F7200 X94.5 Y157.25
G0 X91.75 Y151.75
G0 X81.536 Y141.536
;TIME_ELAPSED:1146.339641
;LAYER:70
G0 X81.536 Y141.536 Z35.3
;TYPE:FILL
G1 F2100 X68.464 Y141.536 A1057.11016
G1 X68.464 Y128.464 A1057.67366
G1 X81.536 Y128.464 A1058.23716
G1 X81.536 Y141.536 A1058.80067
G0 F7200 X89.393 Y149.393
G1 F2100 X60.607 Y149.393 A1060.04156
G1 X60.607 Y120.607 A1061.28245
G1 X89.393 Y120.607 A1062.52334
G1 X89.393 Y149.393 A1063.76424
G0 F7200 X97.18 Y157.18
G0 X97.25 Y157.25
;TYPE:WALL-OUTER
G1 F1050 X52.75 Y157.25 A1065.68252
G1 X52.75 Y112.75 A1067.60081
G1 X97.25 Y112.75 A1069.51909
G1 X97.25 Y157.25 A1071.43738
G0 F7200 X94.5 Y157.25
G0 X91.75 Y151.75
G0 X81.536 Y141.536
;TIME_ELAPSED:1161.931849
;LAYER:71
G0 X81.536 Y141.536 Z35.8
;TYPE:FILL
G1 F2100 X68.464 Y141.536 A1072.00088
G1 X68.464 Y128.464 A1072.56438
G1 X81.536 Y128.464 A1073.12788
G1 X81.536 Y141.536 A1073.69138
G0 F7200 X89.393 Y149.393
G1 F2100 X60.607 Y149.393 A1074.93228
G1 X60.607 Y120.607 A1076.17317
G1 X89.393 Y120.607 A1077.41406
G1 X89.393 Y149.393 A1078.65496
G0 F7200 X97.18 Y157.18
G0 X97.25 Y157.25
;TYPE:WALL-OUTER
G1 F1050 X52.75 Y157.25 A1080.57324
G1 X52.75 Y112.75 A1082.49153
G1 X97.25 Y112.75 A1084.40981
G1 X97.25 Y157.25 A1086.3281
G0 F7200 X94.5 Y157.25
G0 X91.75 Y151.75
G0 X81.536 Y141.536
;TIME_ELAPSED:1177.524057
;LAYER:72
G0 X81.536 Y141.536 Z36.3
;TYPE:FILL
G1 F2100 X68.464 Y141.536 A1086.8916
G1 X68.464 Y128.464 A1087.4551
G1 X81.536 Y128.464 A1088.0186
G1 X81.536 Y141.536 A1088.5821
G0 F7200 X89.393 Y149.393
G1 F2100 X60.607 Y149.393 A1089.823
G1 X60.607 Y120.607 A1091.06389
G1 X89.393 Y120.607 A1092.30478
G1 X89.393 Y149.393 A1093.54568
G0 F7200 X97.18 Y157.18
G0 X97.25 Y157.25
;TYPE:WALL-OUTER
G1 F1050 X52.75 Y157.25 A1095.46396
G1 X52.75 Y112.75 A1097.38225
G1 X97.25 Y112.75 A1099.30053
G1 X97.25 Y157.25 A1101.21882
G0 F7200 X94.5 Y157.25
G0 X91.75 Y151.75
G0 X81.536 Y141.536
;TIME_ELAPSED:1193.116265
;LAYER:73
G0 X81.536 Y141.536 Z36.8
;TYPE:FILL
G1 F2100 X68.464 Y141.536 A1101.78232
G1 X68.464 Y128.464 A1102.34582
G1 X81.536 Y128.464 A1102.90932
G1 X81.536 Y141.536 A1103.47282
G0 F7200 X89.393 Y149.393
G1 F2100 X60.607 Y149.393 A1104.71371
G1 X60.607 Y120.607 A1105.95461
G1 X89.393 Y120.607 A1107.1955
G1 X89.393 Y149.393 A1108.43639
G0 F7200 X97.18 Y157.18
G0 X97.25 Y157.25
;TYPE:WALL-OUTER
G1 F1050 X52.75 Y157.25 A1110.35468
G1 X52.75 Y112.75 A1112.27296
G1 X97.25 Y112.75 A1114.19125
G1 X97.25 Y157.25 A1116.10953
G0 F7200 X94.5 Y157.25
G0 X91.75 Y151.75
G0 X81.536 Y141.536
;TIME_ELAPSED:1208.708473
;LAYER:74
G0 X81.536 Y141.536 Z37.3
;TYPE:FILL
G1 F2100 X68.464 Y141.536 A1116.67304
G1 X68.464 Y128.464 A1117.23654
G1 X81.536 Y128.464 A1117.80004
G1 X81.536 Y141.536 A1118.36354
G0 F7200 X89.393 Y149.393
G1 F2100 X60.607 Y149.393 A1119.60443
G1 X60.607 Y120.607 A1120.84533
G1 X89.393 Y120.607 A1122.08622
G1 X89.393 Y149.393 A1123.32711
G0 F7200 X97.18 Y157.18
G0 X97.25 Y157.25
;TYPE:WALL-OUTER
G1 F1050 X52.75 Y157.25 A1125.2454
G1 X52.75 Y112.75 A1127.16368
G1 X97.25 Y112.75 A1129.08197
G1 X97.25 Y157.25 A1131.00025
G0 F7200 X94.5 Y157.25
G0 X91.75 Y151.75
G0 X81.536 Y141.536
;TIME_ELAPSED:1224.300681
;LAYER:75
G0 X81.536 Y141.536 Z37.8
;TYPE:FILL
G1 F2100 X68.464 Y141.536 A1131.56375
G1 X68.464 Y128.464 A1132.12726
G1 X81.536 Y128.464 A1132.69076
G1 X81.536 Y141.536 A1133.25426
G0 F7200 X89.393 Y149.393
G1 F2100 X60.607 Y149.393 A1134.49515
G1 X60.607 Y120.607 A1135.73605
G1 X89.393 Y120.607 A1136.97694
G1 X89.393 Y149.393 A1138.21783
G0 F7200 X97.18 Y157.18
G0 X97.25 Y157.25
;TYPE:WALL-OUTER
G1 F1050 X52.75 Y157.25 A1140.13612
G1 X52.75 Y112.75 A1142.0544
G1 X97.25 Y112.75 A1143.97269
G1 X97.25 Y157.25 A1145.89097
G0 F7200 X94.5 Y157.25
G0 X91.75 Y151.75
G0 X81.536 Y141.536
;TIME_ELAPSED:1239.892889
;LAYER:76
G0 X81.536 Y141.536 Z38.3
;TYPE:FILL
G1 F2100 X68.464 Y141.536 A1146.45447
G1 X68.464 Y128.464 A1147.01797
G1 X81.536 Y128.464 A1147.58148
G1 X81.536 Y141.536 A1148.14498
G0 F7200 X89.393 Y149.393
G1 F2100 X60.607 Y149.393 A1149.38587
G1 X60.607 Y120.607 A1150.62676
G1 X89.393 Y120.607 A1151.86766
G1 X89.393 Y149.393 A1153.10855
G0 F7200 X97.18 Y157.18
G0 X97.25 Y157.25
;TYPE:WALL-OUTER
G1 F1050 X52.75 Y157.25 A1155.02684
G1 X52.75 Y112.75 A1156.94512
G1 X97.25 Y112.75 A1158.86341
G1 X97.25 Y157.25 A1160.78169
G0 F7200 X94.5 Y157.25
G0 X91.75 Y151.75
G0 X81.536 Y141.536
;TIME_ELAPSED:1255.485096
;LAYER:77
G0 X81.536 Y141.536 Z38.8
;TYPE:FILL
G1 F2100 X68.464 Y141.536 A1161.34519
G1 X68.464 Y128.464 A1161.90869
G1 X81.536 Y128.464 A1162.47219
G1 X81.536 Y141.536 A1163.0357
G0 F7200 X89.393 Y149.393
G1 F2100 X60.607 Y149.393 A1164.27659
G1 X60.607 Y120.607 A1165.51748
G1 X89.393 Y120.607 A1166.75838
G1 X89.393 Y149.393 A1167.99927
G0 F7200 X97.18 Y157.18
G0 X97.25 Y157.25
;TYPE:WALL-OUTER
G1 F1050 X52.75 Y157.25 A1169.91755
G1 X52.75 Y112.75 A1171.83584
G1 X97.25 Y112.75 A1173.75412
G1 X97.25 Y157.25 A1175.67241
G0 F7200 X94.5 Y157.25
G0 X91.75 Y151.75
G0 X81.536 Y141.536
;TIME_ELAPSED:1271.077304
;LAYER:78
G0 X81.536 Y141.536 Z39.3
;TYPE:FILL
G1 F2100 X68.464 Y141.536 A1176.23591
G1 X68.464 Y128.464 A1176.79941
G1 X81.536 Y128.464 A1177.36291
G1 X81.536 Y141.536 A1177.92641
G0 F7200 X89.393 Y149.393
G1 F2100 X60.607 Y149.393 A1179.16731
G1 X60.607 Y120.607 A1180.4082
G1 X89.393 Y120.607 A1181.64909
G1 X89.393 Y149.393 A1182.88999
G0 F7200 X97.18 Y157.18
G0 X97.25 Y157.25
;TYPE:WALL-OUTER
G1 F1050 X52.75 Y157.25 A1184.80827
G1 X52.75 Y112.75 A1186.72656
G1 X97.25 Y112.75 A1188.64484
G1 X97.25 Y157.25 A1190.56313
G0 F7200 X94.5 Y157.25
G0 X91.75 Y151.75
G0 X81.536 Y141.536
;TIME_ELAPSED:1286.669512
;LAYER:79
G0 X81.536 Y141.536 Z39.8
;TYPE:FILL
G1 F2100 X68.464 Y141.536 A1191.12663
G1 X68.464 Y128.464 A1191.69013
G1 X81.536 Y128.464 A1192.25363
G1 X81.536 Y141.536 A1192.81713
G0 F7200 X89.393 Y149.393
G1 F2100 X60.607 Y149.393 A1194.05803
G1 X60.607 Y120.607 A1195.29892
G1 X89.393 Y120.607 A1196.53981
G1 X89.393 Y149.393 A1197.78071
G0 F7200 X97.18 Y157.18
G0 X97.25 Y157.25
;TYPE:WALL-OUTER
G1 F1050 X52.75 Y157.25 A1199.69899
G1 X52.75 Y112.75 A1201.61728
G1 X97.25 Y112.75 A1203.53556
G1 X97.25 Y157.25 A1205.45385
G0 F7200 X94.5 Y157.25
G0 X91.75 Y151.75
G0 X81.536 Y141.536
;TIME_ELAPSED:1302.261720
;LAYER:80
G0 X81.536 Y141.536 Z40.3
;TYPE:FILL
G1 F2100 X68.464 Y141.536 A1206.01735
G1 X68.464 Y128.464 A1206.58085
G1 X81.536 Y128.464 A1207.14435
G1 X81.536 Y141.536 A1207.70785
G0 F7200 X89.393 Y149.393
G1 F2100 X60.607 Y149.393 A1208.94875
G1 X60.607 Y120.607 A1210.18964
G1 X89.393 Y120.607 A1211.43053
G1 X89.393 Y149.393 A1212.67143
G0 F7200 X97.18 Y157.18
G0 X97.25 Y157.25
;TYPE:WALL-OUTER
G1 F1050 X52.75 Y157.25 A1214.58971
G1 X52.75 Y112.75 A1216.50799
G1 X97.25 Y112.75 A1218.42628
G1 X97.25 Y157.25 A1220.34456
G0 F7200 X94.5 Y157.25
G0 X91.75 Y151.75
G0 X81.536 Y141.536
;TIME_ELAPSED:1317.853928
;LAYER:81
G0 X81.536 Y141.536 Z40.8
;TYPE:FILL
G1 F2100 X68.464 Y141.536 A1220.90807
G1 X68.464 Y128.464 A1221.47157
G1 X81.536 Y128.464 A1222.03507
G1 X81.536 Y141.536 A1222.59857
G0 F7200 X89.393 Y149.393
G1 F2100 X60.607 Y149.393 A1223.83946
G1 X60.607 Y120.607 A1225.08036
G1 X89.393 Y120.607 A1226.32125
G1 X89.393 Y149.393 A1227.56214
G0 F7200 X97.18 Y157.18
G0 X97.25 Y157.25
;TYPE:WALL-OUTER
G1 F1050 X52.75 Y157.25 A1229.48043
G1 X52.75 Y112.75 A1231.39871
G1 X97.25 Y112.75 A1233.317
G1 X97.25 Y157.25 A1235.23528
G0 F7200 X94.5 Y157.25
G0 X91.75 Y151.75
G0 X81.536 Y141.536
;TIME_ELAPSED:1333.446136
;LAYER:82
G0 X81.536 Y141.536 Z41.3
;TYPE:FILL
G1 F2100 X68.464 Y141.536 A1235.79878
G1 X68.464 Y128.464 A1236.36229
G1 X81.536 Y128.464 A1236.92579
G1 X81.536 Y141.536 A1237.48929
G0 F7200 X89.393 Y149.393
G1 F2100 X60.607 Y149.393 A1238.73018
G1 X60.607 Y120.607 A1239.97108
G1 X89.393 Y120.607 A1241.21197
G1 X89.393 Y149.393 A1242.45286
G0 F7200 X97.18 Y157.18
G0 X97.25 Y157.25
;TYPE:WALL-OUTER
G1 F1050 X52.75 Y157.25 A1244.37115
G1 X52.75 Y112.75 A1246.28943
G1 X97.25 Y112.75 A1248.20772
G1 X97.25 Y157.25 A1250.126
G0 F7200 X94.5 Y157.25
G0 X91.75 Y151.75
G0 X81.536 Y141.536
;TIME_ELAPSED:1349.038344
;LAYER:83
G0 X81.536 Y141.536 Z41.8
;TYPE:FILL
G1 F2100 X68.464 Y141.536 A1250.6895
G1 X68.464 Y128.464 A1251.25301
G1 X81.536 Y128.464 A1251.81651
G1 X81.536 Y141.536 A1252.38001
G0 F7200 X89.393 Y149.393
G1 F2100 X60.607 Y149.393 A1253.6209
G1 X60.607 Y120.607 A1254.86179
G1 X89.393 Y120.607 A1256.10269
G1 X89.393 Y149.393 A1257.34358
G0 F7200 X97.18 Y157.18
G0 X97.25 Y157.25
;TYPE:WALL-OUTER
G1 F1050 X52.75 Y157.25 A1259.26187
G1 X52.75 Y112.75 A1261.18015
G1 X97.25 Y112.75 A1263.09844
G1 X97.25 Y157.25 A1265.01672
G0 F7200 X94.5 Y157.25
G0 X91.75 Y151.75
G0 X81.536 Y141.536
;TIME_ELAPSED:1364.630552
;LAYER:84
G0 X81.536 Y141.536 Z42.3
;TYPE:FILL
G1 F2100 X68.464 Y141.536 A1265.58022
G1 X68.464 Y128.464 A1266.14372
G1 X81.536 Y128.464 A1266.70723
G1 X81.536 Y141.536 A1267.27073
G0 F7200 X89.393 Y149.393
G1 F2100 X60.607 Y149.393 A1268.51162
G1 X60.607 Y120.607 A1269.75251
G1 X89.393 Y120.607 A1270.99341
G1 X89.393 Y149.393 A1272.2343
G0 F7200 X97.18 Y157.18
G0 X97.25 Y157.25
;TYPE:WALL-OUTER
G1 F1050 X52.75 Y157.25 A1274.15258
G1 X52.75 Y112.75 A1276.07087
G1 X97.25 Y112.75 A1277.98915
G1 X97.25 Y157.25 A1279.90744
G0 F7200 X94.5 Y157.25
G0 X91.75 Y151.75
G0 X81.536 Y141.536
;TIME_ELAPSED:1380.222759
;LAYER:85
G0 X81.536 Y141.536 Z42.8
;TYPE:FILL
G1 F2100 X68.464 Y141.536 A1280.47094
G1 X68.464 Y128.464 A1281.03444
G1 X81.536 Y128.464 A1281.59794
G1 X81.536 Y141.536 A1282.16145
G0 F7200 X89.393 Y149.393
G1 F2100 X60.607 Y149.393 A1283.40234
G1 X60.607 Y120.607 A1284.64323
G1 X89.393 Y120.607 A1285.88413
G1 X89.393 Y149.393 A1287.12502
G0 F7200 X97.18 Y157.18
G0 X97.25 Y157.25
;TYPE:WALL-OUTER
G1 F1050 X52.75 Y157.25 A1289.0433
G1 X52.75 Y112.75 A1290.96159
G1 X97.25 Y112.75 A1292.87987
G1 X97.25 Y157.25 A1294.79816
G0 F7200 X94.5 Y157.25
G0 X91.75 Y151.75
G0 X81.536 Y141.536
;TIME_ELAPSED:1395.814967
;LAYER:86
G0 X81.536 Y141.536 Z43.3
;TYPE:FILL
G1 F2100 X68.464 Y141.536 A1295.36166
G1 X68.464 Y128.464 A1295.92516
G1 X81.536 Y128.464 A1296.48866
G1 X81.536 Y141.536 A1297.05216
G0 F7200 X89.393 Y149.393
G1 F2100 X60.607 Y149.393 A1298.29306
G1 X60.607 Y120.607 A1299.53395
G1 X89.393 Y120.607 A1300.77484
G1 X89.393 Y149.393 A1302.01574
G0 F7200 X97.18 Y157.18
G0 X97.25 Y157.25
;TYPE:WALL-OUTER
G1 F1050 X52.75 Y157.25 A1303.93402
G1 X52.75 Y112.75 A1305.85231
G1 X97.25 Y112.75 A1307.77059
G1 X97.25 Y157.25 A1309.68888
G0 F7200 X94.5 Y157.25
G0 X91.75 Y151.75
G0 X81.536 Y141.536
;TIME_ELAPSED:1411.407175
;LAYER:87
G0 X81.536 Y141.536 Z43.8
;TYPE:FILL
G1 F2100 X68.464 Y141.536 A1310.25238
G1 X68.464 Y128.464 A1310.81588
G1 X81.536 Y128.464 A1311.37938
G1 X81.536 Y141.536 A1311.94288
G0 F7200 X89.393 Y149.393
G1 F2100 X60.607 Y149.393 A1313.18378
G1 X60.607 Y120.607 A1314.42467
G1 X89.393 Y120.607 A1315.66556
G1 X89.393 Y149.393 A1316.90646
G0 F7200 X97.18 Y157.18
G0 X97.25 Y157.25
;TYPE:WALL-OUTER
G1 F1050 X52.75 Y157.25 A1318.82474
G1 X52.75 Y112.75 A1320.74303
G1 X97.25 Y112.75 A1322.66131
G1 X97.25 Y157.25 A1324.5796
G0 F7200 X94.5 Y157.25
G0 X91.75 Y151.75
G0 X81.536 Y141.536
;TIME_ELAPSED:1426.999383
;LAYER:88
G0 X81.536 Y141.536 Z44.3
;TYPE:FILL
G1 F2100 X68.464 Y141.536 A1325.1431
G1 X68.464 Y128.464 A1325.7066
G1 X81.536 Y128.464 A1326.2701
G1 X81.536 Y141.536 A1326.8336
G0 F7200 X89.393 Y149.393
G1 F2100 X60.607 Y149.393 A1328.0745
G1 X60.607 Y120.607 A1329.31539
G1 X89.393 Y120.607 A1330.55628
G1 X89.393 Y149.393 A1331.79717
G0 F7200 X97.18 Y157.18
G0 X97.25 Y157.25
;TYPE:WALL-OUTER
G1 F1050 X52.75 Y157.25 A1333.71546
G1 X52.75 Y112.75 A1335.63374
G1 X97.25 Y112.75 A1337.55203
G1 X97.25 Y157.25 A1339.47031
G0 F7200 X94.5 Y157.25
G0 X91.75 Y151.75
G0 X81.536 Y141.536
;TIME_ELAPSED:1442.591591
;LAYER:89
G0 X81.536 Y141.536 Z44.8
;TYPE:FILL
G1 F2100 X68.464 Y141.536 A1340.03382
G1 X68.464 Y128.464 A1340.59732
G1 X81.536 Y128.464 A1341.16082
G1 X81.536 Y141.536 A1341.72432
G0 F7200 X89.393 Y149.393
G1 F2100 X60.607 Y149.393 A1342.96521
G1 X60.607 Y120.607 A1344.20611
G1 X89.393 Y120.607 A1345.447
G1 X89.393 Y149.393 A1346.68789
G0 F7200 X97.18 Y157.18
G0 X97.25 Y157.25
;TYPE:WALL-OUTER
G1 F1050 X52.75 Y157.25 A1348.60618
G1 X52.75 Y112.75 A1350.52446
G1 X97.25 Y112.75 A1352.44275
G1 X97.25 Y157.25 A1354.36103
G0 F7200 X94.5 Y157.25
G0 X91.75 Y151.75
G0 X81.536 Y141.536
;TIME_ELAPSED:1458.183799
;LAYER:90
G0 X81.536 Y141.536 Z45.3
;TYPE:FILL
G1 F2100 X68.464 Y141.536 A1354.92453
G1 X68.464 Y128.464 A1355.48804
G1 X81.536 Y128.464 A1356.05154
G1 X81.536 Y141.536 A1356.61504
G0 F7200 X89.393 Y149.393
G1 F2100 X60.607 Y149.393 A1357.85593
G1 X60.607 Y120.607 A1359.09683
G1 X89.393 Y120.607 A1360.33772
G1 X89.393 Y149.393 A1361.57861
G0 F7200 X97.18 Y157.18
G0 X97.25 Y157.25
;TYPE:WALL-OUTER
G1 F1050 X52.75 Y157.25 A1363.4969
G1 X52.75 Y112.75 A1365.41518
G1 X97.25 Y112.75 A1367.33347
G1 X97.25 Y157.25 A1369.25175
G0 F7200 X94.5 Y157.25
G0 X91.75 Y151.75
G0 X81.536 Y141.536
;TIME_ELAPSED:1473.776007
;LAYER:91
G0 X81.536 Y141.536 Z45.8
;TYPE:FILL
G1 F2100 X68.464 Y141.536 A1369.81525
G1 X68.464 Y128.464 A1370.37875
G1 X81.536 Y128.464 A1370.94226
G1 X81.536 Y141.536 A1371.50576
G0 F7200 X89.393 Y149.393
G1 F2100 X60.607 Y149.393 A1372.74665
G1 X60.607 Y120.607 A1373.98754
G1 X89.393 Y120.607 A1375.22844
G1 X89.393 Y149.393 A1376.46933
G0 F7200 X97.18 Y157.18
G0 X97.25 Y157.25
;TYPE:WALL-OUTER
G1 F1050 X52.75 Y157.25 A1378.38762
G1 X52.75 Y112.75 A1380.3059
G1 X97.25 Y112.75 A1382.22419
G1 X97.25 Y157.25 A1384.14247
G0 F7200 X94.5 Y157.25
G0 X91.75 Y151.75
G0 X81.536 Y141.536
;TIME_ELAPSED:1489.368214
;LAYER:92
G0 X81.536 Y141.536 Z46.3
;TYPE:FILL
G1 F2100 X68.464 Y141.536 A1384.70597
G1 X68.464 Y128.464 A1385.26947
G1 X81.536 Y128.464 A1385.83298
G1 X81.536 Y141.536 A1386.39648
G0 F7200 X89.393 Y149.393
G1 F2100 X60.607 Y149.393 A1387.63737
G1 X60.607 Y120.607 A1388.87826
G1 X89.393 Y120.607 A1390.11916
G1 X89.393 Y149.393 A1391.36005
G0 F7200 X97.18 Y157.18
G0 X97.25 Y157.25
;TYPE:WALL-OUTER
G1 F1050 X52.75 Y157.25 A1393.27833
G1 X52.75 Y112.75 A1395.19662
G1 X97.25 Y112.75 A1397.1149
G1 X97.25 Y157.25 A1399.03319
G0 F7200 X94.5 Y157.25
G0 X91.75 Y151.75
G0 X81.536 Y141.536
;TIME_ELAPSED:1504.960422
;LAYER:93
G0 X81.536 Y141.536 Z46.8
;TYPE:FILL
G1 F2100 X68.464 Y141.536 A1399.59669
G1 X68.464 Y128.464 A1400.16019
G1 X81.536 Y128.464 A1400.72369
G1 X81.536 Y141.536 A1401.2872
G0 F7200 X89.393 Y149.393
G1 F2100 X60.607 Y149.393 A1402.52809
G1 X60.607 Y120.607 A1403.76898
G1 X89.393 Y120.607 A1405.00988
G1 X89.393 Y149.393 A1406.25077
G0 F7200 X97.18 Y157.18
G0 X97.25 Y157.25
;TYPE:WALL-OUTER
G1 F1050 X52.75 Y157.25 A1408.16905
G1 X52.75 Y112.75 A1410.08734
G1 X97.25 Y112.75 A1412.00562
G1 X97.25 Y157.25 A1413.92391
G0 F7200 X94.5 Y157.25
G0 X91.75 Y151.75
G0 X81.536 Y141.536
;TIME_ELAPSED:1520.552630
;LAYER:94
G0 X81.536 Y141.536 Z47.3
;TYPE:FILL
G1 F2100 X68.464 Y141.536 A1414.48741
G1 X68.464 Y128.464 A1415.05091
G1 X81.536 Y128.464 A1415.61441
G1 X81.536 Y141.536 A1416.17791
G0 F7200 X89.393 Y149.393
G1 F2100 X60.607 Y149.393 A1417.41881
G1 X60.607 Y120.607 A1418.6597
G1 X89.393 Y120.607 A1419.90059
G1 X89.393 Y149.393 A1421.14149
G0 F7200 X97.18 Y157.18
G0 X97.25 Y157.25
;TYPE:WALL-OUTER
G1 F1050 X52.75 Y157.25 A1423.05977
G1 X52.75 Y112.75 A1424.97806
G1 X97.25 Y112.75 A1426.89634
G1 X97.25 Y157.25 A1428.81463
G0 F7200 X94.5 Y157.25
G0 X91.75 Y151.75
G0 X81.536 Y141.536
;TIME_ELAPSED:1536.144838
;LAYER:95
G0 X81.536 Y141.536 Z47.8
;TYPE:FILL
G1 F2100 X68.464 Y141.536 A1429.37813
G1 X68.464 Y128.464 A1429.94163
G1 X81.536 Y128.464 A1430.50513
G1 X81.536 Y141.536 A1431.06863
G0 F7200 X89.393 Y149.393
G1 F2100 X60.607 Y149.393 A1432.30953
G1 X60.607 Y120.607 A1433.55042
G1 X89.393 Y120.607 A1434.79131
G1 X89.393 Y149.393 A1436.03221
G0 F7200 X97.18 Y157.18
G0 X97.25 Y157.25
;TYPE:WALL-OUTER
G1 F1050 X52.75 Y157.25 A1437.95049
G1 X52.75 Y112.75 A1439.86878
G1 X97.25 Y112.75 A1441.78706
G1 X97.25 Y157.25 A1443.70535
G0 F7200 X94.5 Y157.25
G0 X91.75 Y151.75
G0 X81.536 Y141.536
;TIME_ELAPSED:1551.737046
;LAYER:96
G0 X81.536 Y141.536 Z48.3
;TYPE:FILL
G1 F2100 X68.464 Y141.536 A1444.26885
G1 X68.464 Y128.464 A1444.83235
G1 X81.536 Y128.464 A1445.39585
G1 X81.536 Y141.536 A1445.95935
G0 F7200 X89.393 Y149.393
G1 F2100 X60.607 Y149.393 A1447.20024
G1 X60.607 Y120.607 A1448.44114
G1 X89.393 Y120.607 A1449.68203
G1 X89.393 Y149.393 A1450.92292
G0 F7200 X97.18 Y157.18
G0 X97.25 Y157.25
;TYPE:WALL-OUTER
G1 F1050 X52.75 Y157.25 A1452.84121
G1 X52.75 Y112.75 A1454.75949
G1 X97.25 Y112.75 A1456.67778
G1 X97.25 Y157.25 A1458.59606
G0 F7200 X94.5 Y157.25
G0 X91.75 Y151.75
G0 X81.536 Y141.536
;TIME_ELAPSED:1567.329254
;LAYER:97
G0 X81.536 Y141.536 Z48.8
;TYPE:FILL
G1 F2100 X68.464 Y141.536 A1459.15957
G1 X68.464 Y128.464 A1459.72307
G1 X81.536 Y128.464 A1460.28657
G1 X81.536 Y141.536 A1460.85007
G0 F7200 X89.393 Y149.393
G1 F2100 X60.607 Y149.393 A1462.09096
G1 X60.607 Y120.607 A1463.33186
G1 X89.393 Y120.607 A1464.57275
G1 X89.393 Y149.393 A1465.81364
G0 F7200 X97.18 Y157.18
G0 X97.25 Y157.25
;TYPE:WALL-OUTER
G1 F1050 X52.75 Y157.25 A1467.73193
G1 X52.75 Y112.75 A1469.65021
G1 X97.25 Y112.75 A1471.5685
G1 X97.25 Y157.25 A1473.48678
G0 F7200 X94.5 Y157.25
G0 X91.75 Y151.75
G0 X97.25 Y157.25
;TIME_ELAPSED:1582.884150
;LAYER:98
G0 X97.25 Y157.25 Z49.3
;TYPE:WALL-OUTER
G1 F1050 X52.75 Y157.25 A1475.40507
G1 X52.75 Y112.75 A1477.32335
G1 X97.25 Y112.75 A1479.24164
G1 X97.25 Y157.25 A1481.15992
G0 F7200 X94.5 Y157.25
G0 X91.76 Y151.76
;TYPE:SKIN
G1 F1050 X58.24 Y151.76 A1482.60489
G1 X58.24 Y118.24 A1484.04985
G1 X91.76 Y118.24 A1485.49481
G1 X91.76 Y151.76 A1486.93978
G0 F7200 X89.284 Y128.175
G1 F1050 X81.823 Y120.714 A1487.39463
G0 F7200 X74.045 Y120.714
G1 F1050 X89.284 Y135.954 A1488.32368
G0 F7200 X89.284 Y143.732
G1 F1050 X66.267 Y120.714 A1489.7269
G0 F7200 X60.715 Y122.94
G1 F1050 X87.058 Y149.284 A1491.33288
G0 F7200 X79.28 Y149.284
G1 F1050 X60.715 Y130.718 A1492.4647
G0 F7200 X60.715 Y138.496
G1 F1050 X71.502 Y149.284 A1493.12234
G0 F7200 X63.724 Y149.284
G1 F1050 X60.715 Y146.274 A1493.30581
G0 F7200 X97.18 Y157.18
G0 X97.25 Y157.25
;TIME_ELAPSED:1610.518870
;LAYER:99
G0 X97.25 Y157.25 Z49.8
;TYPE:WALL-OUTER
G1 F1050 X52.75 Y157.25 A1495.22409
G1 X52.75 Y112.75 A1497.14238
G1 X97.25 Y112.75 A1499.06066
G1 X97.25 Y157.25 A1500.97894
G0 F7200 X94.5 Y157.25
G0 X91.76 Y151.76
;TYPE:SKIN
G1 F1050 X58.24 Y151.76 A1502.42391
G1 X58.24 Y118.24 A1503.86887
G1 X91.76 Y118.24 A1505.31384
G1 X91.76 Y151.76 A1506.7588
G0 F7200 X84.06 Y149.284
G1 F1050 X89.284 Y144.06 A1507.07727
G0 F7200 X89.284 Y136.282
G1 F1050 X76.282 Y149.284 A1507.86992
G0 F7200 X68.504 Y149.284
G1 F1050 X89.284 Y128.503 A1509.13676
G0 F7200 X89.284 Y120.725
G1 F1050 X60.726 Y149.284 A1510.87778
G0 F7200 X60.715 Y141.517
G1 F1050 X81.518 Y120.714 A1512.146
G0 F7200 X73.739 Y120.714
G1 F1050 X60.715 Y133.739 A1512.94002
G0 F7200 X60.715 Y125.961
G1 F1050 X65.961 Y120.714 A1513.25986
;TIME_ELAPSED:1637.875792
M107
M104 S0
M140 S0
;Retract the filament
G92 A1
G1 A-1 F300
M84
M82 ;absolute extrusion mode
;End of Gcode
;SETTING_3 {"extruder_quality": ["[general]\\nversion = 4\\nname = Fine #2\\ndef
;SETTING_3 inition = fdmprinter\\n\\n[metadata]\\nposition = 0\\nquality_type = 
;SETTING_3 normal\\ntype = quality_changes\\nsetting_version = 5\\n\\n[values]\\
;SETTING_3 ninfill_pattern = concentric\\ninfill_sparse_density = 70\\nmaterial_
;SETTING_3 flow = 10\\nmaterial_print_temperature = 0\\nretraction_enable = Fals
;SETTING_3 e\\nspeed_print = 35\\ntop_bottom_thickness = 1\\nwall_thickness = 5.
;SETTING_3 5\\n\\n", "[general]\\nversion = 4\\nname = Fine #2\\ndefinition = fd
;SETTING_3 mprinter\\n\\n[metadata]\\nposition = 1\\nquality_type = normal\\ntyp
;SETTING_3 e = quality_changes\\nsetting_version = 5\\n\\n[values]\\n\\n", "[gen
;SETTING_3 eral]\\nversion = 4\\nname = Fine #2\\ndefinition = fdmprinter\\n\\n[
;SETTING_3 metadata]\\nposition = 2\\nquality_type = normal\\ntype = quality_cha
;SETTING_3 nges\\nsetting_version = 5\\n\\n[values]\\n\\n", "[general]\\nversion
;SETTING_3  = 4\\nname = Fine #2\\ndefinition = fdmprinter\\n\\n[metadata]\\npos
;SETTING_3 ition = 3\\nquality_type = normal\\ntype = quality_changes\\nsetting_
;SETTING_3 version = 5\\n\\n[values]\\n\\n", "[general]\\nversion = 4\\nname = F
;SETTING_3 ine #2\\ndefinition = fdmprinter\\n\\n[metadata]\\nposition = 4\\nqua
;SETTING_3 lity_type = normal\\ntype = quality_changes\\nsetting_version = 5\\n\
;SETTING_3 \n[values]\\n\\n", "[general]\\nversion = 4\\nname = Fine #2\\ndefini
;SETTING_3 tion = fdmprinter\\n\\n[metadata]\\nposition = 5\\nquality_type = nor
;SETTING_3 mal\\ntype = quality_changes\\nsetting_version = 5\\n\\n[values]\\n\\
;SETTING_3 n", "[general]\\nversion = 4\\nname = Fine #2\\ndefinition = fdmprint
;SETTING_3 er\\n\\n[metadata]\\nposition = 6\\nquality_type = normal\\ntype = qu
;SETTING_3 ality_changes\\nsetting_version = 5\\n\\n[values]\\n\\n", "[general]\
;SETTING_3 \nversion = 4\\nname = Fine #2\\ndefinition = fdmprinter\\n\\n[metada
;SETTING_3 ta]\\nposition = 7\\nquality_type = normal\\ntype = quality_changes\\
;SETTING_3 nsetting_version = 5\\n\\n[values]\\n\\n"], "global_quality": "[gener
;SETTING_3 al]\\nversion = 4\\nname = Fine #2\\ndefinition = fdmprinter\\n\\n[me
;SETTING_3 tadata]\\nquality_type = normal\\ntype = quality_changes\\nsetting_ve
;SETTING_3 rsion = 5\\n\\n[values]\\nlayer_height = 0.5\\n\\n"}
