;FLAVOR:Mach3
;TIME:1644
;Generated with Cura_SteamEngine 3.5.1
M109 S0
M82 ;absolute extrusion mode
G1 Z15.0 F6000 ;Move the platform down 15mm
;Prime the extruder
G92 A0 X0 Y0 Z0
G1 F200 A0.001
G92 A0
G92 A0
;LAYER_COUNT:101
;LAYER:0
M107
G0 F3600 X46.871 Y102.366 Z0.3
;TYPE:SKIRT
G1 F1500 A0
G1 F1050 X47.637 Y102.096 A0.04201
G1 X48.425 Y101.902 A0.08399
G1 X49.229 Y101.786 A0.12601
G1 X50 Y101.75 A0.16594
G1 X100 Y101.75 A2.75239
G1 X100.811 Y101.79 A2.7944
G1 X101.614 Y101.91 A2.8364
G1 X102.402 Y102.107 A2.87841
G1 X103.167 Y102.382 A2.92046
G1 X103.9 Y102.73 A2.96244
G1 X104.596 Y103.149 A3.00446
G1 X105.247 Y103.634 A3.04646
G1 X105.848 Y104.181 A3.08849
G1 X106.392 Y104.784 A3.1305
G1 X106.874 Y105.438 A3.17253
G1 X107.289 Y106.136 A3.21454
G1 X107.634 Y106.871 A3.25654
G1 X107.904 Y107.637 A3.29855
G1 X108.098 Y108.425 A3.34053
G1 X108.214 Y109.229 A3.38255
G1 X108.25 Y110 A3.42248
G1 X108.25 Y160 A6.00893
G1 X108.21 Y160.811 A6.05093
G1 X108.09 Y161.614 A6.09293
G1 X107.893 Y162.402 A6.13495
G1 X107.618 Y163.167 A6.177
G1 X107.27 Y163.9 A6.21898
G1 X106.851 Y164.596 A6.261
G1 X106.366 Y165.247 A6.30299
G1 X105.819 Y165.848 A6.34503
G1 X105.216 Y166.392 A6.38704
G1 X104.562 Y166.874 A6.42907
G1 X103.864 Y167.289 A6.47107
G1 X103.129 Y167.634 A6.51308
G1 X102.363 Y167.904 A6.55509
G1 X101.575 Y168.098 A6.59707
G1 X100.771 Y168.214 A6.63909
G1 X100 Y168.25 A6.67902
G1 X50 Y168.25 A9.26547
G1 X49.189 Y168.21 A9.30747
G1 X48.386 Y168.09 A9.34947
G1 X47.598 Y167.893 A9.39149
G1 X46.833 Y167.618 A9.43354
G1 X46.1 Y167.27 A9.47551
G1 X45.404 Y166.851 A9.51754
G1 X44.753 Y166.366 A9.55953
G1 X44.152 Y165.819 A9.60157
G1 X43.608 Y165.216 A9.64358
G1 X43.126 Y164.562 A9.68561
G1 X42.711 Y163.864 A9.72761
G1 X42.366 Y163.129 A9.76961
G1 X42.096 Y162.363 A9.81163
G1 X41.902 Y161.575 A9.85361
G1 X41.786 Y160.771 A9.89563
G1 X41.75 Y160 A9.93555
G1 X41.75 Y110 A12.52201
G1 X41.79 Y109.189 A12.56401
G1 X41.91 Y108.386 A12.60601
G1 X42.107 Y107.598 A12.64803
G1 X42.382 Y106.833 A12.69008
G1 X42.73 Y106.1 A12.73205
G1 X43.149 Y105.404 A12.77408
G1 X43.634 Y104.753 A12.81607
G1 X44.181 Y104.152 A12.85811
G1 X44.784 Y103.608 A12.90012
G1 X45.438 Y103.126 A12.94214
G1 X46.136 Y102.711 A12.98415
G1 X46.871 Y102.366 A13.02615
G0 F3600 X48.989 Y107.443
G1 F1050 X49.438 Y107.308 A13.05041
G1 X50 Y107.25 A13.07963
G1 X100 Y107.25 A15.66608
G1 X100.467 Y107.29 A15.69033
G1 X100.92 Y107.409 A15.71456
G1 X101.347 Y107.602 A15.7388
G1 X101.734 Y107.866 A15.76303
G1 X102.072 Y108.191 A15.78729
G1 X102.349 Y108.569 A15.81153
G1 X102.557 Y108.989 A15.83577
G1 X102.692 Y109.438 A15.86003
G1 X102.75 Y110 A15.88925
G1 X102.75 Y160 A18.4757
G1 X102.71 Y160.467 A18.49995
G1 X102.591 Y160.92 A18.52418
G1 X102.398 Y161.347 A18.54842
G1 X102.134 Y161.734 A18.57265
G1 X101.809 Y162.072 A18.59691
G1 X101.431 Y162.349 A18.62115
G1 X101.011 Y162.557 A18.64539
G1 X100.562 Y162.692 A18.66965
G1 X100 Y162.75 A18.69887
G1 X50 Y162.75 A21.28532
G1 X49.533 Y162.71 A21.30957
G1 X49.08 Y162.591 A21.3338
G1 X48.653 Y162.398 A21.35804
G1 X48.266 Y162.134 A21.38227
G1 X47.928 Y161.809 A21.40653
G1 X47.651 Y161.431 A21.43077
G1 X47.443 Y161.011 A21.45501
G1 X47.308 Y160.562 A21.47927
G1 X47.25 Y160 A21.50849
G1 X47.25 Y110 A24.09495
G1 X47.29 Y109.533 A24.11919
G1 X47.409 Y109.08 A24.14342
G1 X47.602 Y108.653 A24.16766
G1 X47.866 Y108.266 A24.19189
G1 X48.191 Y107.928 A24.21615
G1 X48.569 Y107.651 A24.24039
G1 X48.989 Y107.443 A24.26463
G1 F1500 A17.76463
G0 F3600 X52.764 Y109.335
G0 X52.764 Y112.764
G0 X97.15 Y157.18
G0 X97.25 Y157.25
;TYPE:WALL-OUTER
G1 F1500 A24.26463
G1 F1050 X52.75 Y157.25 A26.56658
G1 X52.75 Y112.75 A28.86852
G1 X97.25 Y112.75 A31.17046
G1 X97.25 Y157.25 A33.4724
G0 F3600 X94.5 Y157.25
G0 X91.76 Y151.76
;TYPE:SKIN
G1 F1050 X58.24 Y151.76 A35.20636
G1 X58.24 Y118.24 A36.94032
G1 X91.76 Y118.24 A38.67427
G1 X91.76 Y151.76 A40.40823
G0 F3600 X89.284 Y128.175
G1 F1050 X81.823 Y120.714 A40.95405
G0 F3600 X74.045 Y120.714
G1 F1050 X89.284 Y135.954 A42.06891
G0 F3600 X89.284 Y143.732
G1 F1050 X66.267 Y120.714 A43.75277
G0 F3600 X60.715 Y122.94
G1 F1050 X87.058 Y149.284 A45.67995
G0 F3600 X79.28 Y149.284
G1 F1050 X60.715 Y130.718 A47.03813
G0 F3600 X60.715 Y138.496
G1 F1050 X71.502 Y149.284 A47.8273
G0 F3600 X63.724 Y149.284
G1 F1050 X60.715 Y146.274 A48.04746
G0 F3600 X97.18 Y157.18
G0 X97.25 Y157.25
;TIME_ELAPSED:65.263244
;LAYER:1
M106 S255
G0 F5400 X97.25 Y157.25 Z0.8
;TYPE:WALL-OUTER
G1 F1050 X52.75 Y157.25 A51.88403
G1 X52.75 Y112.75 A55.7206
G1 X97.25 Y112.75 A59.55717
G1 X97.25 Y157.25 A63.39374
G0 F5400 X94.5 Y157.25
G0 X91.76 Y151.76
;TYPE:SKIN
G1 F1050 X58.24 Y151.76 A66.28367
G1 X58.24 Y118.24 A69.1736
G1 X91.76 Y118.24 A72.06353
G1 X91.76 Y151.76 A74.95345
G0 F5400 X84.06 Y149.284
G1 F1050 X89.284 Y144.06 A75.5904
G0 F5400 X89.284 Y136.282
G1 F1050 X76.282 Y149.284 A77.17569
G0 F5400 X68.504 Y149.284
G1 F1050 X89.284 Y128.503 A79.70938
G0 F5400 X89.284 Y120.725
G1 F1050 X60.726 Y149.284 A83.19142
G0 F5400 X60.715 Y141.517
G1 F1050 X81.518 Y120.714 A85.72786
G0 F5400 X73.739 Y120.714
G1 F1050 X60.715 Y133.739 A87.31589
G0 F5400 X60.715 Y125.961
G1 F1050 X65.961 Y120.714 A87.95557
G0 F5400 X81.536 Y141.536
;TIME_ELAPSED:93.032777
;LAYER:2
G0 F7200 X81.536 Y141.536 Z1.3
;TYPE:FILL
G1 F2100 X68.464 Y141.536 A89.08258
G1 X68.464 Y128.464 A90.20958
G1 X81.536 Y128.464 A91.33658
G1 X81.536 Y141.536 A92.46359
G0 F7200 X89.393 Y149.393
G1 F2100 X60.607 Y149.393 A94.94537
G1 X60.607 Y120.607 A97.42716
G1 X89.393 Y120.607 A99.90895
G1 X89.393 Y149.393 A102.39073
G0 F7200 X97.18 Y157.18
G0 X97.25 Y157.25
;TYPE:WALL-OUTER
G1 F1050 X52.75 Y157.25 A106.2273
G1 X52.75 Y112.75 A110.06387
G1 X97.25 Y112.75 A113.90044
G1 X97.25 Y157.25 A117.73701
G0 F7200 X94.5 Y157.25
G0 X91.75 Y151.75
G0 X81.536 Y141.536
;TIME_ELAPSED:108.624985
;LAYER:3
G0 X81.536 Y141.536 Z1.8
;TYPE:FILL
G1 F2100 X68.464 Y141.536 A118.86401
G1 X68.464 Y128.464 A119.99102
G1 X81.536 Y128.464 A121.11802
G1 X81.536 Y141.536 A122.24502
G0 F7200 X89.393 Y149.393
G1 F2100 X60.607 Y149.393 A124.72681
G1 X60.607 Y120.607 A127.2086
G1 X89.393 Y120.607 A129.69038
G1 X89.393 Y149.393 A132.17217
G0 F7200 X97.18 Y157.18
G0 X97.25 Y157.25
;TYPE:WALL-OUTER
G1 F1050 X52.75 Y157.25 A136.00874
G1 X52.75 Y112.75 A139.84531
G1 X97.25 Y112.75 A143.68188
G1 X97.25 Y157.25 A147.51845
G0 F7200 X94.5 Y157.25
G0 X91.75 Y151.75
G0 X81.536 Y141.536
;TIME_ELAPSED:124.217193
;LAYER:4
G0 X81.536 Y141.536 Z2.3
;TYPE:FILL
G1 F2100 X68.464 Y141.536 A148.64545
G1 X68.464 Y128.464 A149.77246
G1 X81.536 Y128.464 A150.89946
G1 X81.536 Y141.536 A152.02646
G0 F7200 X89.393 Y149.393
G1 F2100 X60.607 Y149.393 A154.50825
G1 X60.607 Y120.607 A156.99003
G1 X89.393 Y120.607 A159.47182
G1 X89.393 Y149.393 A161.95361
G0 F7200 X97.18 Y157.18
G0 X97.25 Y157.25
;TYPE:WALL-OUTER
G1 F1050 X52.75 Y157.25 A165.79018
G1 X52.75 Y112.75 A169.62675
G1 X97.25 Y112.75 A173.46332
G1 X97.25 Y157.25 A177.29989
G0 F7200 X94.5 Y157.25
G0 X91.75 Y151.75
G0 X81.536 Y141.536
;TIME_ELAPSED:139.809400
;LAYER:5
G0 X81.536 Y141.536 Z2.8
;TYPE:FILL
G1 F2100 X68.464 Y141.536 A178.42689
G1 X68.464 Y128.464 A179.55389
G1 X81.536 Y128.464 A180.6809
G1 X81.536 Y141.536 A181.8079
G0 F7200 X89.393 Y149.393
G1 F2100 X60.607 Y149.393 A184.28969
G1 X60.607 Y120.607 A186.77147
G1 X89.393 Y120.607 A189.25326
G1 X89.393 Y149.393 A191.73504
G0 F7200 X97.18 Y157.18
G0 X97.25 Y157.25
;TYPE:WALL-OUTER
G1 F1050 X52.75 Y157.25 A195.57161
G1 X52.75 Y112.75 A199.40818
G1 X97.25 Y112.75 A203.24475
G1 X97.25 Y157.25 A207.08132
G0 F7200 X94.5 Y157.25
G0 X91.75 Y151.75
G0 X81.536 Y141.536
;TIME_ELAPSED:155.401608
;LAYER:6
G0 X81.536 Y141.536 Z3.3
;TYPE:FILL
G1 F2100 X68.464 Y141.536 A208.20833
G1 X68.464 Y128.464 A209.33533
G1 X81.536 Y128.464 A210.46233
G1 X81.536 Y141.536 A211.58934
G0 F7200 X89.393 Y149.393
G1 F2100 X60.607 Y149.393 A214.07112
G1 X60.607 Y120.607 A216.55291
G1 X89.393 Y120.607 A219.0347
G1 X89.393 Y149.393 A221.51648
G0 F7200 X97.18 Y157.18
G0 X97.25 Y157.25
;TYPE:WALL-OUTER
G1 F1050 X52.75 Y157.25 A225.35305
G1 X52.75 Y112.75 A229.18962
G1 X97.25 Y112.75 A233.02619
G1 X97.25 Y157.25 A236.86276
G0 F7200 X94.5 Y157.25
G0 X91.75 Y151.75
G0 X81.536 Y141.536
;TIME_ELAPSED:170.993816
;LAYER:7
G0 X81.536 Y141.536 Z3.8
;TYPE:FILL
G1 F2100 X68.464 Y141.536 A237.98976
G1 X68.464 Y128.464 A239.11677
G1 X81.536 Y128.464 A240.24377
G1 X81.536 Y141.536 A241.37077
G0 F7200 X89.393 Y149.393
G1 F2100 X60.607 Y149.393 A243.85256
G1 X60.607 Y120.607 A246.33435
G1 X89.393 Y120.607 A248.81613
G1 X89.393 Y149.393 A251.29792
G0 F7200 X97.18 Y157.18
G0 X97.25 Y157.25
;TYPE:WALL-OUTER
G1 F1050 X52.75 Y157.25 A255.13449
G1 X52.75 Y112.75 A258.97106
G1 X97.25 Y112.75 A262.80763
G1 X97.25 Y157.25 A266.6442
G0 F7200 X94.5 Y157.25
G0 X91.75 Y151.75
G0 X81.536 Y141.536
;TIME_ELAPSED:186.586024
;LAYER:8
G0 X81.536 Y141.536 Z4.3
;TYPE:FILL
G1 F2100 X68.464 Y141.536 A267.7712
G1 X68.464 Y128.464 A268.89821
G1 X81.536 Y128.464 A270.02521
G1 X81.536 Y141.536 A271.15221
G0 F7200 X89.393 Y149.393
G1 F2100 X60.607 Y149.393 A273.634
G1 X60.607 Y120.607 A276.11578
G1 X89.393 Y120.607 A278.59757
G1 X89.393 Y149.393 A281.07936
G0 F7200 X97.18 Y157.18
G0 X97.25 Y157.25
;TYPE:WALL-OUTER
G1 F1050 X52.75 Y157.25 A284.91593
G1 X52.75 Y112.75 A288.7525
G1 X97.25 Y112.75 A292.58907
G1 X97.25 Y157.25 A296.42564
G0 F7200 X94.5 Y157.25
G0 X91.75 Y151.75
G0 X81.536 Y141.536
;TIME_ELAPSED:202.178232
;LAYER:9
G0 X81.536 Y141.536 Z4.8
;TYPE:FILL
G1 F2100 X68.464 Y141.536 A297.55264
G1 X68.464 Y128.464 A298.67964
G1 X81.536 Y128.464 A299.80665
G1 X81.536 Y141.536 A300.93365
G0 F7200 X89.393 Y149.393
G1 F2100 X60.607 Y149.393 A303.41544
G1 X60.607 Y120.607 A305.89722
G1 X89.393 Y120.607 A308.37901
G1 X89.393 Y149.393 A310.86079
G0 F7200 X97.18 Y157.18
G0 X97.25 Y157.25
;TYPE:WALL-OUTER
G1 F1050 X52.75 Y157.25 A314.69736
G1 X52.75 Y112.75 A318.53393
G1 X97.25 Y112.75 A322.3705
G1 X97.25 Y157.25 A326.20707
G0 F7200 X94.5 Y157.25
G0 X91.75 Y151.75
G0 X81.536 Y141.536
;TIME_ELAPSED:217.770440
;LAYER:10
G0 X81.536 Y141.536 Z5.3
;TYPE:FILL
G1 F2100 X68.464 Y141.536 A327.33408
G1 X68.464 Y128.464 A328.46108
G1 X81.536 Y128.464 A329.58808
G1 X81.536 Y141.536 A330.71509
G0 F7200 X89.393 Y149.393
G1 F2100 X60.607 Y149.393 A333.19687
G1 X60.607 Y120.607 A335.67866
G1 X89.393 Y120.607 A338.16045
G1 X89.393 Y149.393 A340.64223
G0 F7200 X97.18 Y157.18
G0 X97.25 Y157.25
;TYPE:WALL-OUTER
G1 F1050 X52.75 Y157.25 A344.4788
G1 X52.75 Y112.75 A348.31537
G1 X97.25 Y112.75 A352.15194
G1 X97.25 Y157.25 A355.98851
G0 F7200 X94.5 Y157.25
G0 X91.75 Y151.75
G0 X81.536 Y141.536
;TIME_ELAPSED:233.362648
;LAYER:11
G0 X81.536 Y141.536 Z5.8
;TYPE:FILL
G1 F2100 X68.464 Y141.536 A357.11551
G1 X68.464 Y128.464 A358.24252
G1 X81.536 Y128.464 A359.36952
G1 X81.536 Y141.536 A360.49652
G0 F7200 X89.393 Y149.393
G1 F2100 X60.607 Y149.393 A362.97831
G1 X60.607 Y120.607 A365.4601
G1 X89.393 Y120.607 A367.94188
G1 X89.393 Y149.393 A370.42367
G0 F7200 X97.18 Y157.18
G0 X97.25 Y157.25
;TYPE:WALL-OUTER
G1 F1050 X52.75 Y157.25 A374.26024
G1 X52.75 Y112.75 A378.09681
G1 X97.25 Y112.75 A381.93338
G1 X97.25 Y157.25 A385.76995
G0 F7200 X94.5 Y157.25
G0 X91.75 Y151.75
G0 X81.536 Y141.536
;TIME_ELAPSED:248.954855
;LAYER:12
G0 X81.536 Y141.536 Z6.3
;TYPE:FILL
G1 F2100 X68.464 Y141.536 A386.89695
G1 X68.464 Y128.464 A388.02395
G1 X81.536 Y128.464 A389.15096
G1 X81.536 Y141.536 A390.27796
G0 F7200 X89.393 Y149.393
G1 F2100 X60.607 Y149.393 A392.75975
G1 X60.607 Y120.607 A395.24153
G1 X89.393 Y120.607 A397.72332
G1 X89.393 Y149.393 A400.20511
G0 F7200 X97.18 Y157.18
G0 X97.25 Y157.25
;TYPE:WALL-OUTER
G1 F1050 X52.75 Y157.25 A404.04168
G1 X52.75 Y112.75 A407.87825
G1 X97.25 Y112.75 A411.71482
G1 X97.25 Y157.25 A415.55139
G0 F7200 X94.5 Y157.25
G0 X91.75 Y151.75
G0 X81.536 Y141.536
;TIME_ELAPSED:264.547063
;LAYER:13
G0 X81.536 Y141.536 Z6.8
;TYPE:FILL
G1 F2100 X68.464 Y141.536 A416.67839
G1 X68.464 Y128.464 A417.80539
G1 X81.536 Y128.464 A418.9324
G1 X81.536 Y141.536 A420.0594
G0 F7200 X89.393 Y149.393
G1 F2100 X60.607 Y149.393 A422.54118
G1 X60.607 Y120.607 A425.02297
G1 X89.393 Y120.607 A427.50476
G1 X89.393 Y149.393 A429.98654
G0 F7200 X97.18 Y157.18
G0 X97.25 Y157.25
;TYPE:WALL-OUTER
G1 F1050 X52.75 Y157.25 A433.82311
G1 X52.75 Y112.75 A437.65968
G1 X97.25 Y112.75 A441.49625
G1 X97.25 Y157.25 A445.33282
G0 F7200 X94.5 Y157.25
G0 X91.75 Y151.75
G0 X81.536 Y141.536
;TIME_ELAPSED:280.139271
;LAYER:14
G0 X81.536 Y141.536 Z7.3
;TYPE:FILL
G1 F2100 X68.464 Y141.536 A446.45983
G1 X68.464 Y128.464 A447.58683
G1 X81.536 Y128.464 A448.71383
G1 X81.536 Y141.536 A449.84084
G0 F7200 X89.393 Y149.393
G1 F2100 X60.607 Y149.393 A452.32262
G1 X60.607 Y120.607 A454.80441
G1 X89.393 Y120.607 A457.2862
G1 X89.393 Y149.393 A459.76798
G0 F7200 X97.18 Y157.18
G0 X97.25 Y157.25
;TYPE:WALL-OUTER
G1 F1050 X52.75 Y157.25 A463.60455
G1 X52.75 Y112.75 A467.44112
G1 X97.25 Y112.75 A471.27769
G1 X97.25 Y157.25 A475.11426
G0 F7200 X94.5 Y157.25
G0 X91.75 Y151.75
G0 X81.536 Y141.536
;TIME_ELAPSED:295.731479
;LAYER:15
G0 X81.536 Y141.536 Z7.8
;TYPE:FILL
G1 F2100 X68.464 Y141.536 A476.24126
G1 X68.464 Y128.464 A477.36827
G1 X81.536 Y128.464 A478.49527
G1 X81.536 Y141.536 A479.62227
G0 F7200 X89.393 Y149.393
G1 F2100 X60.607 Y149.393 A482.10406
G1 X60.607 Y120.607 A484.58585
G1 X89.393 Y120.607 A487.06763
G1 X89.393 Y149.393 A489.54942
G0 F7200 X97.18 Y157.18
G0 X97.25 Y157.25
;TYPE:WALL-OUTER
G1 F1050 X52.75 Y157.25 A493.38599
G1 X52.75 Y112.75 A497.22256
G1 X97.25 Y112.75 A501.05913
G1 X97.25 Y157.25 A504.8957
G0 F7200 X94.5 Y157.25
G0 X91.75 Y151.75
G0 X81.536 Y141.536
;TIME_ELAPSED:311.323687
;LAYER:16
G0 X81.536 Y141.536 Z8.3
;TYPE:FILL
G1 F2100 X68.464 Y141.536 A506.0227
G1 X68.464 Y128.464 A507.1497
G1 X81.536 Y128.464 A508.27671
G1 X81.536 Y141.536 A509.40371
G0 F7200 X89.393 Y149.393
G1 F2100 X60.607 Y149.393 A511.8855
G1 X60.607 Y120.607 A514.36728
G1 X89.393 Y120.607 A516.84907
G1 X89.393 Y149.393 A519.33086
G0 F7200 X97.18 Y157.18
G0 X97.25 Y157.25
;TYPE:WALL-OUTER
G1 F1050 X52.75 Y157.25 A523.16743
G1 X52.75 Y112.75 A527.004
G1 X97.25 Y112.75 A530.84057
G1 X97.25 Y157.25 A534.67714
G0 F7200 X94.5 Y157.25
G0 X91.75 Y151.75
G0 X81.536 Y141.536
;TIME_ELAPSED:326.915895
;LAYER:17
G0 X81.536 Y141.536 Z8.8
;TYPE:FILL
G1 F2100 X68.464 Y141.536 A535.80414
G1 X68.464 Y128.464 A536.93114
G1 X81.536 Y128.464 A538.05814
G1 X81.536 Y141.536 A539.18515
G0 F7200 X89.393 Y149.393
G1 F2100 X60.607 Y149.393 A541.66693
G1 X60.607 Y120.607 A544.14872
G1 X89.393 Y120.607 A546.63051
G1 X89.393 Y149.393 A549.11229
G0 F7200 X97.18 Y157.18
G0 X97.25 Y157.25
;TYPE:WALL-OUTER
G1 F1050 X52.75 Y157.25 A552.94886
G1 X52.75 Y112.75 A556.78543
G1 X97.25 Y112.75 A560.622
G1 X97.25 Y157.25 A564.45857
G0 F7200 X94.5 Y157.25
G0 X91.75 Y151.75
G0 X81.536 Y141.536
;TIME_ELAPSED:342.508103
;LAYER:18
G0 X81.536 Y141.536 Z9.3
;TYPE:FILL
G1 F2100 X68.464 Y141.536 A565.58558
G1 X68.464 Y128.464 A566.71258
G1 X81.536 Y128.464 A567.83958
G1 X81.536 Y141.536 A568.96659
G0 F7200 X89.393 Y149.393
G1 F2100 X60.607 Y149.393 A571.44837
G1 X60.607 Y120.607 A573.93016
G1 X89.393 Y120.607 A576.41194
G1 X89.393 Y149.393 A578.89373
G0 F7200 X97.18 Y157.18
G0 X97.25 Y157.25
;TYPE:WALL-OUTER
G1 F1050 X52.75 Y157.25 A582.7303
G1 X52.75 Y112.75 A586.56687
G1 X97.25 Y112.75 A590.40344
G1 X97.25 Y157.25 A594.24001
G0 F7200 X94.5 Y157.25
G0 X91.75 Y151.75
G0 X81.536 Y141.536
;TIME_ELAPSED:358.100311
;LAYER:19
G0 X81.536 Y141.536 Z9.8
;TYPE:FILL
G1 F2100 X68.464 Y141.536 A595.36701
G1 X68.464 Y128.464 A596.49402
G1 X81.536 Y128.464 A597.62102
G1 X81.536 Y141.536 A598.74802
G0 F7200 X89.393 Y149.393
G1 F2100 X60.607 Y149.393 A601.22981
G1 X60.607 Y120.607 A603.7116
G1 X89.393 Y120.607 A606.19338
G1 X89.393 Y149.393 A608.67517
G0 F7200 X97.18 Y157.18
G0 X97.25 Y157.25
;TYPE:WALL-OUTER
G1 F1050 X52.75 Y157.25 A612.51174
G1 X52.75 Y112.75 A616.34831
G1 X97.25 Y112.75 A620.18488
G1 X97.25 Y157.25 A624.02145
G0 F7200 X94.5 Y157.25
G0 X91.75 Y151.75
G0 X81.536 Y141.536
;TIME_ELAPSED:373.692518
;LAYER:20
G0 X81.536 Y141.536 Z10.3
;TYPE:FILL
G1 F2100 X68.464 Y141.536 A625.14845
G1 X68.464 Y128.464 A626.27545
G1 X81.536 Y128.464 A627.40246
G1 X81.536 Y141.536 A628.52946
G0 F7200 X89.393 Y149.393
G1 F2100 X60.607 Y149.393 A631.01125
G1 X60.607 Y120.607 A633.49303
G1 X89.393 Y120.607 A635.97482
G1 X89.393 Y149.393 A638.45661
G0 F7200 X97.18 Y157.18
G0 X97.25 Y157.25
;TYPE:WALL-OUTER
G1 F1050 X52.75 Y157.25 A642.29318
G1 X52.75 Y112.75 A646.12975
G1 X97.25 Y112.75 A649.96632
G1 X97.25 Y157.25 A653.80289
G0 F7200 X94.5 Y157.25
G0 X91.75 Y151.75
G0 X81.536 Y141.536
;TIME_ELAPSED:389.284726
;LAYER:21
G0 X81.536 Y141.536 Z10.8
;TYPE:FILL
G1 F2100 X68.464 Y141.536 A654.92989
G1 X68.464 Y128.464 A656.05689
G1 X81.536 Y128.464 A657.18389
G1 X81.536 Y141.536 A658.3109
G0 F7200 X89.393 Y149.393
G1 F2100 X60.607 Y149.393 A660.79268
G1 X60.607 Y120.607 A663.27447
G1 X89.393 Y120.607 A665.75626
G1 X89.393 Y149.393 A668.23804
G0 F7200 X97.18 Y157.18
G0 X97.25 Y157.25
;TYPE:WALL-OUTER
G1 F1050 X52.75 Y157.25 A672.07461
G1 X52.75 Y112.75 A675.91118
G1 X97.25 Y112.75 A679.74775
G1 X97.25 Y157.25 A683.58432
G0 F7200 X94.5 Y157.25
G0 X91.75 Y151.75
G0 X81.536 Y141.536
;TIME_ELAPSED:404.876934
;LAYER:22
G0 X81.536 Y141.536 Z11.3
;TYPE:FILL
G1 F2100 X68.464 Y141.536 A684.71133
G1 X68.464 Y128.464 A685.83833
G1 X81.536 Y128.464 A686.96533
G1 X81.536 Y141.536 A688.09234
G0 F7200 X89.393 Y149.393
G1 F2100 X60.607 Y149.393 A690.57412
G1 X60.607 Y120.607 A693.05591
G1 X89.393 Y120.607 A695.53769
G1 X89.393 Y149.393 A698.01948
G0 F7200 X97.18 Y157.18
G0 X97.25 Y157.25
;TYPE:WALL-OUTER
G1 F1050 X52.75 Y157.25 A701.85605
G1 X52.75 Y112.75 A705.69262
G1 X97.25 Y112.75 A709.52919
G1 X97.25 Y157.25 A713.36576
G0 F7200 X94.5 Y157.25
G0 X91.75 Y151.75
G0 X81.536 Y141.536
;TIME_ELAPSED:420.469142
;LAYER:23
G0 X81.536 Y141.536 Z11.8
;TYPE:FILL
G1 F2100 X68.464 Y141.536 A714.49276
G1 X68.464 Y128.464 A715.61977
G1 X81.536 Y128.464 A716.74677
G1 X81.536 Y141.536 A717.87377
G0 F7200 X89.393 Y149.393
G1 F2100 X60.607 Y149.393 A720.35556
G1 X60.607 Y120.607 A722.83735
G1 X89.393 Y120.607 A725.31913
G1 X89.393 Y149.393 A727.80092
G0 F7200 X97.18 Y157.18
G0 X97.25 Y157.25
;TYPE:WALL-OUTER
G1 F1050 X52.75 Y157.25 A731.63749
G1 X52.75 Y112.75 A735.47406
G1 X97.25 Y112.75 A739.31063
G1 X97.25 Y157.25 A743.1472
G0 F7200 X94.5 Y157.25
G0 X91.75 Y151.75
G0 X81.536 Y141.536
;TIME_ELAPSED:436.061350
;LAYER:24
G0 X81.536 Y141.536 Z12.3
;TYPE:FILL
G1 F2100 X68.464 Y141.536 A744.2742
G1 X68.464 Y128.464 A745.4012
G1 X81.536 Y128.464 A746.52821
G1 X81.536 Y141.536 A747.65521
G0 F7200 X89.393 Y149.393
G1 F2100 X60.607 Y149.393 A750.137
G1 X60.607 Y120.607 A752.61878
G1 X89.393 Y120.607 A755.10057
G1 X89.393 Y149.393 A757.58236
G0 F7200 X97.18 Y157.18
G0 X97.25 Y157.25
;TYPE:WALL-OUTER
G1 F1050 X52.75 Y157.25 A761.41893
G1 X52.75 Y112.75 A765.2555
G1 X97.25 Y112.75 A769.09206
G1 X97.25 Y157.25 A772.92863
G0 F7200 X94.5 Y157.25
G0 X91.75 Y151.75
G0 X81.536 Y141.536
;TIME_ELAPSED:451.653558
;LAYER:25
G0 X81.536 Y141.536 Z12.8
;TYPE:FILL
G1 F2100 X68.464 Y141.536 A774.05564
G1 X68.464 Y128.464 A775.18264
G1 X81.536 Y128.464 A776.30964
G1 X81.536 Y141.536 A777.43665
G0 F7200 X89.393 Y149.393
G1 F2100 X60.607 Y149.393 A779.91843
G1 X60.607 Y120.607 A782.40022
G1 X89.393 Y120.607 A784.88201
G1 X89.393 Y149.393 A787.36379
G0 F7200 X97.18 Y157.18
G0 X97.25 Y157.25
;TYPE:WALL-OUTER
G1 F1050 X52.75 Y157.25 A791.20036
G1 X52.75 Y112.75 A795.03693
G1 X97.25 Y112.75 A798.8735
G1 X97.25 Y157.25 A802.71007
G0 F7200 X94.5 Y157.25
G0 X91.75 Y151.75
G0 X81.536 Y141.536
;TIME_ELAPSED:467.245766
;LAYER:26
G0 X81.536 Y141.536 Z13.3
;TYPE:FILL
G1 F2100 X68.464 Y141.536 A803.83708
G1 X68.464 Y128.464 A804.96408
G1 X81.536 Y128.464 A806.09108
G1 X81.536 Y141.536 A807.21808
G0 F7200 X89.393 Y149.393
G1 F2100 X60.607 Y149.393 A809.69987
G1 X60.607 Y120.607 A812.18166
G1 X89.393 Y120.607 A814.66344
G1 X89.393 Y149.393 A817.14523
G0 F7200 X97.18 Y157.18
G0 X97.25 Y157.25
;TYPE:WALL-OUTER
G1 F1050 X52.75 Y157.25 A820.9818
G1 X52.75 Y112.75 A824.81837
G1 X97.25 Y112.75 A828.65494
G1 X97.25 Y157.25 A832.49151
G0 F7200 X94.5 Y157.25
G0 X91.75 Y151.75
G0 X81.536 Y141.536
;TIME_ELAPSED:482.837974
;LAYER:27
G0 X81.536 Y141.536 Z13.8
;TYPE:FILL
G1 F2100 X68.464 Y141.536 A833.61851
G1 X68.464 Y128.464 A834.74552
G1 X81.536 Y128.464 A835.87252
G1 X81.536 Y141.536 A836.99952
G0 F7200 X89.393 Y149.393
G1 F2100 X60.607 Y149.393 A839.48131
G1 X60.607 Y120.607 A841.96309
G1 X89.393 Y120.607 A844.44488
G1 X89.393 Y149.393 A846.92667
G0 F7200 X97.18 Y157.18
G0 X97.25 Y157.25
;TYPE:WALL-OUTER
G1 F1050 X52.75 Y157.25 A850.76324
G1 X52.75 Y112.75 A854.59981
G1 X97.25 Y112.75 A858.43638
G1 X97.25 Y157.25 A862.27295
G0 F7200 X94.5 Y157.25
G0 X91.75 Y151.75
G0 X81.536 Y141.536
;TIME_ELAPSED:498.430181
;LAYER:28
G0 X81.536 Y141.536 Z14.3
;TYPE:FILL
G1 F2100 X68.464 Y141.536 A863.39995
G1 X68.464 Y128.464 A864.52695
G1 X81.536 Y128.464 A865.65396
G1 X81.536 Y141.536 A866.78096
G0 F7200 X89.393 Y149.393
G1 F2100 X60.607 Y149.393 A869.26275
G1 X60.607 Y120.607 A871.74453
G1 X89.393 Y120.607 A874.22632
G1 X89.393 Y149.393 A876.70811
G0 F7200 X97.18 Y157.18
G0 X97.25 Y157.25
;TYPE:WALL-OUTER
G1 F1050 X52.75 Y157.25 A880.54468
G1 X52.75 Y112.75 A884.38124
G1 X97.25 Y112.75 A888.21781
G1 X97.25 Y157.25 A892.05438
G0 F7200 X94.5 Y157.25
G0 X91.75 Y151.75
G0 X81.536 Y141.536
;TIME_ELAPSED:514.022389
;LAYER:29
G0 X81.536 Y141.536 Z14.8
;TYPE:FILL
G1 F2100 X68.464 Y141.536 A893.18139
G1 X68.464 Y128.464 A894.30839
G1 X81.536 Y128.464 A895.43539
G1 X81.536 Y141.536 A896.5624
G0 F7200 X89.393 Y149.393
G1 F2100 X60.607 Y149.393 A899.04418
G1 X60.607 Y120.607 A901.52597
G1 X89.393 Y120.607 A904.00776
G1 X89.393 Y149.393 A906.48954
G0 F7200 X97.18 Y157.18
G0 X97.25 Y157.25
;TYPE:WALL-OUTER
G1 F1050 X52.75 Y157.25 A910.32611
G1 X52.75 Y112.75 A914.16268
G1 X97.25 Y112.75 A917.99925
G1 X97.25 Y157.25 A921.83582
G0 F7200 X94.5 Y157.25
G0 X91.75 Y151.75
G0 X81.536 Y141.536
;TIME_ELAPSED:529.614597
;LAYER:30
G0 X81.536 Y141.536 Z15.3
;TYPE:FILL
G1 F2100 X68.464 Y141.536 A922.96282
G1 X68.464 Y128.464 A924.08983
G1 X81.536 Y128.464 A925.21683
G1 X81.536 Y141.536 A926.34383
G0 F7200 X89.393 Y149.393
G1 F2100 X60.607 Y149.393 A928.82562
G1 X60.607 Y120.607 A931.30741
G1 X89.393 Y120.607 A933.78919
G1 X89.393 Y149.393 A936.27098
G0 F7200 X97.18 Y157.18
G0 X97.25 Y157.25
;TYPE:WALL-OUTER
G1 F1050 X52.75 Y157.25 A940.10755
G1 X52.75 Y112.75 A943.94412
G1 X97.25 Y112.75 A947.78069
G1 X97.25 Y157.25 A951.61726
G0 F7200 X94.5 Y157.25
G0 X91.75 Y151.75
G0 X81.536 Y141.536
;TIME_ELAPSED:545.206805
;LAYER:31
G0 X81.536 Y141.536 Z15.8
;TYPE:FILL
G1 F2100 X68.464 Y141.536 A952.74426
G1 X68.464 Y128.464 A953.87127
G1 X81.536 Y128.464 A954.99827
G1 X81.536 Y141.536 A956.12527
G0 F7200 X89.393 Y149.393
G1 F2100 X60.607 Y149.393 A958.60706
G1 X60.607 Y120.607 A961.08884
G1 X89.393 Y120.607 A963.57063
G1 X89.393 Y149.393 A966.05242
G0 F7200 X97.18 Y157.18
G0 X97.25 Y157.25
;TYPE:WALL-OUTER
G1 F1050 X52.75 Y157.25 A969.88899
G1 X52.75 Y112.75 A973.72556
G1 X97.25 Y112.75 A977.56213
G1 X97.25 Y157.25 A981.3987
G0 F7200 X94.5 Y157.25
G0 X91.75 Y151.75
G0 X81.536 Y141.536
;TIME_ELAPSED:560.799013
;LAYER:32
G0 X81.536 Y141.536 Z16.3
;TYPE:FILL
G1 F2100 X68.464 Y141.536 A982.5257
G1 X68.464 Y128.464 A983.6527
G1 X81.536 Y128.464 A984.77971
G1 X81.536 Y141.536 A985.90671
G0 F7200 X89.393 Y149.393
G1 F2100 X60.607 Y149.393 A988.3885
G1 X60.607 Y120.607 A990.87028
G1 X89.393 Y120.607 A993.35207
G1 X89.393 Y149.393 A995.83385
G0 F7200 X97.18 Y157.18
G0 X97.25 Y157.25
;TYPE:WALL-OUTER
G1 F1050 X52.75 Y157.25 A999.67042
G1 X52.75 Y112.75 A1003.50699
G1 X97.25 Y112.75 A1007.34356
G1 X97.25 Y157.25 A1011.18013
G0 F7200 X94.5 Y157.25
G0 X91.75 Y151.75
G0 X81.536 Y141.536
;TIME_ELAPSED:576.391221
;LAYER:33
G0 X81.536 Y141.536 Z16.8
;TYPE:FILL
G1 F2100 X68.464 Y141.536 A1012.30714
G1 X68.464 Y128.464 A1013.43414
G1 X81.536 Y128.464 A1014.56114
G1 X81.536 Y141.536 A1015.68815
G0 F7200 X89.393 Y149.393
G1 F2100 X60.607 Y149.393 A1018.16993
G1 X60.607 Y120.607 A1020.65172
G1 X89.393 Y120.607 A1023.13351
G1 X89.393 Y149.393 A1025.61529
G0 F7200 X97.18 Y157.18
G0 X97.25 Y157.25
;TYPE:WALL-OUTER
G1 F1050 X52.75 Y157.25 A1029.45186
G1 X52.75 Y112.75 A1033.28843
G1 X97.25 Y112.75 A1037.125
G1 X97.25 Y157.25 A1040.96157
G0 F7200 X94.5 Y157.25
G0 X91.75 Y151.75
G0 X81.536 Y141.536
;TIME_ELAPSED:591.983429
;LAYER:34
G0 X81.536 Y141.536 Z17.3
;TYPE:FILL
G1 F2100 X68.464 Y141.536 A1042.08857
G1 X68.464 Y128.464 A1043.21558
G1 X81.536 Y128.464 A1044.34258
G1 X81.536 Y141.536 A1045.46958
G0 F7200 X89.393 Y149.393
G1 F2100 X60.607 Y149.393 A1047.95137
G1 X60.607 Y120.607 A1050.43316
G1 X89.393 Y120.607 A1052.91494
G1 X89.393 Y149.393 A1055.39673
G0 F7200 X97.18 Y157.18
G0 X97.25 Y157.25
;TYPE:WALL-OUTER
G1 F1050 X52.75 Y157.25 A1059.2333
G1 X52.75 Y112.75 A1063.06987
G1 X97.25 Y112.75 A1066.90644
G1 X97.25 Y157.25 A1070.74301
G0 F7200 X94.5 Y157.25
G0 X91.75 Y151.75
G0 X81.536 Y141.536
;TIME_ELAPSED:607.575636
;LAYER:35
G0 X81.536 Y141.536 Z17.8
;TYPE:FILL
G1 F2100 X68.464 Y141.536 A1071.87001
G1 X68.464 Y128.464 A1072.99702
G1 X81.536 Y128.464 A1074.12402
G1 X81.536 Y141.536 A1075.25102
G0 F7200 X89.393 Y149.393
G1 F2100 X60.607 Y149.393 A1077.73281
G1 X60.607 Y120.607 A1080.21459
G1 X89.393 Y120.607 A1082.69638
G1 X89.393 Y149.393 A1085.17817
G0 F7200 X97.18 Y157.18
G0 X97.25 Y157.25
;TYPE:WALL-OUTER
G1 F1050 X52.75 Y157.25 A1089.01474
G1 X52.75 Y112.75 A1092.85131
G1 X97.25 Y112.75 A1096.68788
G1 X97.25 Y157.25 A1100.52445
G0 F7200 X94.5 Y157.25
G0 X91.75 Y151.75
G0 X81.536 Y141.536
;TIME_ELAPSED:623.167844
;LAYER:36
G0 X81.536 Y141.536 Z18.3
;TYPE:FILL
G1 F2100 X68.464 Y141.536 A1101.65145
G1 X68.464 Y128.464 A1102.77845
G1 X81.536 Y128.464 A1103.90546
G1 X81.536 Y141.536 A1105.03246
G0 F7200 X89.393 Y149.393
G1 F2100 X60.607 Y149.393 A1107.51425
G1 X60.607 Y120.607 A1109.99603
G1 X89.393 Y120.607 A1112.47782
G1 X89.393 Y149.393 A1114.9596
G0 F7200 X97.18 Y157.18
G0 X97.25 Y157.25
;TYPE:WALL-OUTER
G1 F1050 X52.75 Y157.25 A1118.79617
G1 X52.75 Y112.75 A1122.63274
G1 X97.25 Y112.75 A1126.46931
G1 X97.25 Y157.25 A1130.30588
G0 F7200 X94.5 Y157.25
G0 X91.75 Y151.75
G0 X81.536 Y141.536
;TIME_ELAPSED:638.760052
;LAYER:37
G0 X81.536 Y141.536 Z18.8
;TYPE:FILL
G1 F2100 X68.464 Y141.536 A1131.43289
G1 X68.464 Y128.464 A1132.55989
G1 X81.536 Y128.464 A1133.68689
G1 X81.536 Y141.536 A1134.8139
G0 F7200 X89.393 Y149.393
G1 F2100 X60.607 Y149.393 A1137.29568
G1 X60.607 Y120.607 A1139.77747
G1 X89.393 Y120.607 A1142.25926
G1 X89.393 Y149.393 A1144.74104
G0 F7200 X97.18 Y157.18
G0 X97.25 Y157.25
;TYPE:WALL-OUTER
G1 F1050 X52.75 Y157.25 A1148.57761
G1 X52.75 Y112.75 A1152.41418
G1 X97.25 Y112.75 A1156.25075
G1 X97.25 Y157.25 A1160.08732
G0 F7200 X94.5 Y157.25
G0 X91.75 Y151.75
G0 X81.536 Y141.536
;TIME_ELAPSED:654.352260
;LAYER:38
G0 X81.536 Y141.536 Z19.3
;TYPE:FILL
G1 F2100 X68.464 Y141.536 A1161.21432
G1 X68.464 Y128.464 A1162.34133
G1 X81.536 Y128.464 A1163.46833
G1 X81.536 Y141.536 A1164.59533
G0 F7200 X89.393 Y149.393
G1 F2100 X60.607 Y149.393 A1167.07712
G1 X60.607 Y120.607 A1169.55891
G1 X89.393 Y120.607 A1172.04069
G1 X89.393 Y149.393 A1174.52248
G0 F7200 X97.18 Y157.18
G0 X97.25 Y157.25
;TYPE:WALL-OUTER
G1 F1050 X52.75 Y157.25 A1178.35905
G1 X52.75 Y112.75 A1182.19562
G1 X97.25 Y112.75 A1186.03219
G1 X97.25 Y157.25 A1189.86876
G0 F7200 X94.5 Y157.25
G0 X91.75 Y151.75
G0 X81.536 Y141.536
;TIME_ELAPSED:669.944468
;LAYER:39
G0 X81.536 Y141.536 Z19.8
;TYPE:FILL
G1 F2100 X68.464 Y141.536 A1190.99576
G1 X68.464 Y128.464 A1192.12276
G1 X81.536 Y128.464 A1193.24977
G1 X81.536 Y141.536 A1194.37677
G0 F7200 X89.393 Y149.393
G1 F2100 X60.607 Y149.393 A1196.85856
G1 X60.607 Y120.607 A1199.34034
G1 X89.393 Y120.607 A1201.82213
G1 X89.393 Y149.393 A1204.30392
G0 F7200 X97.18 Y157.18
G0 X97.25 Y157.25
;TYPE:WALL-OUTER
G1 F1050 X52.75 Y157.25 A1208.14049
G1 X52.75 Y112.75 A1211.97706
G1 X97.25 Y112.75 A1215.81363
G1 X97.25 Y157.25 A1219.6502
G0 F7200 X94.5 Y157.25
G0 X91.75 Y151.75
G0 X81.536 Y141.536
;TIME_ELAPSED:685.536676
;LAYER:40
G0 X81.536 Y141.536 Z20.3
;TYPE:FILL
G1 F2100 X68.464 Y141.536 A1220.7772
G1 X68.464 Y128.464 A1221.9042
G1 X81.536 Y128.464 A1223.03121
G1 X81.536 Y141.536 A1224.15821
G0 F7200 X89.393 Y149.393
G1 F2100 X60.607 Y149.393 A1226.63999
G1 X60.607 Y120.607 A1229.12178
G1 X89.393 Y120.607 A1231.60357
G1 X89.393 Y149.393 A1234.08535
G0 F7200 X97.18 Y157.18
G0 X97.25 Y157.25
;TYPE:WALL-OUTER
G1 F1050 X52.75 Y157.25 A1237.92192
G1 X52.75 Y112.75 A1241.75849
G1 X97.25 Y112.75 A1245.59506
G1 X97.25 Y157.25 A1249.43163
G0 F7200 X94.5 Y157.25
G0 X91.75 Y151.75
G0 X81.536 Y141.536
;TIME_ELAPSED:701.128884
;LAYER:41
G0 X81.536 Y141.536 Z20.8
;TYPE:FILL
G1 F2100 X68.464 Y141.536 A1250.55864
G1 X68.464 Y128.464 A1251.68564
G1 X81.536 Y128.464 A1252.81264
G1 X81.536 Y141.536 A1253.93965
G0 F7200 X89.393 Y149.393
G1 F2100 X60.607 Y149.393 A1256.42143
G1 X60.607 Y120.607 A1258.90322
G1 X89.393 Y120.607 A1261.38501
G1 X89.393 Y149.393 A1263.86679
G0 F7200 X97.18 Y157.18
G0 X97.25 Y157.25
;TYPE:WALL-OUTER
G1 F1050 X52.75 Y157.25 A1267.70336
G1 X52.75 Y112.75 A1271.53993
G1 X97.25 Y112.75 A1275.3765
G1 X97.25 Y157.25 A1279.21307
G0 F7200 X94.5 Y157.25
G0 X91.75 Y151.75
G0 X81.536 Y141.536
;TIME_ELAPSED:716.721092
;LAYER:42
G0 X81.536 Y141.536 Z21.3
;TYPE:FILL
G1 F2100 X68.464 Y141.536 A1280.34007
G1 X68.464 Y128.464 A1281.46708
G1 X81.536 Y128.464 A1282.59408
G1 X81.536 Y141.536 A1283.72108
G0 F7200 X89.393 Y149.393
G1 F2100 X60.607 Y149.393 A1286.20287
G1 X60.607 Y120.607 A1288.68466
G1 X89.393 Y120.607 A1291.16644
G1 X89.393 Y149.393 A1293.64823
G0 F7200 X97.18 Y157.18
G0 X97.25 Y157.25
;TYPE:WALL-OUTER
G1 F1050 X52.75 Y157.25 A1297.4848
G1 X52.75 Y112.75 A1301.32137
G1 X97.25 Y112.75 A1305.15794
G1 X97.25 Y157.25 A1308.99451
G0 F7200 X94.5 Y157.25
G0 X91.75 Y151.75
G0 X81.536 Y141.536
;TIME_ELAPSED:732.313299
;LAYER:43
G0 X81.536 Y141.536 Z21.8
;TYPE:FILL
G1 F2100 X68.464 Y141.536 A1310.12151
G1 X68.464 Y128.464 A1311.24851
G1 X81.536 Y128.464 A1312.37552
G1 X81.536 Y141.536 A1313.50252
G0 F7200 X89.393 Y149.393
G1 F2100 X60.607 Y149.393 A1315.98431
G1 X60.607 Y120.607 A1318.46609
G1 X89.393 Y120.607 A1320.94788
G1 X89.393 Y149.393 A1323.42967
G0 F7200 X97.18 Y157.18
G0 X97.25 Y157.25
;TYPE:WALL-OUTER
G1 F1050 X52.75 Y157.25 A1327.26624
G1 X52.75 Y112.75 A1331.10281
G1 X97.25 Y112.75 A1334.93938
G1 X97.25 Y157.25 A1338.77595
G0 F7200 X94.5 Y157.25
G0 X91.75 Y151.75
G0 X81.536 Y141.536
;TIME_ELAPSED:747.905507
;LAYER:44
G0 X81.536 Y141.536 Z22.3
;TYPE:FILL
G1 F2100 X68.464 Y141.536 A1339.90295
G1 X68.464 Y128.464 A1341.02995
G1 X81.536 Y128.464 A1342.15695
G1 X81.536 Y141.536 A1343.28396
G0 F7200 X89.393 Y149.393
G1 F2100 X60.607 Y149.393 A1345.76574
G1 X60.607 Y120.607 A1348.24753
G1 X89.393 Y120.607 A1350.72932
G1 X89.393 Y149.393 A1353.2111
G0 F7200 X97.18 Y157.18
G0 X97.25 Y157.25
;TYPE:WALL-OUTER
G1 F1050 X52.75 Y157.25 A1357.04767
G1 X52.75 Y112.75 A1360.88424
G1 X97.25 Y112.75 A1364.72081
G1 X97.25 Y157.25 A1368.55738
G0 F7200 X94.5 Y157.25
G0 X91.75 Y151.75
G0 X81.536 Y141.536
;TIME_ELAPSED:763.497715
;LAYER:45
G0 X81.536 Y141.536 Z22.8
;TYPE:FILL
G1 F2100 X68.464 Y141.536 A1369.68439
G1 X68.464 Y128.464 A1370.81139
G1 X81.536 Y128.464 A1371.93839
G1 X81.536 Y141.536 A1373.0654
G0 F7200 X89.393 Y149.393
G1 F2100 X60.607 Y149.393 A1375.54718
G1 X60.607 Y120.607 A1378.02897
G1 X89.393 Y120.607 A1380.51075
G1 X89.393 Y149.393 A1382.99254
G0 F7200 X97.18 Y157.18
G0 X97.25 Y157.25
;TYPE:WALL-OUTER
G1 F1050 X52.75 Y157.25 A1386.82911
G1 X52.75 Y112.75 A1390.66568
G1 X97.25 Y112.75 A1394.50225
G1 X97.25 Y157.25 A1398.33882
G0 F7200 X94.5 Y157.25
G0 X91.75 Y151.75
G0 X81.536 Y141.536
;TIME_ELAPSED:779.089923
;LAYER:46
G0 X81.536 Y141.536 Z23.3
;TYPE:FILL
G1 F2100 X68.464 Y141.536 A1399.46582
G1 X68.464 Y128.464 A1400.59283
G1 X81.536 Y128.464 A1401.71983
G1 X81.536 Y141.536 A1402.84683
G0 F7200 X89.393 Y149.393
G1 F2100 X60.607 Y149.393 A1405.32862
G1 X60.607 Y120.607 A1407.81041
G1 X89.393 Y120.607 A1410.29219
G1 X89.393 Y149.393 A1412.77398
G0 F7200 X97.18 Y157.18
G0 X97.25 Y157.25
;TYPE:WALL-OUTER
G1 F1050 X52.75 Y157.25 A1416.61055
G1 X52.75 Y112.75 A1420.44712
G1 X97.25 Y112.75 A1424.28369
G1 X97.25 Y157.25 A1428.12026
G0 F7200 X94.5 Y157.25
G0 X91.75 Y151.75
G0 X81.536 Y141.536
;TIME_ELAPSED:794.682131
;LAYER:47
G0 X81.536 Y141.536 Z23.8
;TYPE:FILL
G1 F2100 X68.464 Y141.536 A1429.24726
G1 X68.464 Y128.464 A1430.37426
G1 X81.536 Y128.464 A1431.50127
G1 X81.536 Y141.536 A1432.62827
G0 F7200 X89.393 Y149.393
G1 F2100 X60.607 Y149.393 A1435.11006
G1 X60.607 Y120.607 A1437.59184
G1 X89.393 Y120.607 A1440.07363
G1 X89.393 Y149.393 A1442.55542
G0 F7200 X97.18 Y157.18
G0 X97.25 Y157.25
;TYPE:WALL-OUTER
G1 F1050 X52.75 Y157.25 A1446.39199
G1 X52.75 Y112.75 A1450.22856
G1 X97.25 Y112.75 A1454.06513
G1 X97.25 Y157.25 A1457.90169
G0 F7200 X94.5 Y157.25
G0 X91.75 Y151.75
G0 X81.536 Y141.536
;TIME_ELAPSED:810.274339
;LAYER:48
G0 X81.536 Y141.536 Z24.3
;TYPE:FILL
G1 F2100 X68.464 Y141.536 A1459.0287
G1 X68.464 Y128.464 A1460.1557
G1 X81.536 Y128.464 A1461.2827
G1 X81.536 Y141.536 A1462.40971
G0 F7200 X89.393 Y149.393
G1 F2100 X60.607 Y149.393 A1464.89149
G1 X60.607 Y120.607 A1467.37328
G1 X89.393 Y120.607 A1469.85507
G1 X89.393 Y149.393 A1472.33685
G0 F7200 X97.18 Y157.18
G0 X97.25 Y157.25
;TYPE:WALL-OUTER
G1 F1050 X52.75 Y157.25 A1476.17342
G1 X52.75 Y112.75 A1480.00999
G1 X97.25 Y112.75 A1483.84656
G1 X97.25 Y157.25 A1487.68313
G0 F7200 X94.5 Y157.25
G0 X91.75 Y151.75
G0 X81.536 Y141.536
;TIME_ELAPSED:825.866547
;LAYER:49
G0 X81.536 Y141.536 Z24.8
;TYPE:FILL
G1 F2100 X68.464 Y141.536 A1488.81014
G1 X68.464 Y128.464 A1489.93714
G1 X81.536 Y128.464 A1491.06414
G1 X81.536 Y141.536 A1492.19114
G0 F7200 X89.393 Y149.393
G1 F2100 X60.607 Y149.393 A1494.67293
G1 X60.607 Y120.607 A1497.15472
G1 X89.393 Y120.607 A1499.6365
G1 X89.393 Y149.393 A1502.11829
G0 F7200 X97.18 Y157.18
G0 X97.25 Y157.25
;TYPE:WALL-OUTER
G1 F1050 X52.75 Y157.25 A1505.95486
G1 X52.75 Y112.75 A1509.79143
G1 X97.25 Y112.75 A1513.628
G1 X97.25 Y157.25 A1517.46457
G0 F7200 X94.5 Y157.25
G0 X91.75 Y151.75
G0 X81.536 Y141.536
;TIME_ELAPSED:841.458755
;LAYER:50
G0 X81.536 Y141.536 Z25.3
;TYPE:FILL
G1 F2100 X68.464 Y141.536 A1518.59157
G1 X68.464 Y128.464 A1519.71858
G1 X81.536 Y128.464 A1520.84558
G1 X81.536 Y141.536 A1521.97258
G0 F7200 X89.393 Y149.393
G1 F2100 X60.607 Y149.393 A1524.45437
G1 X60.607 Y120.607 A1526.93616
G1 X89.393 Y120.607 A1529.41794
G1 X89.393 Y149.393 A1531.89973
G0 F7200 X97.18 Y157.18
G0 X97.25 Y157.25
;TYPE:WALL-OUTER
G1 F1050 X52.75 Y157.25 A1535.7363
G1 X52.75 Y112.75 A1539.57287
G1 X97.25 Y112.75 A1543.40944
G1 X97.25 Y157.25 A1547.24601
G0 F7200 X94.5 Y157.25
G0 X91.75 Y151.75
G0 X81.536 Y141.536
;TIME_ELAPSED:857.050962
;LAYER:51
G0 X81.536 Y141.536 Z25.8
;TYPE:FILL
G1 F2100 X68.464 Y141.536 A1548.37301
G1 X68.464 Y128.464 A1549.50001
G1 X81.536 Y128.464 A1550.62702
G1 X81.536 Y141.536 A1551.75402
G0 F7200 X89.393 Y149.393
G1 F2100 X60.607 Y149.393 A1554.23581
G1 X60.607 Y120.607 A1556.71759
G1 X89.393 Y120.607 A1559.19938
G1 X89.393 Y149.393 A1561.68117
G0 F7200 X97.18 Y157.18
G0 X97.25 Y157.25
;TYPE:WALL-OUTER
G1 F1050 X52.75 Y157.25 A1565.51774
G1 X52.75 Y112.75 A1569.35431
G1 X97.25 Y112.75 A1573.19087
G1 X97.25 Y157.25 A1577.02744
G0 F7200 X94.5 Y157.25
G0 X91.75 Y151.75
G0 X81.536 Y141.536
;TIME_ELAPSED:872.643170
;LAYER:52
G0 X81.536 Y141.536 Z26.3
;TYPE:FILL
G1 F2100 X68.464 Y141.536 A1578.15445
G1 X68.464 Y128.464 A1579.28145
G1 X81.536 Y128.464 A1580.40845
G1 X81.536 Y141.536 A1581.53546
G0 F7200 X89.393 Y149.393
G1 F2100 X60.607 Y149.393 A1584.01724
G1 X60.607 Y120.607 A1586.49903
G1 X89.393 Y120.607 A1588.98082
G1 X89.393 Y149.393 A1591.4626
G0 F7200 X97.18 Y157.18
G0 X97.25 Y157.25
;TYPE:WALL-OUTER
G1 F1050 X52.75 Y157.25 A1595.29917
G1 X52.75 Y112.75 A1599.13574
G1 X97.25 Y112.75 A1602.97231
G1 X97.25 Y157.25 A1606.80888
G0 F7200 X94.5 Y157.25
G0 X91.75 Y151.75
G0 X81.536 Y141.536
;TIME_ELAPSED:888.235378
;LAYER:53
G0 X81.536 Y141.536 Z26.8
;TYPE:FILL
G1 F2100 X68.464 Y141.536 A1607.93589
G1 X68.464 Y128.464 A1609.06289
G1 X81.536 Y128.464 A1610.18989
G1 X81.536 Y141.536 A1611.31689
G0 F7200 X89.393 Y149.393
G1 F2100 X60.607 Y149.393 A1613.79868
G1 X60.607 Y120.607 A1616.28047
G1 X89.393 Y120.607 A1618.76225
G1 X89.393 Y149.393 A1621.24404
G0 F7200 X97.18 Y157.18
G0 X97.25 Y157.25
;TYPE:WALL-OUTER
G1 F1050 X52.75 Y157.25 A1625.08061
G1 X52.75 Y112.75 A1628.91718
G1 X97.25 Y112.75 A1632.75375
G1 X97.25 Y157.25 A1636.59032
G0 F7200 X94.5 Y157.25
G0 X91.75 Y151.75
G0 X81.536 Y141.536
;TIME_ELAPSED:903.827586
;LAYER:54
G0 X81.536 Y141.536 Z27.3
;TYPE:FILL
G1 F2100 X68.464 Y141.536 A1637.71732
G1 X68.464 Y128.464 A1638.84433
G1 X81.536 Y128.464 A1639.97133
G1 X81.536 Y141.536 A1641.09833
G0 F7200 X89.393 Y149.393
G1 F2100 X60.607 Y149.393 A1643.58012
G1 X60.607 Y120.607 A1646.0619
G1 X89.393 Y120.607 A1648.54369
G1 X89.393 Y149.393 A1651.02548
G0 F7200 X97.18 Y157.18
G0 X97.25 Y157.25
;TYPE:WALL-OUTER
G1 F1050 X52.75 Y157.25 A1654.86205
G1 X52.75 Y112.75 A1658.69862
G1 X97.25 Y112.75 A1662.53519
G1 X97.25 Y157.25 A1666.37176
G0 F7200 X94.5 Y157.25
G0 X91.75 Y151.75
G0 X81.536 Y141.536
;TIME_ELAPSED:919.419794
;LAYER:55
G0 X81.536 Y141.536 Z27.8
;TYPE:FILL
G1 F2100 X68.464 Y141.536 A1667.49876
G1 X68.464 Y128.464 A1668.62576
G1 X81.536 Y128.464 A1669.75277
G1 X81.536 Y141.536 A1670.87977
G0 F7200 X89.393 Y149.393
G1 F2100 X60.607 Y149.393 A1673.36156
G1 X60.607 Y120.607 A1675.84334
G1 X89.393 Y120.607 A1678.32513
G1 X89.393 Y149.393 A1680.80692
G0 F7200 X97.18 Y157.18
G0 X97.25 Y157.25
;TYPE:WALL-OUTER
G1 F1050 X52.75 Y157.25 A1684.64348
G1 X52.75 Y112.75 A1688.48005
G1 X97.25 Y112.75 A1692.31662
G1 X97.25 Y157.25 A1696.15319
G0 F7200 X94.5 Y157.25
G0 X91.75 Y151.75
G0 X81.536 Y141.536
;TIME_ELAPSED:935.012002
;LAYER:56
G0 X81.536 Y141.536 Z28.3
;TYPE:FILL
G1 F2100 X68.464 Y141.536 A1697.2802
G1 X68.464 Y128.464 A1698.4072
G1 X81.536 Y128.464 A1699.5342
G1 X81.536 Y141.536 A1700.66121
G0 F7200 X89.393 Y149.393
G1 F2100 X60.607 Y149.393 A1703.14299
G1 X60.607 Y120.607 A1705.62478
G1 X89.393 Y120.607 A1708.10657
G1 X89.393 Y149.393 A1710.58835
G0 F7200 X97.18 Y157.18
G0 X97.25 Y157.25
;TYPE:WALL-OUTER
G1 F1050 X52.75 Y157.25 A1714.42492
G1 X52.75 Y112.75 A1718.26149
G1 X97.25 Y112.75 A1722.09806
G1 X97.25 Y157.25 A1725.93463
G0 F7200 X94.5 Y157.25
G0 X91.75 Y151.75
G0 X81.536 Y141.536
;TIME_ELAPSED:950.604210
;LAYER:57
G0 X81.536 Y141.536 Z28.8
;TYPE:FILL
G1 F2100 X68.464 Y141.536 A1727.06163
G1 X68.464 Y128.464 A1728.18864
G1 X81.536 Y128.464 A1729.31564
G1 X81.536 Y141.536 A1730.44264
G0 F7200 X89.393 Y149.393
G1 F2100 X60.607 Y149.393 A1732.92443
G1 X60.607 Y120.607 A1735.40622
G1 X89.393 Y120.607 A1737.888
G1 X89.393 Y149.393 A1740.36979
G0 F7200 X97.18 Y157.18
G0 X97.25 Y157.25
;TYPE:WALL-OUTER
G1 F1050 X52.75 Y157.25 A1744.20636
G1 X52.75 Y112.75 A1748.04293
G1 X97.25 Y112.75 A1751.8795
G1 X97.25 Y157.25 A1755.71607
G0 F7200 X94.5 Y157.25
G0 X91.75 Y151.75
G0 X81.536 Y141.536
;TIME_ELAPSED:966.196418
;LAYER:58
G0 X81.536 Y141.536 Z29.3
;TYPE:FILL
G1 F2100 X68.464 Y141.536 A1756.84307
G1 X68.464 Y128.464 A1757.97008
G1 X81.536 Y128.464 A1759.09708
G1 X81.536 Y141.536 A1760.22408
G0 F7200 X89.393 Y149.393
G1 F2100 X60.607 Y149.393 A1762.70587
G1 X60.607 Y120.607 A1765.18765
G1 X89.393 Y120.607 A1767.66944
G1 X89.393 Y149.393 A1770.15123
G0 F7200 X97.18 Y157.18
G0 X97.25 Y157.25
;TYPE:WALL-OUTER
G1 F1050 X52.75 Y157.25 A1773.9878
G1 X52.75 Y112.75 A1777.82437
G1 X97.25 Y112.75 A1781.66094
G1 X97.25 Y157.25 A1785.49751
G0 F7200 X94.5 Y157.25
G0 X91.75 Y151.75
G0 X81.536 Y141.536
;TIME_ELAPSED:981.788625
;LAYER:59
G0 X81.536 Y141.536 Z29.8
;TYPE:FILL
G1 F2100 X68.464 Y141.536 A1786.62451
G1 X68.464 Y128.464 A1787.75151
G1 X81.536 Y128.464 A1788.87852
G1 X81.536 Y141.536 A1790.00552
G0 F7200 X89.393 Y149.393
G1 F2100 X60.607 Y149.393 A1792.48731
G1 X60.607 Y120.607 A1794.96909
G1 X89.393 Y120.607 A1797.45088
G1 X89.393 Y149.393 A1799.93266
G0 F7200 X97.18 Y157.18
G0 X97.25 Y157.25
;TYPE:WALL-OUTER
G1 F1050 X52.75 Y157.25 A1803.76923
G1 X52.75 Y112.75 A1807.6058
G1 X97.25 Y112.75 A1811.44237
G1 X97.25 Y157.25 A1815.27894
G0 F7200 X94.5 Y157.25
G0 X91.75 Y151.75
G0 X81.536 Y141.536
;TIME_ELAPSED:997.380833
;LAYER:60
G0 X81.536 Y141.536 Z30.3
;TYPE:FILL
G1 F2100 X68.464 Y141.536 A1816.40595
G1 X68.464 Y128.464 A1817.53295
G1 X81.536 Y128.464 A1818.65995
G1 X81.536 Y141.536 A1819.78696
G0 F7200 X89.393 Y149.393
G1 F2100 X60.607 Y149.393 A1822.26874
G1 X60.607 Y120.607 A1824.75053
G1 X89.393 Y120.607 A1827.23232
G1 X89.393 Y149.393 A1829.7141
G0 F7200 X97.18 Y157.18
G0 X97.25 Y157.25
;TYPE:WALL-OUTER
G1 F1050 X52.75 Y157.25 A1833.55067
G1 X52.75 Y112.75 A1837.38724
G1 X97.25 Y112.75 A1841.22381
G1 X97.25 Y157.25 A1845.06038
G0 F7200 X94.5 Y157.25
G0 X91.75 Y151.75
G0 X81.536 Y141.536
;TIME_ELAPSED:1012.973041
;LAYER:61
G0 X81.536 Y141.536 Z30.8
;TYPE:FILL
G1 F2100 X68.464 Y141.536 A1846.18738
G1 X68.464 Y128.464 A1847.31439
G1 X81.536 Y128.464 A1848.44139
G1 X81.536 Y141.536 A1849.56839
G0 F7200 X89.393 Y149.393
G1 F2100 X60.607 Y149.393 A1852.05018
G1 X60.607 Y120.607 A1854.53197
G1 X89.393 Y120.607 A1857.01375
G1 X89.393 Y149.393 A1859.49554
G0 F7200 X97.18 Y157.18
G0 X97.25 Y157.25
;TYPE:WALL-OUTER
G1 F1050 X52.75 Y157.25 A1863.33211
G1 X52.75 Y112.75 A1867.16868
G1 X97.25 Y112.75 A1871.00525
G1 X97.25 Y157.25 A1874.84182
G0 F7200 X94.5 Y157.25
G0 X91.75 Y151.75
G0 X81.536 Y141.536
;TIME_ELAPSED:1028.565249
;LAYER:62
G0 X81.536 Y141.536 Z31.3
;TYPE:FILL
G1 F2100 X68.464 Y141.536 A1875.96882
G1 X68.464 Y128.464 A1877.09582
G1 X81.536 Y128.464 A1878.22283
G1 X81.536 Y141.536 A1879.34983
G0 F7200 X89.393 Y149.393
G1 F2100 X60.607 Y149.393 A1881.83162
G1 X60.607 Y120.607 A1884.3134
G1 X89.393 Y120.607 A1886.79519
G1 X89.393 Y149.393 A1889.27698
G0 F7200 X97.18 Y157.18
G0 X97.25 Y157.25
;TYPE:WALL-OUTER
G1 F1050 X52.75 Y157.25 A1893.11355
G1 X52.75 Y112.75 A1896.95012
G1 X97.25 Y112.75 A1900.78669
G1 X97.25 Y157.25 A1904.62326
G0 F7200 X94.5 Y157.25
G0 X91.75 Y151.75
G0 X81.536 Y141.536
;TIME_ELAPSED:1044.157457
;LAYER:63
G0 X81.536 Y141.536 Z31.8
;TYPE:FILL
G1 F2100 X68.464 Y141.536 A1905.75026
G1 X68.464 Y128.464 A1906.87726
G1 X81.536 Y128.464 A1908.00427
G1 X81.536 Y141.536 A1909.13127
G0 F7200 X89.393 Y149.393
G1 F2100 X60.607 Y149.393 A1911.61306
G1 X60.607 Y120.607 A1914.09484
G1 X89.393 Y120.607 A1916.57663
G1 X89.393 Y149.393 A1919.05841
G0 F7200 X97.18 Y157.18
G0 X97.25 Y157.25
;TYPE:WALL-OUTER
G1 F1050 X52.75 Y157.25 A1922.89498
G1 X52.75 Y112.75 A1926.73155
G1 X97.25 Y112.75 A1930.56812
G1 X97.25 Y157.25 A1934.40469
G0 F7200 X94.5 Y157.25
G0 X91.75 Y151.75
G0 X81.536 Y141.536
;TIME_ELAPSED:1059.749665
;LAYER:64
G0 X81.536 Y141.536 Z32.3
;TYPE:FILL
G1 F2100 X68.464 Y141.536 A1935.5317
G1 X68.464 Y128.464 A1936.6587
G1 X81.536 Y128.464 A1937.7857
G1 X81.536 Y141.536 A1938.91271
G0 F7200 X89.393 Y149.393
G1 F2100 X60.607 Y149.393 A1941.39449
G1 X60.607 Y120.607 A1943.87628
G1 X89.393 Y120.607 A1946.35807
G1 X89.393 Y149.393 A1948.83985
G0 F7200 X97.18 Y157.18
G0 X97.25 Y157.25
;TYPE:WALL-OUTER
G1 F1050 X52.75 Y157.25 A1952.67642
G1 X52.75 Y112.75 A1956.51299
G1 X97.25 Y112.75 A1960.34956
G1 X97.25 Y157.25 A1964.18613
G0 F7200 X94.5 Y157.25
G0 X91.75 Y151.75
G0 X81.536 Y141.536
;TIME_ELAPSED:1075.341873
;LAYER:65
G0 X81.536 Y141.536 Z32.8
;TYPE:FILL
G1 F2100 X68.464 Y141.536 A1965.31313
G1 X68.464 Y128.464 A1966.44014
G1 X81.536 Y128.464 A1967.56714
G1 X81.536 Y141.536 A1968.69414
G0 F7200 X89.393 Y149.393
G1 F2100 X60.607 Y149.393 A1971.17593
G1 X60.607 Y120.607 A1973.65772
G1 X89.393 Y120.607 A1976.1395
G1 X89.393 Y149.393 A1978.62129
G0 F7200 X97.18 Y157.18
G0 X97.25 Y157.25
;TYPE:WALL-OUTER
G1 F1050 X52.75 Y157.25 A1982.45786
G1 X52.75 Y112.75 A1986.29443
G1 X97.25 Y112.75 A1990.131
G1 X97.25 Y157.25 A1993.96757
G0 F7200 X94.5 Y157.25
G0 X91.75 Y151.75
G0 X81.536 Y141.536
;TIME_ELAPSED:1090.934080
;LAYER:66
G0 X81.536 Y141.536 Z33.3
;TYPE:FILL
G1 F2100 X68.464 Y141.536 A1995.09457
G1 X68.464 Y128.464 A1996.22157
G1 X81.536 Y128.464 A1997.34858
G1 X81.536 Y141.536 A1998.47558
G0 F7200 X89.393 Y149.393
G1 F2100 X60.607 Y149.393 A2000.95737
G1 X60.607 Y120.607 A2003.43915
G1 X89.393 Y120.607 A2005.92094
G1 X89.393 Y149.393 A2008.40273
G0 F7200 X97.18 Y157.18
G0 X97.25 Y157.25
;TYPE:WALL-OUTER
G1 F1050 X52.75 Y157.25 A2012.2393
G1 X52.75 Y112.75 A2016.07587
G1 X97.25 Y112.75 A2019.91244
G1 X97.25 Y157.25 A2023.74901
G0 F7200 X94.5 Y157.25
G0 X91.75 Y151.75
G0 X81.536 Y141.536
;TIME_ELAPSED:1106.526288
;LAYER:67
G0 X81.536 Y141.536 Z33.8
;TYPE:FILL
G1 F2100 X68.464 Y141.536 A2024.87601
G1 X68.464 Y128.464 A2026.00301
G1 X81.536 Y128.464 A2027.13002
G1 X81.536 Y141.536 A2028.25702
G0 F7200 X89.393 Y149.393
G1 F2100 X60.607 Y149.393 A2030.7388
G1 X60.607 Y120.607 A2033.22059
G1 X89.393 Y120.607 A2035.70238
G1 X89.393 Y149.393 A2038.18416
G0 F7200 X97.18 Y157.18
G0 X97.25 Y157.25
;TYPE:WALL-OUTER
G1 F1050 X52.75 Y157.25 A2042.02073
G1 X52.75 Y112.75 A2045.8573
G1 X97.25 Y112.75 A2049.69387
G1 X97.25 Y157.25 A2053.53044
G0 F7200 X94.5 Y157.25
G0 X91.75 Y151.75
G0 X81.536 Y141.536
;TIME_ELAPSED:1122.118496
;LAYER:68
G0 X81.536 Y141.536 Z34.3
;TYPE:FILL
G1 F2100 X68.464 Y141.536 A2054.65745
G1 X68.464 Y128.464 A2055.78445
G1 X81.536 Y128.464 A2056.91145
G1 X81.536 Y141.536 A2058.03846
G0 F7200 X89.393 Y149.393
G1 F2100 X60.607 Y149.393 A2060.52024
G1 X60.607 Y120.607 A2063.00203
G1 X89.393 Y120.607 A2065.48382
G1 X89.393 Y149.393 A2067.9656
G0 F7200 X97.18 Y157.18
G0 X97.25 Y157.25
;TYPE:WALL-OUTER
G1 F1050 X52.75 Y157.25 A2071.80217
G1 X52.75 Y112.75 A2075.63874
G1 X97.25 Y112.75 A2079.47531
G1 X97.25 Y157.25 A2083.31188
G0 F7200 X94.5 Y157.25
G0 X91.75 Y151.75
G0 X81.536 Y141.536
;TIME_ELAPSED:1137.710704
;LAYER:69
G0 X81.536 Y141.536 Z34.8
;TYPE:FILL
G1 F2100 X68.464 Y141.536 A2084.43888
G1 X68.464 Y128.464 A2085.56589
G1 X81.536 Y128.464 A2086.69289
G1 X81.536 Y141.536 A2087.81989
G0 F7200 X89.393 Y149.393
G1 F2100 X60.607 Y149.393 A2090.30168
G1 X60.607 Y120.607 A2092.78347
G1 X89.393 Y120.607 A2095.26525
G1 X89.393 Y149.393 A2097.74704
G0 F7200 X97.18 Y157.18
G0 X97.25 Y157.25
;TYPE:WALL-OUTER
G1 F1050 X52.75 Y157.25 A2101.58361
G1 X52.75 Y112.75 A2105.42018
G1 X97.25 Y112.75 A2109.25675
G1 X97.25 Y157.25 A2113.09332
G0 F7200 X94.5 Y157.25
G0 X91.75 Y151.75
G0 X81.536 Y141.536
;TIME_ELAPSED:1153.302912
;LAYER:70
G0 X81.536 Y141.536 Z35.3
;TYPE:FILL
G1 F2100 X68.464 Y141.536 A2114.22032
G1 X68.464 Y128.464 A2115.34732
G1 X81.536 Y128.464 A2116.47433
G1 X81.536 Y141.536 A2117.60133
G0 F7200 X89.393 Y149.393
G1 F2100 X60.607 Y149.393 A2120.08312
G1 X60.607 Y120.607 A2122.5649
G1 X89.393 Y120.607 A2125.04669
G1 X89.393 Y149.393 A2127.52848
G0 F7200 X97.18 Y157.18
G0 X97.25 Y157.25
;TYPE:WALL-OUTER
G1 F1050 X52.75 Y157.25 A2131.36505
G1 X52.75 Y112.75 A2135.20162
G1 X97.25 Y112.75 A2139.03819
G1 X97.25 Y157.25 A2142.87476
G0 F7200 X94.5 Y157.25
G0 X91.75 Y151.75
G0 X81.536 Y141.536
;TIME_ELAPSED:1168.895120
;LAYER:71
G0 X81.536 Y141.536 Z35.8
;TYPE:FILL
G1 F2100 X68.464 Y141.536 A2144.00176
G1 X68.464 Y128.464 A2145.12876
G1 X81.536 Y128.464 A2146.25576
G1 X81.536 Y141.536 A2147.38277
G0 F7200 X89.393 Y149.393
G1 F2100 X60.607 Y149.393 A2149.86455
G1 X60.607 Y120.607 A2152.34634
G1 X89.393 Y120.607 A2154.82813
G1 X89.393 Y149.393 A2157.30991
G0 F7200 X97.18 Y157.18
G0 X97.25 Y157.25
;TYPE:WALL-OUTER
G1 F1050 X52.75 Y157.25 A2161.14648
G1 X52.75 Y112.75 A2164.98305
G1 X97.25 Y112.75 A2168.81962
G1 X97.25 Y157.25 A2172.65619
G0 F7200 X94.5 Y157.25
G0 X91.75 Y151.75
G0 X81.536 Y141.536
;TIME_ELAPSED:1184.487328
;LAYER:72
G0 X81.536 Y141.536 Z36.3
;TYPE:FILL
G1 F2100 X68.464 Y141.536 A2173.7832
G1 X68.464 Y128.464 A2174.9102
G1 X81.536 Y128.464 A2176.0372
G1 X81.536 Y141.536 A2177.16421
G0 F7200 X89.393 Y149.393
G1 F2100 X60.607 Y149.393 A2179.64599
G1 X60.607 Y120.607 A2182.12778
G1 X89.393 Y120.607 A2184.60956
G1 X89.393 Y149.393 A2187.09135
G0 F7200 X97.18 Y157.18
G0 X97.25 Y157.25
;TYPE:WALL-OUTER
G1 F1050 X52.75 Y157.25 A2190.92792
G1 X52.75 Y112.75 A2194.76449
G1 X97.25 Y112.75 A2198.60106
G1 X97.25 Y157.25 A2202.43763
G0 F7200 X94.5 Y157.25
G0 X91.75 Y151.75
G0 X81.536 Y141.536
;TIME_ELAPSED:1200.079536
;LAYER:73
G0 X81.536 Y141.536 Z36.8
;TYPE:FILL
G1 F2100 X68.464 Y141.536 A2203.56463
G1 X68.464 Y128.464 A2204.69164
G1 X81.536 Y128.464 A2205.81864
G1 X81.536 Y141.536 A2206.94564
G0 F7200 X89.393 Y149.393
G1 F2100 X60.607 Y149.393 A2209.42743
G1 X60.607 Y120.607 A2211.90922
G1 X89.393 Y120.607 A2214.391
G1 X89.393 Y149.393 A2216.87279
G0 F7200 X97.18 Y157.18
G0 X97.25 Y157.25
;TYPE:WALL-OUTER
G1 F1050 X52.75 Y157.25 A2220.70936
G1 X52.75 Y112.75 A2224.54593
G1 X97.25 Y112.75 A2228.3825
G1 X97.25 Y157.25 A2232.21907
G0 F7200 X94.5 Y157.25
G0 X91.75 Y151.75
G0 X81.536 Y141.536
;TIME_ELAPSED:1215.671743
;LAYER:74
G0 X81.536 Y141.536 Z37.3
;TYPE:FILL
G1 F2100 X68.464 Y141.536 A2233.34607
G1 X68.464 Y128.464 A2234.47307
G1 X81.536 Y128.464 A2235.60008
G1 X81.536 Y141.536 A2236.72708
G0 F7200 X89.393 Y149.393
G1 F2100 X60.607 Y149.393 A2239.20887
G1 X60.607 Y120.607 A2241.69065
G1 X89.393 Y120.607 A2244.17244
G1 X89.393 Y149.393 A2246.65423
G0 F7200 X97.18 Y157.18
G0 X97.25 Y157.25
;TYPE:WALL-OUTER
G1 F1050 X52.75 Y157.25 A2250.4908
G1 X52.75 Y112.75 A2254.32737
G1 X97.25 Y112.75 A2258.16394
G1 X97.25 Y157.25 A2262.0005
G0 F7200 X94.5 Y157.25
G0 X91.75 Y151.75
G0 X81.536 Y141.536
;TIME_ELAPSED:1231.263951
;LAYER:75
G0 X81.536 Y141.536 Z37.8
;TYPE:FILL
G1 F2100 X68.464 Y141.536 A2263.12751
G1 X68.464 Y128.464 A2264.25451
G1 X81.536 Y128.464 A2265.38151
G1 X81.536 Y141.536 A2266.50852
G0 F7200 X89.393 Y149.393
G1 F2100 X60.607 Y149.393 A2268.9903
G1 X60.607 Y120.607 A2271.47209
G1 X89.393 Y120.607 A2273.95388
G1 X89.393 Y149.393 A2276.43566
G0 F7200 X97.18 Y157.18
G0 X97.25 Y157.25
;TYPE:WALL-OUTER
G1 F1050 X52.75 Y157.25 A2280.27223
G1 X52.75 Y112.75 A2284.1088
G1 X97.25 Y112.75 A2287.94537
G1 X97.25 Y157.25 A2291.78194
G0 F7200 X94.5 Y157.25
G0 X91.75 Y151.75
G0 X81.536 Y141.536
;TIME_ELAPSED:1246.856159
;LAYER:76
G0 X81.536 Y141.536 Z38.3
;TYPE:FILL
G1 F2100 X68.464 Y141.536 A2292.90895
G1 X68.464 Y128.464 A2294.03595
G1 X81.536 Y128.464 A2295.16295
G1 X81.536 Y141.536 A2296.28995
G0 F7200 X89.393 Y149.393
G1 F2100 X60.607 Y149.393 A2298.77174
G1 X60.607 Y120.607 A2301.25353
G1 X89.393 Y120.607 A2303.73531
G1 X89.393 Y149.393 A2306.2171
G0 F7200 X97.18 Y157.18
G0 X97.25 Y157.25
;TYPE:WALL-OUTER
G1 F1050 X52.75 Y157.25 A2310.05367
G1 X52.75 Y112.75 A2313.89024
G1 X97.25 Y112.75 A2317.72681
G1 X97.25 Y157.25 A2321.56338
G0 F7200 X94.5 Y157.25
G0 X91.75 Y151.75
G0 X81.536 Y141.536
;TIME_ELAPSED:1262.448367
;LAYER:77
G0 X81.536 Y141.536 Z38.8
;TYPE:FILL
G1 F2100 X68.464 Y141.536 A2322.69038
G1 X68.464 Y128.464 A2323.81739
G1 X81.536 Y128.464 A2324.94439
G1 X81.536 Y141.536 A2326.07139
G0 F7200 X89.393 Y149.393
G1 F2100 X60.607 Y149.393 A2328.55318
G1 X60.607 Y120.607 A2331.03497
G1 X89.393 Y120.607 A2333.51675
G1 X89.393 Y149.393 A2335.99854
G0 F7200 X97.18 Y157.18
G0 X97.25 Y157.25
;TYPE:WALL-OUTER
G1 F1050 X52.75 Y157.25 A2339.83511
G1 X52.75 Y112.75 A2343.67168
G1 X97.25 Y112.75 A2347.50825
G1 X97.25 Y157.25 A2351.34482
G0 F7200 X94.5 Y157.25
G0 X91.75 Y151.75
G0 X81.536 Y141.536
;TIME_ELAPSED:1278.040575
;LAYER:78
G0 X81.536 Y141.536 Z39.3
;TYPE:FILL
G1 F2100 X68.464 Y141.536 A2352.47182
G1 X68.464 Y128.464 A2353.59882
G1 X81.536 Y128.464 A2354.72583
G1 X81.536 Y141.536 A2355.85283
G0 F7200 X89.393 Y149.393
G1 F2100 X60.607 Y149.393 A2358.33462
G1 X60.607 Y120.607 A2360.8164
G1 X89.393 Y120.607 A2363.29819
G1 X89.393 Y149.393 A2365.77998
G0 F7200 X97.18 Y157.18
G0 X97.25 Y157.25
;TYPE:WALL-OUTER
G1 F1050 X52.75 Y157.25 A2369.61655
G1 X52.75 Y112.75 A2373.45312
G1 X97.25 Y112.75 A2377.28968
G1 X97.25 Y157.25 A2381.12625
G0 F7200 X94.5 Y157.25
G0 X91.75 Y151.75
G0 X81.536 Y141.536
;TIME_ELAPSED:1293.632783
;LAYER:79
G0 X81.536 Y141.536 Z39.8
;TYPE:FILL
G1 F2100 X68.464 Y141.536 A2382.25326
G1 X68.464 Y128.464 A2383.38026
G1 X81.536 Y128.464 A2384.50726
G1 X81.536 Y141.536 A2385.63427
G0 F7200 X89.393 Y149.393
G1 F2100 X60.607 Y149.393 A2388.11605
G1 X60.607 Y120.607 A2390.59784
G1 X89.393 Y120.607 A2393.07963
G1 X89.393 Y149.393 A2395.56141
G0 F7200 X97.18 Y157.18
G0 X97.25 Y157.25
;TYPE:WALL-OUTER
G1 F1050 X52.75 Y157.25 A2399.39798
G1 X52.75 Y112.75 A2403.23455
G1 X97.25 Y112.75 A2407.07112
G1 X97.25 Y157.25 A2410.90769
G0 F7200 X94.5 Y157.25
G0 X91.75 Y151.75
G0 X81.536 Y141.536
;TIME_ELAPSED:1309.224991
;LAYER:80
G0 X81.536 Y141.536 Z40.3
;TYPE:FILL
G1 F2100 X68.464 Y141.536 A2412.0347
G1 X68.464 Y128.464 A2413.1617
G1 X81.536 Y128.464 A2414.2887
G1 X81.536 Y141.536 A2415.4157
G0 F7200 X89.393 Y149.393
G1 F2100 X60.607 Y149.393 A2417.89749
G1 X60.607 Y120.607 A2420.37928
G1 X89.393 Y120.607 A2422.86106
G1 X89.393 Y149.393 A2425.34285
G0 F7200 X97.18 Y157.18
G0 X97.25 Y157.25
;TYPE:WALL-OUTER
G1 F1050 X52.75 Y157.25 A2429.17942
G1 X52.75 Y112.75 A2433.01599
G1 X97.25 Y112.75 A2436.85256
G1 X97.25 Y157.25 A2440.68913
G0 F7200 X94.5 Y157.25
G0 X91.75 Y151.75
G0 X81.536 Y141.536
;TIME_ELAPSED:1324.817199
;LAYER:81
G0 X81.536 Y141.536 Z40.8
;TYPE:FILL
G1 F2100 X68.464 Y141.536 A2441.81613
G1 X68.464 Y128.464 A2442.94314
G1 X81.536 Y128.464 A2444.07014
G1 X81.536 Y141.536 A2445.19714
G0 F7200 X89.393 Y149.393
G1 F2100 X60.607 Y149.393 A2447.67893
G1 X60.607 Y120.607 A2450.16071
G1 X89.393 Y120.607 A2452.6425
G1 X89.393 Y149.393 A2455.12429
G0 F7200 X97.18 Y157.18
G0 X97.25 Y157.25
;TYPE:WALL-OUTER
G1 F1050 X52.75 Y157.25 A2458.96086
G1 X52.75 Y112.75 A2462.79743
G1 X97.25 Y112.75 A2466.634
G1 X97.25 Y157.25 A2470.47057
G0 F7200 X94.5 Y157.25
G0 X91.75 Y151.75
G0 X81.536 Y141.536
;TIME_ELAPSED:1340.409406
;LAYER:82
G0 X81.536 Y141.536 Z41.3
;TYPE:FILL
G1 F2100 X68.464 Y141.536 A2471.59757
G1 X68.464 Y128.464 A2472.72457
G1 X81.536 Y128.464 A2473.85158
G1 X81.536 Y141.536 A2474.97858
G0 F7200 X89.393 Y149.393
G1 F2100 X60.607 Y149.393 A2477.46037
G1 X60.607 Y120.607 A2479.94215
G1 X89.393 Y120.607 A2482.42394
G1 X89.393 Y149.393 A2484.90573
G0 F7200 X97.18 Y157.18
G0 X97.25 Y157.25
;TYPE:WALL-OUTER
G1 F1050 X52.75 Y157.25 A2488.74229
G1 X52.75 Y112.75 A2492.57886
G1 X97.25 Y112.75 A2496.41543
G1 X97.25 Y157.25 A2500.252
G0 F7200 X94.5 Y157.25
G0 X91.75 Y151.75
G0 X81.536 Y141.536
;TIME_ELAPSED:1356.001614
;LAYER:83
G0 X81.536 Y141.536 Z41.8
;TYPE:FILL
G1 F2100 X68.464 Y141.536 A2501.37901
G1 X68.464 Y128.464 A2502.50601
G1 X81.536 Y128.464 A2503.63301
G1 X81.536 Y141.536 A2504.76002
G0 F7200 X89.393 Y149.393
G1 F2100 X60.607 Y149.393 A2507.2418
G1 X60.607 Y120.607 A2509.72359
G1 X89.393 Y120.607 A2512.20538
G1 X89.393 Y149.393 A2514.68716
G0 F7200 X97.18 Y157.18
G0 X97.25 Y157.25
;TYPE:WALL-OUTER
G1 F1050 X52.75 Y157.25 A2518.52373
G1 X52.75 Y112.75 A2522.3603
G1 X97.25 Y112.75 A2526.19687
G1 X97.25 Y157.25 A2530.03344
G0 F7200 X94.5 Y157.25
G0 X91.75 Y151.75
G0 X81.536 Y141.536
;TIME_ELAPSED:1371.593822
;LAYER:84
G0 X81.536 Y141.536 Z42.3
;TYPE:FILL
G1 F2100 X68.464 Y141.536 A2531.16044
G1 X68.464 Y128.464 A2532.28745
G1 X81.536 Y128.464 A2533.41445
G1 X81.536 Y141.536 A2534.54145
G0 F7200 X89.393 Y149.393
G1 F2100 X60.607 Y149.393 A2537.02324
G1 X60.607 Y120.607 A2539.50503
G1 X89.393 Y120.607 A2541.98681
G1 X89.393 Y149.393 A2544.4686
G0 F7200 X97.18 Y157.18
G0 X97.25 Y157.25
;TYPE:WALL-OUTER
G1 F1050 X52.75 Y157.25 A2548.30517
G1 X52.75 Y112.75 A2552.14174
G1 X97.25 Y112.75 A2555.97831
G1 X97.25 Y157.25 A2559.81488
G0 F7200 X94.5 Y157.25
G0 X91.75 Y151.75
G0 X81.536 Y141.536
;TIME_ELAPSED:1387.186030
;LAYER:85
G0 X81.536 Y141.536 Z42.8
;TYPE:FILL
G1 F2100 X68.464 Y141.536 A2560.94188
G1 X68.464 Y128.464 A2562.06889
G1 X81.536 Y128.464 A2563.19589
G1 X81.536 Y141.536 A2564.32289
G0 F7200 X89.393 Y149.393
G1 F2100 X60.607 Y149.393 A2566.80468
G1 X60.607 Y120.607 A2569.28646
G1 X89.393 Y120.607 A2571.76825
G1 X89.393 Y149.393 A2574.25004
G0 F7200 X97.18 Y157.18
G0 X97.25 Y157.25
;TYPE:WALL-OUTER
G1 F1050 X52.75 Y157.25 A2578.08661
G1 X52.75 Y112.75 A2581.92318
G1 X97.25 Y112.75 A2585.75975
G1 X97.25 Y157.25 A2589.59632
G0 F7200 X94.5 Y157.25
G0 X91.75 Y151.75
G0 X81.536 Y141.536
;TIME_ELAPSED:1402.778238
;LAYER:86
G0 X81.536 Y141.536 Z43.3
;TYPE:FILL
G1 F2100 X68.464 Y141.536 A2590.72332
G1 X68.464 Y128.464 A2591.85032
G1 X81.536 Y128.464 A2592.97733
G1 X81.536 Y141.536 A2594.10433
G0 F7200 X89.393 Y149.393
G1 F2100 X60.607 Y149.393 A2596.58612
G1 X60.607 Y120.607 A2599.0679
G1 X89.393 Y120.607 A2601.54969
G1 X89.393 Y149.393 A2604.03147
G0 F7200 X97.18 Y157.18
G0 X97.25 Y157.25
;TYPE:WALL-OUTER
G1 F1050 X52.75 Y157.25 A2607.86804
G1 X52.75 Y112.75 A2611.70461
G1 X97.25 Y112.75 A2615.54118
G1 X97.25 Y157.25 A2619.37775
G0 F7200 X94.5 Y157.25
G0 X91.75 Y151.75
G0 X81.536 Y141.536
;TIME_ELAPSED:1418.370446
;LAYER:87
G0 X81.536 Y141.536 Z43.8
;TYPE:FILL
G1 F2100 X68.464 Y141.536 A2620.50476
G1 X68.464 Y128.464 A2621.63176
G1 X81.536 Y128.464 A2622.75876
G1 X81.536 Y141.536 A2623.88577
G0 F7200 X89.393 Y149.393
G1 F2100 X60.607 Y149.393 A2626.36755
G1 X60.607 Y120.607 A2628.84934
G1 X89.393 Y120.607 A2631.33113
G1 X89.393 Y149.393 A2633.81291
G0 F7200 X97.18 Y157.18
G0 X97.25 Y157.25
;TYPE:WALL-OUTER
G1 F1050 X52.75 Y157.25 A2637.64948
G1 X52.75 Y112.75 A2641.48605
G1 X97.25 Y112.75 A2645.32262
G1 X97.25 Y157.25 A2649.15919
G0 F7200 X94.5 Y157.25
G0 X91.75 Y151.75
G0 X81.536 Y141.536
;TIME_ELAPSED:1433.962654
;LAYER:88
G0 X81.536 Y141.536 Z44.3
;TYPE:FILL
G1 F2100 X68.464 Y141.536 A2650.28619
G1 X68.464 Y128.464 A2651.4132
G1 X81.536 Y128.464 A2652.5402
G1 X81.536 Y141.536 A2653.6672
G0 F7200 X89.393 Y149.393
G1 F2100 X60.607 Y149.393 A2656.14899
G1 X60.607 Y120.607 A2658.63078
G1 X89.393 Y120.607 A2661.11256
G1 X89.393 Y149.393 A2663.59435
G0 F7200 X97.18 Y157.18
G0 X97.25 Y157.25
;TYPE:WALL-OUTER
G1 F1050 X52.75 Y157.25 A2667.43092
G1 X52.75 Y112.75 A2671.26749
G1 X97.25 Y112.75 A2675.10406
G1 X97.25 Y157.25 A2678.94063
G0 F7200 X94.5 Y157.25
G0 X91.75 Y151.75
G0 X81.536 Y141.536
;TIME_ELAPSED:1449.554862
;LAYER:89
G0 X81.536 Y141.536 Z44.8
;TYPE:FILL
G1 F2100 X68.464 Y141.536 A2680.06763
G1 X68.464 Y128.464 A2681.19463
G1 X81.536 Y128.464 A2682.32164
G1 X81.536 Y141.536 A2683.44864
G0 F7200 X89.393 Y149.393
G1 F2100 X60.607 Y149.393 A2685.93043
G1 X60.607 Y120.607 A2688.41221
G1 X89.393 Y120.607 A2690.894
G1 X89.393 Y149.393 A2693.37579
G0 F7200 X97.18 Y157.18
G0 X97.25 Y157.25
;TYPE:WALL-OUTER
G1 F1050 X52.75 Y157.25 A2697.21236
G1 X52.75 Y112.75 A2701.04893
G1 X97.25 Y112.75 A2704.8855
G1 X97.25 Y157.25 A2708.72207
G0 F7200 X94.5 Y157.25
G0 X91.75 Y151.75
G0 X81.536 Y141.536
;TIME_ELAPSED:1465.147069
;LAYER:90
G0 X81.536 Y141.536 Z45.3
;TYPE:FILL
G1 F2100 X68.464 Y141.536 A2709.84907
G1 X68.464 Y128.464 A2710.97607
G1 X81.536 Y128.464 A2712.10308
G1 X81.536 Y141.536 A2713.23008
G0 F7200 X89.393 Y149.393
G1 F2100 X60.607 Y149.393 A2715.71187
G1 X60.607 Y120.607 A2718.19365
G1 X89.393 Y120.607 A2720.67544
G1 X89.393 Y149.393 A2723.15722
G0 F7200 X97.18 Y157.18
G0 X97.25 Y157.25
;TYPE:WALL-OUTER
G1 F1050 X52.75 Y157.25 A2726.99379
G1 X52.75 Y112.75 A2730.83036
G1 X97.25 Y112.75 A2734.66693
G1 X97.25 Y157.25 A2738.5035
G0 F7200 X94.5 Y157.25
G0 X91.75 Y151.75
G0 X81.536 Y141.536
;TIME_ELAPSED:1480.739277
;LAYER:91
G0 X81.536 Y141.536 Z45.8
;TYPE:FILL
G1 F2100 X68.464 Y141.536 A2739.63051
G1 X68.464 Y128.464 A2740.75751
G1 X81.536 Y128.464 A2741.88451
G1 X81.536 Y141.536 A2743.01152
G0 F7200 X89.393 Y149.393
G1 F2100 X60.607 Y149.393 A2745.4933
G1 X60.607 Y120.607 A2747.97509
G1 X89.393 Y120.607 A2750.45688
G1 X89.393 Y149.393 A2752.93866
G0 F7200 X97.18 Y157.18
G0 X97.25 Y157.25
;TYPE:WALL-OUTER
G1 F1050 X52.75 Y157.25 A2756.77523
G1 X52.75 Y112.75 A2760.6118
G1 X97.25 Y112.75 A2764.44837
G1 X97.25 Y157.25 A2768.28494
G0 F7200 X94.5 Y157.25
G0 X91.75 Y151.75
G0 X81.536 Y141.536
;TIME_ELAPSED:1496.331485
;LAYER:92
G0 X81.536 Y141.536 Z46.3
;TYPE:FILL
G1 F2100 X68.464 Y141.536 A2769.41194
G1 X68.464 Y128.464 A2770.53895
G1 X81.536 Y128.464 A2771.66595
G1 X81.536 Y141.536 A2772.79295
G0 F7200 X89.393 Y149.393
G1 F2100 X60.607 Y149.393 A2775.27474
G1 X60.607 Y120.607 A2777.75653
G1 X89.393 Y120.607 A2780.23831
G1 X89.393 Y149.393 A2782.7201
G0 F7200 X97.18 Y157.18
G0 X97.25 Y157.25
;TYPE:WALL-OUTER
G1 F1050 X52.75 Y157.25 A2786.55667
G1 X52.75 Y112.75 A2790.39324
G1 X97.25 Y112.75 A2794.22981
G1 X97.25 Y157.25 A2798.06638
G0 F7200 X94.5 Y157.25
G0 X91.75 Y151.75
G0 X81.536 Y141.536
;TIME_ELAPSED:1511.923693
;LAYER:93
G0 X81.536 Y141.536 Z46.8
;TYPE:FILL
G1 F2100 X68.464 Y141.536 A2799.19338
G1 X68.464 Y128.464 A2800.32038
G1 X81.536 Y128.464 A2801.44739
G1 X81.536 Y141.536 A2802.57439
G0 F7200 X89.393 Y149.393
G1 F2100 X60.607 Y149.393 A2805.05618
G1 X60.607 Y120.607 A2807.53796
G1 X89.393 Y120.607 A2810.01975
G1 X89.393 Y149.393 A2812.50154
G0 F7200 X97.18 Y157.18
G0 X97.25 Y157.25
;TYPE:WALL-OUTER
G1 F1050 X52.75 Y157.25 A2816.33811
G1 X52.75 Y112.75 A2820.17468
G1 X97.25 Y112.75 A2824.01125
G1 X97.25 Y157.25 A2827.84782
G0 F7200 X94.5 Y157.25
G0 X91.75 Y151.75
G0 X81.536 Y141.536
;TIME_ELAPSED:1527.515901
;LAYER:94
G0 X81.536 Y141.536 Z47.3
;TYPE:FILL
G1 F2100 X68.464 Y141.536 A2828.97482
G1 X68.464 Y128.464 A2830.10182
G1 X81.536 Y128.464 A2831.22883
G1 X81.536 Y141.536 A2832.35583
G0 F7200 X89.393 Y149.393
G1 F2100 X60.607 Y149.393 A2834.83761
G1 X60.607 Y120.607 A2837.3194
G1 X89.393 Y120.607 A2839.80119
G1 X89.393 Y149.393 A2842.28297
G0 F7200 X97.18 Y157.18
G0 X97.25 Y157.25
;TYPE:WALL-OUTER
G1 F1050 X52.75 Y157.25 A2846.11954
G1 X52.75 Y112.75 A2849.95611
G1 X97.25 Y112.75 A2853.79268
G1 X97.25 Y157.25 A2857.62925
G0 F7200 X94.5 Y157.25
G0 X91.75 Y151.75
G0 X81.536 Y141.536
;TIME_ELAPSED:1543.108109
;LAYER:95
G0 X81.536 Y141.536 Z47.8
;TYPE:FILL
G1 F2100 X68.464 Y141.536 A2858.75626
G1 X68.464 Y128.464 A2859.88326
G1 X81.536 Y128.464 A2861.01026
G1 X81.536 Y141.536 A2862.13727
G0 F7200 X89.393 Y149.393
G1 F2100 X60.607 Y149.393 A2864.61905
G1 X60.607 Y120.607 A2867.10084
G1 X89.393 Y120.607 A2869.58262
G1 X89.393 Y149.393 A2872.06441
G0 F7200 X97.18 Y157.18
G0 X97.25 Y157.25
;TYPE:WALL-OUTER
G1 F1050 X52.75 Y157.25 A2875.90098
G1 X52.75 Y112.75 A2879.73755
G1 X97.25 Y112.75 A2883.57412
G1 X97.25 Y157.25 A2887.41069
G0 F7200 X94.5 Y157.25
G0 X91.75 Y151.75
G0 X81.536 Y141.536
;TIME_ELAPSED:1558.700317
;LAYER:96
G0 X81.536 Y141.536 Z48.3
;TYPE:FILL
G1 F2100 X68.464 Y141.536 A2888.53769
G1 X68.464 Y128.464 A2889.6647
G1 X81.536 Y128.464 A2890.7917
G1 X81.536 Y141.536 A2891.9187
G0 F7200 X89.393 Y149.393
G1 F2100 X60.607 Y149.393 A2894.40049
G1 X60.607 Y120.607 A2896.88228
G1 X89.393 Y120.607 A2899.36406
G1 X89.393 Y149.393 A2901.84585
G0 F7200 X97.18 Y157.18
G0 X97.25 Y157.25
;TYPE:WALL-OUTER
G1 F1050 X52.75 Y157.25 A2905.68242
G1 X52.75 Y112.75 A2909.51899
G1 X97.25 Y112.75 A2913.35556
G1 X97.25 Y157.25 A2917.19213
G0 F7200 X94.5 Y157.25
G0 X91.75 Y151.75
G0 X81.536 Y141.536
;TIME_ELAPSED:1574.292524
;LAYER:97
G0 X81.536 Y141.536 Z48.8
;TYPE:FILL
G1 F2100 X68.464 Y141.536 A2918.31913
G1 X68.464 Y128.464 A2919.44613
G1 X81.536 Y128.464 A2920.57314
G1 X81.536 Y141.536 A2921.70014
G0 F7200 X89.393 Y149.393
G1 F2100 X60.607 Y149.393 A2924.18193
G1 X60.607 Y120.607 A2926.66371
G1 X89.393 Y120.607 A2929.1455
G1 X89.393 Y149.393 A2931.62729
G0 F7200 X97.18 Y157.18
G0 X97.25 Y157.25
;TYPE:WALL-OUTER
G1 F1050 X52.75 Y157.25 A2935.46386
G1 X52.75 Y112.75 A2939.30043
G1 X97.25 Y112.75 A2943.137
G1 X97.25 Y157.25 A2946.97357
G0 F7200 X94.5 Y157.25
G0 X91.75 Y151.75
G0 X97.25 Y157.25
;TIME_ELAPSED:1589.847421
;LAYER:98
G0 X97.25 Y157.25 Z49.3
;TYPE:WALL-OUTER
G1 F1050 X52.75 Y157.25 A2950.81014
G1 X52.75 Y112.75 A2954.6467
G1 X97.25 Y112.75 A2958.48327
G1 X97.25 Y157.25 A2962.31984
G0 F7200 X94.5 Y157.25
G0 X91.76 Y151.76
;TYPE:SKIN
G1 F1050 X58.24 Y151.76 A2965.20977
G1 X58.24 Y118.24 A2968.0997
G1 X91.76 Y118.24 A2970.98963
G1 X91.76 Y151.76 A2973.87956
G0 F7200 X89.284 Y128.175
G1 F1050 X81.823 Y120.714 A2974.78925
G0 F7200 X74.045 Y120.714
G1 F1050 X89.284 Y135.954 A2976.64735
G0 F7200 X89.284 Y143.732
G1 F1050 X66.267 Y120.714 A2979.45379
G0 F7200 X60.715 Y122.94
G1 F1050 X87.058 Y149.284 A2982.66576
G0 F7200 X79.28 Y149.284
G1 F1050 X60.715 Y130.718 A2984.92939
G0 F7200 X60.715 Y138.496
G1 F1050 X71.502 Y149.284 A2986.24467
G0 F7200 X63.724 Y149.284
G1 F1050 X60.715 Y146.274 A2986.61161
G0 F7200 X97.18 Y157.18
G0 X97.25 Y157.25
;TIME_ELAPSED:1617.482141
;LAYER:99
G0 X97.25 Y157.25 Z49.8
;TYPE:WALL-OUTER
G1 F1050 X52.75 Y157.25 A2990.44818
G1 X52.75 Y112.75 A2994.28475
G1 X97.25 Y112.75 A2998.12132
G1 X97.25 Y157.25 A3001.95789
G0 F7200 X94.5 Y157.25
G0 X91.76 Y151.76
;TYPE:SKIN
G1 F1050 X58.24 Y151.76 A3004.84782
G1 X58.24 Y118.24 A3007.73775
G1 X91.76 Y118.24 A3010.62768
G1 X91.76 Y151.76 A3013.5176
G0 F7200 X84.06 Y149.284
G1 F1050 X89.284 Y144.06 A3014.15455
G0 F7200 X89.284 Y136.282
G1 F1050 X76.282 Y149.284 A3015.73984
G0 F7200 X68.504 Y149.284
G1 F1050 X89.284 Y128.503 A3018.27353
G0 F7200 X89.284 Y120.725
G1 F1050 X60.726 Y149.284 A3021.75557
G0 F7200 X60.715 Y141.517
G1 F1050 X81.518 Y120.714 A3024.292
G0 F7200 X73.739 Y120.714
G1 F1050 X60.715 Y133.739 A3025.88004
G0 F7200 X60.715 Y125.961
G1 F1050 X65.961 Y120.714 A3026.51972
;TIME_ELAPSED:1644.839062
G1 F1500 A3020.01972
M107
M104 S0
M140 S0
;Retract the filament
G92 A1
G1 A-1 F300
M84
M82 ;absolute extrusion mode
;End of Gcode
;SETTING_3 {"extruder_quality": ["[general]\\nversion = 4\\nname = Fine #2\\ndef
;SETTING_3 inition = fdmprinter\\n\\n[metadata]\\nposition = 0\\nquality_type = 
;SETTING_3 normal\\ntype = quality_changes\\nsetting_version = 5\\n\\n[values]\\
;SETTING_3 ninfill_pattern = concentric\\ninfill_sparse_density = 70\\nmaterial_
;SETTING_3 flow = 20\\nmaterial_print_temperature = 0\\nspeed_print = 35\\ntop_b
;SETTING_3 ottom_thickness = 1\\nwall_thickness = 5.5\\n\\n", "[general]\\nversi
;SETTING_3 on = 4\\nname = Fine #2\\ndefinition = fdmprinter\\n\\n[metadata]\\np
;SETTING_3 osition = 1\\nquality_type = normal\\ntype = quality_changes\\nsettin
;SETTING_3 g_version = 5\\n\\n[values]\\n\\n", "[general]\\nversion = 4\\nname =
;SETTING_3  Fine #2\\ndefinition = fdmprinter\\n\\n[metadata]\\nposition = 2\\nq
;SETTING_3 uality_type = normal\\ntype = quality_changes\\nsetting_version = 5\\
;SETTING_3 n\\n[values]\\n\\n", "[general]\\nversion = 4\\nname = Fine #2\\ndefi
;SETTING_3 nition = fdmprinter\\n\\n[metadata]\\nposition = 3\\nquality_type = n
;SETTING_3 ormal\\ntype = quality_changes\\nsetting_version = 5\\n\\n[values]\\n
;SETTING_3 \\n", "[general]\\nversion = 4\\nname = Fine #2\\ndefinition = fdmpri
;SETTING_3 nter\\n\\n[metadata]\\nposition = 4\\nquality_type = normal\\ntype = 
;SETTING_3 quality_changes\\nsetting_version = 5\\n\\n[values]\\n\\n", "[general
;SETTING_3 ]\\nversion = 4\\nname = Fine #2\\ndefinition = fdmprinter\\n\\n[meta
;SETTING_3 data]\\nposition = 5\\nquality_type = normal\\ntype = quality_changes
;SETTING_3 \\nsetting_version = 5\\n\\n[values]\\n\\n", "[general]\\nversion = 4
;SETTING_3 \\nname = Fine #2\\ndefinition = fdmprinter\\n\\n[metadata]\\npositio
;SETTING_3 n = 6\\nquality_type = normal\\ntype = quality_changes\\nsetting_vers
;SETTING_3 ion = 5\\n\\n[values]\\n\\n", "[general]\\nversion = 4\\nname = Fine 
;SETTING_3 #2\\ndefinition = fdmprinter\\n\\n[metadata]\\nposition = 7\\nquality
;SETTING_3 _type = normal\\ntype = quality_changes\\nsetting_version = 5\\n\\n[v
;SETTING_3 alues]\\n\\n"], "global_quality": "[general]\\nversion = 4\\nname = F
;SETTING_3 ine #2\\ndefinition = fdmprinter\\n\\n[metadata]\\nquality_type = nor
;SETTING_3 mal\\ntype = quality_changes\\nsetting_version = 5\\n\\n[values]\\nla
;SETTING_3 yer_height = 0.5\\n\\n"}
