;FLAVOR:Marlin
;TIME:1474
;Filament used: 2.8551m
;Layer height: 0.5
;Generated with Cura_SteamEngine 3.5.1
M104 S20
M105
M109 S20
M82 ;absolute extrusion mode
g92 z0
g1 f1000 z-305
g92 x0 y0 a0 z0
g1 f100 a0.01
g92 a0
g1 f1000 z0.5
G92 E0
G1 F1500 E-6.5
;LAYER_COUNT:91
;LAYER:0
M107
G0 F3600 X80.004 Y80.901 Z0.5
;TYPE:SKIRT
G1 F1500 E0
G1 F1800 X81.797 Y79.185 E0.19452
G1 X82.392 Y78.672 E0.25609
G1 X83.76 Y77.613 E0.39169
G1 X84.321 Y77.219 E0.44542
G1 X85.966 Y76.171 E0.59829
G1 X86.678 Y75.77 E0.66234
G1 X88.904 Y74.672 E0.85687
G1 X89.633 Y74.359 E0.91906
G1 X91.256 Y73.762 E1.05459
G1 X92.036 Y73.522 E1.11856
G1 X94.66 Y72.87 E1.33047
G1 X95.657 Y72.693 E1.40984
G1 X98.346 Y72.4 E1.62184
G1 X99.167 Y72.356 E1.68628
G1 X100.895 Y72.358 E1.82172
G1 X101.536 Y72.386 E1.87201
G1 X103.26 Y72.536 E2.00764
G1 X103.898 Y72.619 E2.05806
G1 X105.602 Y72.916 E2.19363
G1 X106.233 Y73.055 E2.24427
G1 X107.903 Y73.497 E2.37967
G1 X108.554 Y73.701 E2.43314
G1 X110.388 Y74.37 E2.58615
G1 X111.024 Y74.636 E2.64018
G1 X112.587 Y75.375 E2.77569
G1 X113.15 Y75.671 E2.82554
G1 X114.645 Y76.54 E2.96107
G1 X115.187 Y76.887 E3.01151
G1 X116.602 Y77.881 E3.14705
G1 X117.112 Y78.273 E3.19746
G1 X118.437 Y79.385 E3.33304
G1 X119.043 Y79.953 E3.39814
G1 X120.909 Y81.909 E3.61002
G1 X121.442 Y82.533 E3.67434
G1 X122.491 Y83.906 E3.80976
G1 X122.859 Y84.433 E3.86014
G1 X123.788 Y85.893 E3.99577
G1 X124.173 Y86.575 E4.05716
G1 X125.28 Y88.797 E4.25173
G1 X125.608 Y89.558 E4.31668
G1 X126.28 Y91.39 E4.46962
G1 X126.519 Y92.171 E4.53363
G1 X127.115 Y94.579 E4.72806
G1 X127.287 Y95.535 E4.80419
G1 X127.592 Y98.223 E5.01622
G1 X127.64 Y99.043 E5.0806
G1 X127.646 Y100.771 E5.21604
G1 X127.617 Y101.458 E5.26993
G1 X127.445 Y103.403 E5.42297
G1 X127.353 Y104.082 E5.47668
G1 X127.044 Y105.783 E5.61218
G1 X126.903 Y106.408 E5.66239
G1 X126.45 Y108.077 E5.79794
G1 X126.257 Y108.684 E5.84786
G1 X125.664 Y110.308 E5.98337
G1 X125.414 Y110.91 E6.03446
G1 X124.682 Y112.477 E6.17001
G1 X124.387 Y113.045 E6.22018
G1 X123.524 Y114.544 E6.35574
G1 X123.179 Y115.088 E6.40623
G1 X122.191 Y116.507 E6.54175
G1 X121.803 Y117.016 E6.59192
G1 X120.697 Y118.346 E6.72749
G1 X120.141 Y118.945 E6.79155
G1 X118.229 Y120.792 E6.99991
G1 X117.442 Y121.454 E7.08051
G1 X115.16 Y123.121 E7.30201
G1 X114.462 Y123.574 E7.36722
G1 X113 Y124.411 E7.49926
G1 X112.442 Y124.7 E7.54851
G1 X110.914 Y125.412 E7.68064
G1 X110.337 Y125.652 E7.72962
G1 X108.756 Y126.234 E7.86166
G1 X107.955 Y126.479 E7.92731
G1 X105.212 Y127.153 E8.1487
G1 X104.229 Y127.326 E8.22693
G1 X101.717 Y127.598 E8.42496
G1 X100.932 Y127.642 E8.48658
G1 X99.247 Y127.647 E8.61865
G1 X98.564 Y127.618 E8.67223
G1 X96.586 Y127.443 E8.82787
G1 X95.916 Y127.353 E8.88085
G1 X94.258 Y127.054 E9.0129
G1 X93.644 Y126.916 E9.06222
G1 X92.017 Y126.479 E9.19426
G1 X91.382 Y126.278 E9.24646
G1 X89.613 Y125.63 E9.39412
G1 X89.002 Y125.375 E9.44601
G1 X87.477 Y124.658 E9.57809
G1 X86.924 Y124.37 E9.62696
G1 X85.464 Y123.529 E9.75902
G1 X84.902 Y123.171 E9.81124
G1 X83.359 Y122.089 E9.95895
G1 X82.835 Y121.686 E10.01076
G1 X81.546 Y120.601 E10.14282
G1 X81.082 Y120.175 E10.19219
G1 X79.888 Y118.985 E10.32431
G1 X79.435 Y118.492 E10.37679
G1 X78.224 Y117.048 E10.52449
G1 X77.823 Y116.525 E10.57615
G1 X76.858 Y115.144 E10.70819
G1 X76.435 Y114.464 E10.77096
G1 X75.168 Y112.162 E10.97691
G1 X74.821 Y111.444 E11.03941
G1 X74.17 Y109.89 E11.17146
G1 X73.938 Y109.257 E11.2243
G1 X73.369 Y107.461 E11.37197
G1 X73.166 Y106.673 E11.43574
G1 X72.669 Y104.198 E11.6336
G1 X72.551 Y103.385 E11.69799
G1 X72.384 Y101.505 E11.84592
G1 X72.355 Y100.808 E11.90059
G1 X72.363 Y98.992 E12.04293
G1 X72.394 Y98.344 E12.09378
G1 X72.551 Y96.621 E12.22938
G1 X72.637 Y95.983 E12.27984
G1 X72.941 Y94.281 E12.41534
G1 X73.082 Y93.649 E12.4661
G1 X73.532 Y91.979 E12.60166
G1 X73.724 Y91.37 E12.6517
G1 X74.314 Y89.745 E12.7872
G1 X74.562 Y89.145 E12.83809
G1 X75.291 Y87.576 E12.97369
G1 X75.584 Y87.011 E13.02357
G1 X76.443 Y85.51 E13.15912
G1 X76.788 Y84.962 E13.20987
G1 X77.773 Y83.541 E13.34539
G1 X78.189 Y82.996 E13.39912
G1 X79.442 Y81.501 E13.55201
G1 X80.004 Y80.901 E13.61644
G0 F3600 X80.696 Y81.623
G1 F1800 X82.489 Y79.907 E13.81096
G1 X83.004 Y79.463 E13.86426
G1 X84.372 Y78.404 E13.99985
G1 X84.859 Y78.062 E14.04649
G1 X86.504 Y77.014 E14.19936
G1 X87.121 Y76.667 E14.25485
G1 X89.347 Y75.569 E14.44938
G1 X89.978 Y75.298 E14.50321
G1 X91.601 Y74.701 E14.63875
G1 X92.278 Y74.493 E14.69426
G1 X94.902 Y73.841 E14.90617
G1 X95.765 Y73.687 E14.97488
G1 X98.454 Y73.394 E15.18689
G1 X99.166 Y73.356 E15.24277
G1 X100.894 Y73.358 E15.37821
G1 X101.449 Y73.382 E15.42175
G1 X103.173 Y73.532 E15.55738
G1 X103.726 Y73.605 E15.6011
G1 X105.43 Y73.902 E15.73667
G1 X105.977 Y74.021 E15.78054
G1 X107.647 Y74.463 E15.91594
G1 X108.211 Y74.641 E15.96229
G1 X110.045 Y75.31 E16.1153
G1 X110.596 Y75.54 E16.1621
G1 X112.159 Y76.279 E16.2976
G1 X112.648 Y76.535 E16.34087
G1 X114.143 Y77.404 E16.4764
G1 X114.612 Y77.705 E16.52008
G1 X116.027 Y78.699 E16.65561
G1 X116.47 Y79.039 E16.69938
G1 X117.795 Y80.151 E16.83495
G1 X118.319 Y80.643 E16.89129
G1 X120.185 Y82.599 E17.10317
G1 X120.647 Y83.14 E17.15893
G1 X121.696 Y84.513 E17.29435
G1 X122.015 Y84.97 E17.33803
G1 X122.944 Y86.43 E17.47367
G1 X123.278 Y87.02 E17.5268
G1 X124.385 Y89.242 E17.72137
G1 X124.669 Y89.903 E17.77776
G1 X125.341 Y91.735 E17.9307
G1 X125.549 Y92.411 E17.98614
G1 X126.145 Y94.819 E18.18057
G1 X126.294 Y95.648 E18.24658
G1 X126.599 Y98.336 E18.45861
G1 X126.64 Y99.046 E18.51435
G1 X126.646 Y100.774 E18.64979
G1 X126.621 Y101.37 E18.69654
G1 X126.449 Y103.315 E18.84958
G1 X126.369 Y103.904 E18.89617
G1 X126.06 Y105.605 E19.03167
G1 X125.938 Y106.146 E19.07514
G1 X125.485 Y107.815 E19.21068
G1 X125.318 Y108.341 E19.25394
G1 X124.725 Y109.965 E19.38944
G1 X124.508 Y110.487 E19.43375
G1 X123.776 Y112.054 E19.56931
G1 X123.52 Y112.546 E19.61278
G1 X122.657 Y114.045 E19.74834
G1 X122.358 Y114.516 E19.79207
G1 X121.37 Y115.935 E19.92759
G1 X121.034 Y116.377 E19.97111
G1 X119.928 Y117.707 E20.10668
G1 X119.446 Y118.226 E20.1622
G1 X117.534 Y120.073 E20.37056
G1 X116.852 Y120.647 E20.44042
G1 X114.57 Y122.314 E20.66192
G1 X113.965 Y122.706 E20.71842
G1 X112.503 Y123.543 E20.85046
G1 X112.019 Y123.794 E20.89319
G1 X110.491 Y124.506 E21.02531
G1 X109.991 Y124.714 E21.06776
G1 X108.41 Y125.296 E21.1998
G1 X107.716 Y125.508 E21.25668
G1 X104.973 Y126.182 E21.47806
G1 X104.122 Y126.332 E21.54579
G1 X101.61 Y126.604 E21.74382
G1 X100.929 Y126.642 E21.79728
G1 X99.244 Y126.647 E21.92935
G1 X98.652 Y126.622 E21.97579
G1 X96.674 Y126.447 E22.13142
G1 X96.093 Y126.369 E22.17737
G1 X94.435 Y126.07 E22.30941
G1 X93.903 Y125.951 E22.35214
G1 X92.276 Y125.514 E22.48418
G1 X91.726 Y125.339 E22.52942
G1 X89.957 Y124.691 E22.67708
G1 X89.427 Y124.47 E22.72208
G1 X87.902 Y123.753 E22.85416
G1 X87.424 Y123.503 E22.89644
G1 X85.964 Y122.662 E23.0285
G1 X85.476 Y122.352 E23.07381
G1 X83.933 Y121.27 E23.22152
G1 X83.479 Y120.921 E23.2664
G1 X82.19 Y119.836 E23.39845
G1 X81.788 Y119.467 E23.44122
G1 X80.594 Y118.277 E23.57335
G1 X80.202 Y117.85 E23.61878
G1 X78.991 Y116.406 E23.76649
G1 X78.643 Y115.952 E23.81132
G1 X77.678 Y114.571 E23.94337
G1 X77.312 Y113.982 E23.99772
G1 X76.045 Y111.68 E24.20367
G1 X75.744 Y111.058 E24.25783
G1 X75.093 Y109.504 E24.38988
G1 X74.892 Y108.955 E24.4357
G1 X74.323 Y107.159 E24.58336
G1 X74.146 Y106.476 E24.63866
G1 X73.649 Y104.001 E24.83652
G1 X73.547 Y103.296 E24.89235
G1 X73.38 Y101.416 E25.04028
G1 X73.355 Y100.812 E25.08766
G1 X73.363 Y98.996 E25.23
G1 X73.39 Y98.435 E25.27402
G1 X73.547 Y96.712 E25.40962
G1 X73.621 Y96.159 E25.45335
G1 X73.925 Y94.457 E25.58886
G1 X74.048 Y93.909 E25.63288
G1 X74.498 Y92.239 E25.76844
G1 X74.664 Y91.712 E25.81174
G1 X75.254 Y90.087 E25.94724
G1 X75.469 Y89.566 E25.99141
G1 X76.198 Y87.997 E26.12701
G1 X76.452 Y87.507 E26.17027
G1 X77.311 Y86.006 E26.30582
G1 X77.61 Y85.532 E26.34974
G1 X78.595 Y84.111 E26.48526
G1 X78.955 Y83.639 E26.53179
G1 X80.208 Y82.144 E26.68467
G1 X80.696 Y81.623 E26.74062
G0 F3600 X81.387 Y82.346
G1 F1800 X83.18 Y80.63 E26.93514
G1 X83.616 Y80.254 E26.98027
G1 X84.984 Y79.195 E27.11586
G1 X85.396 Y78.905 E27.15535
G1 X87.041 Y77.857 E27.30822
G1 X87.563 Y77.563 E27.35518
G1 X89.789 Y76.465 E27.54971
G1 X90.323 Y76.236 E27.59525
G1 X91.946 Y75.639 E27.73079
G1 X92.519 Y75.463 E27.77777
G1 X95.143 Y74.811 E27.98969
G1 X95.873 Y74.681 E28.04781
G1 X98.562 Y74.388 E28.25981
G1 X99.164 Y74.356 E28.30706
G1 X100.892 Y74.358 E28.4425
G1 X101.363 Y74.379 E28.47945
G1 X103.087 Y74.529 E28.61508
G1 X103.554 Y74.59 E28.65199
G1 X105.258 Y74.887 E28.78756
G1 X105.721 Y74.988 E28.8247
G1 X107.391 Y75.43 E28.9601
G1 X107.869 Y75.58 E28.99937
G1 X109.703 Y76.249 E29.15238
G1 X110.169 Y76.444 E29.19197
G1 X111.732 Y77.183 E29.32747
G1 X112.145 Y77.4 E29.36404
G1 X113.64 Y78.269 E29.49957
G1 X114.038 Y78.523 E29.53658
G1 X115.453 Y79.517 E29.67211
G1 X115.827 Y79.805 E29.70911
G1 X117.152 Y80.917 E29.84468
G1 X117.596 Y81.334 E29.89242
G1 X119.462 Y83.29 E30.1043
G1 X119.852 Y83.747 E30.15139
G1 X120.901 Y85.12 E30.28682
G1 X121.171 Y85.506 E30.32374
G1 X122.1 Y86.966 E30.45937
G1 X122.383 Y87.466 E30.5044
G1 X123.49 Y89.688 E30.69897
G1 X123.731 Y90.247 E30.74668
G1 X124.403 Y92.079 E30.89962
G1 X124.578 Y92.652 E30.94658
G1 X125.174 Y95.06 E31.14101
G1 X125.3 Y95.761 E31.19683
G1 X125.605 Y98.449 E31.40886
G1 X125.64 Y99.05 E31.45605
G1 X125.646 Y100.778 E31.59148
G1 X125.625 Y101.281 E31.63094
G1 X125.453 Y103.226 E31.78398
G1 X125.385 Y103.725 E31.82345
G1 X125.076 Y105.426 E31.95895
G1 X124.973 Y105.884 E31.99575
G1 X124.52 Y107.553 E32.13129
G1 X124.378 Y107.998 E32.1679
G1 X123.785 Y109.622 E32.30341
G1 X123.602 Y110.064 E32.3409
G1 X122.87 Y111.631 E32.47646
G1 X122.654 Y112.047 E32.5132
G1 X121.791 Y113.546 E32.64876
G1 X121.538 Y113.945 E32.68579
G1 X120.55 Y115.364 E32.82131
G1 X120.265 Y115.738 E32.85817
G1 X119.159 Y117.068 E32.99374
G1 X118.751 Y117.507 E33.04072
G1 X116.839 Y119.354 E33.24908
G1 X116.262 Y119.839 E33.30815
G1 X113.98 Y121.506 E33.52965
G1 X113.469 Y121.838 E33.57741
G1 X112.007 Y122.675 E33.70945
G1 X111.597 Y122.887 E33.74563
G1 X110.069 Y123.599 E33.87775
G1 X109.646 Y123.775 E33.91366
G1 X108.065 Y124.357 E34.0457
G1 X107.477 Y124.537 E34.0939
G1 X104.734 Y125.211 E34.31528
G1 X104.014 Y125.338 E34.37259
G1 X101.502 Y125.61 E34.57062
G1 X100.926 Y125.642 E34.61584
G1 X99.241 Y125.647 E34.7479
G1 X98.74 Y125.626 E34.7872
G1 X96.762 Y125.451 E34.94284
G1 X96.271 Y125.385 E34.98167
G1 X94.613 Y125.086 E35.11372
G1 X94.162 Y124.985 E35.14994
G1 X92.535 Y124.548 E35.28198
G1 X92.07 Y124.4 E35.32023
G1 X90.301 Y123.752 E35.46788
G1 X89.853 Y123.565 E35.50593
G1 X88.328 Y122.848 E35.63801
G1 X87.923 Y122.637 E35.6738
G1 X86.463 Y121.796 E35.80586
G1 X86.05 Y121.533 E35.84424
G1 X84.507 Y120.451 E35.99194
G1 X84.123 Y120.156 E36.0299
G1 X82.834 Y119.071 E36.16195
G1 X82.493 Y118.759 E36.19818
G1 X81.299 Y117.569 E36.3303
G1 X80.968 Y117.207 E36.36875
G1 X79.757 Y115.763 E36.51645
G1 X79.463 Y115.379 E36.55436
G1 X78.498 Y113.998 E36.68641
G1 X78.188 Y113.5 E36.73238
G1 X76.921 Y111.198 E36.93833
G1 X76.666 Y110.671 E36.98422
G1 X76.015 Y109.117 E37.11627
G1 X75.845 Y108.653 E37.155
G1 X75.276 Y106.857 E37.30266
G1 X75.127 Y106.279 E37.34945
G1 X74.63 Y103.804 E37.5473
G1 X74.544 Y103.208 E37.5945
G1 X74.377 Y101.328 E37.74243
G1 X74.355 Y100.817 E37.78252
G1 X74.363 Y99.001 E37.92485
G1 X74.386 Y98.526 E37.96212
G1 X74.543 Y96.803 E38.09773
G1 X74.606 Y96.335 E38.13474
G1 X74.91 Y94.633 E38.27025
G1 X75.013 Y94.169 E38.3075
G1 X75.463 Y92.499 E38.44306
G1 X75.604 Y92.053 E38.47972
G1 X76.194 Y90.428 E38.61522
G1 X76.376 Y89.987 E38.65261
G1 X77.105 Y88.418 E38.78821
G1 X77.319 Y88.004 E38.82474
G1 X78.178 Y86.503 E38.96028
G1 X78.432 Y86.102 E38.99749
G1 X79.417 Y84.681 E39.133
G1 X79.722 Y84.281 E39.17243
G1 X80.975 Y82.786 E39.32531
G1 X81.387 Y82.346 E39.37256
G0 F3600 X82.079 Y83.068
G1 F1800 X83.872 Y81.352 E39.56708
G1 X84.228 Y81.045 E39.60392
G1 X85.596 Y79.986 E39.73952
G1 X85.933 Y79.749 E39.77181
G1 X87.578 Y78.701 E39.92468
G1 X88.005 Y78.46 E39.96311
G1 X90.231 Y77.362 E40.15765
G1 X90.668 Y77.175 E40.1949
G1 X92.291 Y76.578 E40.33044
G1 X92.76 Y76.434 E40.36889
G1 X95.384 Y75.782 E40.58081
G1 X95.982 Y75.675 E40.62842
G1 X98.671 Y75.382 E40.84043
G1 X99.163 Y75.356 E40.87904
G1 X100.891 Y75.358 E41.01448
G1 X101.276 Y75.375 E41.04468
G1 X103 Y75.525 E41.18032
G1 X103.383 Y75.575 E41.21059
G1 X105.087 Y75.872 E41.34616
G1 X105.465 Y75.955 E41.37649
G1 X107.135 Y76.397 E41.51189
G1 X107.526 Y76.519 E41.54399
G1 X109.36 Y77.188 E41.697
G1 X109.741 Y77.348 E41.72939
G1 X111.304 Y78.087 E41.86489
G1 X111.642 Y78.265 E41.89483
G1 X113.137 Y79.134 E42.03037
G1 X113.463 Y79.342 E42.06067
G1 X114.878 Y80.336 E42.19621
G1 X115.184 Y80.571 E42.22645
G1 X116.509 Y81.683 E42.36202
G1 X116.872 Y82.024 E42.40106
G1 X118.738 Y83.98 E42.61294
G1 X119.058 Y84.354 E42.65152
G1 X120.107 Y85.727 E42.78694
G1 X120.328 Y86.043 E42.81717
G1 X121.257 Y87.503 E42.9528
G1 X121.488 Y87.912 E42.98961
G1 X122.595 Y90.134 E43.18418
G1 X122.792 Y90.591 E43.22319
G1 X123.464 Y92.423 E43.37613
G1 X123.607 Y92.892 E43.41456
G1 X124.203 Y95.3 E43.60899
G1 X124.306 Y95.874 E43.6547
G1 X124.611 Y98.562 E43.86673
G1 X124.64 Y99.053 E43.90528
G1 X124.646 Y100.781 E44.04071
G1 X124.629 Y101.193 E44.07303
G1 X124.457 Y103.138 E44.22607
G1 X124.402 Y103.546 E44.25834
G1 X124.093 Y105.247 E44.39384
G1 X124.008 Y105.622 E44.42398
G1 X123.555 Y107.291 E44.55952
G1 X123.439 Y107.655 E44.58946
G1 X122.846 Y109.279 E44.72497
G1 X122.696 Y109.641 E44.75568
G1 X121.964 Y111.208 E44.89124
G1 X121.787 Y111.548 E44.92128
G1 X120.924 Y113.047 E45.05685
G1 X120.717 Y113.373 E45.08711
G1 X119.729 Y114.792 E45.22263
G1 X119.496 Y115.098 E45.25278
G1 X118.39 Y116.428 E45.38836
G1 X118.056 Y116.788 E45.42684
G1 X116.144 Y118.635 E45.6352
G1 X115.672 Y119.032 E45.68354
G1 X113.39 Y120.699 E45.90504
G1 X112.972 Y120.97 E45.94408
G1 X111.51 Y121.807 E46.07612
G1 X111.175 Y121.981 E46.10571
G1 X109.647 Y122.693 E46.23783
G1 X109.301 Y122.837 E46.26721
G1 X107.72 Y123.419 E46.39925
G1 X107.239 Y123.566 E46.43867
G1 X104.496 Y124.24 E46.66005
G1 X103.906 Y124.344 E46.70701
G1 X101.394 Y124.616 E46.90505
G1 X100.923 Y124.642 E46.94202
G1 X99.238 Y124.647 E47.07408
G1 X98.828 Y124.629 E47.10625
G1 X96.85 Y124.454 E47.26188
G1 X96.448 Y124.401 E47.29367
G1 X94.79 Y124.102 E47.42571
G1 X94.422 Y124.019 E47.45528
G1 X92.795 Y123.582 E47.58732
G1 X92.414 Y123.461 E47.61865
G1 X90.645 Y122.813 E47.76631
G1 X90.278 Y122.66 E47.79747
G1 X88.753 Y121.943 E47.92955
G1 X88.422 Y121.77 E47.95882
G1 X86.962 Y120.929 E48.09088
G1 X86.624 Y120.714 E48.12228
G1 X85.081 Y119.632 E48.26998
G1 X84.767 Y119.391 E48.30101
G1 X83.478 Y118.306 E48.43306
G1 X83.199 Y118.05 E48.46274
G1 X82.005 Y116.86 E48.59486
G1 X81.734 Y116.565 E48.62626
G1 X80.523 Y115.121 E48.77397
G1 X80.282 Y114.807 E48.80499
G1 X79.317 Y113.426 E48.93704
G1 X79.064 Y113.018 E48.97467
G1 X77.797 Y110.716 E49.18061
G1 X77.588 Y110.285 E49.21816
G1 X76.937 Y108.731 E49.35021
G1 X76.798 Y108.351 E49.38192
G1 X76.229 Y106.555 E49.52958
G1 X76.107 Y106.082 E49.56787
G1 X75.61 Y103.607 E49.76573
G1 X75.54 Y103.119 E49.80437
G1 X75.373 Y101.239 E49.9523
G1 X75.355 Y100.821 E49.98509
G1 X75.363 Y99.005 E50.12742
G1 X75.382 Y98.617 E50.15787
G1 X75.539 Y96.894 E50.29347
G1 X75.59 Y96.511 E50.32376
G1 X75.894 Y94.809 E50.45927
G1 X75.979 Y94.429 E50.48979
G1 X76.429 Y92.759 E50.62534
G1 X76.544 Y92.394 E50.65534
G1 X77.134 Y90.769 E50.79084
G1 X77.283 Y90.409 E50.82137
G1 X78.012 Y88.84 E50.95697
G1 X78.187 Y88.501 E50.98687
G1 X79.046 Y87 E51.12242
G1 X79.254 Y86.671 E51.15293
G1 X80.239 Y85.25 E51.28844
G1 X80.488 Y84.923 E51.32066
G1 X81.741 Y83.428 E51.47354
G1 X82.079 Y83.068 E51.51225
G0 F3600 X82.77 Y83.79
G1 F1800 X84.563 Y82.074 E51.70677
G1 X84.841 Y81.835 E51.7355
G1 X86.209 Y80.776 E51.87109
G1 X86.47 Y80.592 E51.89612
G1 X88.115 Y79.544 E52.049
G1 X88.448 Y79.357 E52.07893
