;FLAVOR:Mach3
;TIME:212
;MINX:63.022
;MINY:63.014
;MINZ:0.3
;MAXX:146.992
;MAXY:146.982
;MAXZ:48.3
;Generated with Cura_SteamEngine 4.1.0
M109 S0
M82 ;absolute extrusion mode
M107
g92 x0 y0 a0 z0
G92 A0
G92 A0
G1 F1500 A-6.5
;LAYER_COUNT:13
;LAYER:0
M107
G0 F3600 X75.447 Y75.187 Z0.3
;TYPE:SKIRT
G1 F1500 A0
G1 F1800 X75.753 Y74.885 A0.01341
G1 X75.857 Y74.785 A0.0179
G1 X76.286 Y74.375 A0.03641
G1 X76.489 Y74.186 A0.04506
G1 X77.276 Y73.479 A0.07804
G1 X77.393 Y73.376 A0.0829
G1 X77.793 Y73.029 A0.09942
G1 X77.905 Y72.934 A0.104
G1 X78.291 Y72.61 A0.11971
G1 X78.505 Y72.436 A0.12831
G1 X79.304 Y71.806 A0.16004
G1 X79.418 Y71.717 A0.16455
G1 X79.873 Y71.37 A0.18239
G1 X79.984 Y71.287 A0.18671
G1 X80.378 Y70.996 A0.20198
G1 X80.604 Y70.834 A0.21065
G1 X81.461 Y70.241 A0.24315
G1 X81.608 Y70.142 A0.24868
G1 X82.089 Y69.823 A0.26667
G1 X82.178 Y69.764 A0.27
G1 X82.571 Y69.51 A0.28459
G1 X82.824 Y69.352 A0.2939
G1 X83.742 Y68.801 A0.32728
G1 X83.874 Y68.724 A0.33204
G1 X84.333 Y68.459 A0.34857
G1 X84.448 Y68.394 A0.35269
G1 X84.862 Y68.163 A0.36747
G1 X85.109 Y68.03 A0.37622
G1 X86.119 Y67.507 A0.41169
G1 X86.257 Y67.437 A0.41651
G1 X86.648 Y67.243 A0.43012
G1 X86.774 Y67.181 A0.4345
G1 X87.271 Y66.944 A0.45167
G1 X87.514 Y66.833 A0.46
G1 X88.496 Y66.4 A0.49346
G1 X88.695 Y66.315 A0.50021
G1 X89.609 Y65.938 A0.53104
G1 X89.961 Y65.801 A0.54282
G1 X91.029 Y65.412 A0.57826
G1 X91.162 Y65.365 A0.58266
G1 X91.566 Y65.225 A0.59599
G1 X91.704 Y65.179 A0.60053
G1 X92.258 Y64.997 A0.61871
G1 X92.512 Y64.917 A0.62701
G1 X93.495 Y64.626 A0.65898
G1 X93.646 Y64.583 A0.66387
G1 X94.115 Y64.453 A0.67905
G1 X94.252 Y64.416 A0.68347
G1 X94.809 Y64.271 A0.70142
G1 X95.07 Y64.207 A0.7098
G1 X96.076 Y63.977 A0.74198
G1 X96.245 Y63.94 A0.74737
G1 X96.763 Y63.832 A0.76387
G1 X96.86 Y63.813 A0.76695
G1 X97.342 Y63.718 A0.78227
G1 X97.657 Y63.662 A0.79225
G1 X98.773 Y63.483 A0.82749
G1 X98.913 Y63.461 A0.83191
G1 X99.336 Y63.4 A0.84524
G1 X99.466 Y63.382 A0.84933
G1 X100.038 Y63.308 A0.86731
G1 X100.318 Y63.277 A0.8761
G1 X101.352 Y63.176 A0.90849
G1 X101.514 Y63.161 A0.91357
G1 X102.005 Y63.122 A0.92892
G1 X102.134 Y63.113 A0.93296
G1 X102.703 Y63.076 A0.95074
G1 X102.99 Y63.062 A0.9597
G1 X103.988 Y63.029 A0.99083
G1 X104.138 Y63.025 A0.99551
G1 X104.69 Y63.016 A1.01272
G1 X104.819 Y63.015 A1.01675
G1 X105.327 Y63.014 A1.03259
G1 X105.62 Y63.018 A1.04172
G1 X106.701 Y63.051 A1.07545
G1 X106.853 Y63.057 A1.08019
G1 X107.379 Y63.082 A1.09661
G1 X107.51 Y63.089 A1.1007
G1 X107.993 Y63.119 A1.11579
G1 X108.278 Y63.142 A1.12471
G1 X109.351 Y63.243 A1.15831
G1 X109.494 Y63.257 A1.16279
G1 X109.966 Y63.309 A1.1776
G1 X110.115 Y63.327 A1.18228
G1 X110.658 Y63.396 A1.19935
G1 X110.925 Y63.434 A1.20776
G1 X112.003 Y63.604 A1.24178
G1 X112.176 Y63.633 A1.24725
G1 X112.598 Y63.708 A1.26062
G1 X112.708 Y63.728 A1.26411
G1 X113.301 Y63.841 A1.28293
G1 X113.58 Y63.899 A1.29181
G1 X114.586 Y64.124 A1.32396
G1 X114.736 Y64.159 A1.32876
G1 X115.274 Y64.289 A1.34602
G1 X115.422 Y64.326 A1.35078
G1 X115.888 Y64.447 A1.36579
G1 X116.141 Y64.517 A1.37397
G1 X117.127 Y64.804 A1.40599
G1 X117.284 Y64.851 A1.4111
G1 X117.818 Y65.017 A1.42854
G1 X117.938 Y65.055 A1.43247
G1 X118.416 Y65.211 A1.44814
G1 X118.689 Y65.305 A1.45715
G1 X119.705 Y65.673 A1.49084
G1 X119.855 Y65.729 A1.49583
G1 X120.289 Y65.895 A1.51032
G1 X120.403 Y65.939 A1.51413
G1 X120.928 Y66.148 A1.53175
G1 X121.191 Y66.258 A1.54064
G1 X122.156 Y66.678 A1.57346
G1 X122.306 Y66.745 A1.57858
G1 X122.785 Y66.964 A1.595
G1 X122.893 Y67.014 A1.59871
G1 X123.343 Y67.227 A1.61424
G1 X123.606 Y67.357 A1.62339
G1 X124.546 Y67.84 A1.65634
G1 X124.683 Y67.912 A1.66117
G1 X125.159 Y68.167 A1.678
G1 X125.273 Y68.229 A1.68205
G1 X125.733 Y68.484 A1.69845
G1 X125.979 Y68.625 A1.70729
G1 X126.824 Y69.129 A1.73797
G1 X126.952 Y69.207 A1.74264
G1 X127.443 Y69.511 A1.76065
G1 X127.553 Y69.58 A1.7647
G1 X127.955 Y69.837 A1.77958
G1 X128.205 Y70.003 A1.78894
G1 X129.139 Y70.645 A1.82428
G1 X129.261 Y70.73 A1.82891
G1 X129.629 Y70.992 A1.843
G1 X129.731 Y71.066 A1.84693
G1 X130.192 Y71.404 A1.86475
G1 X130.423 Y71.579 A1.87379
G1 X131.201 Y72.189 A1.90461
G1 X131.324 Y72.288 A1.90954
G1 X131.719 Y72.609 A1.92541
G1 X131.808 Y72.682 A1.929
G1 X132.242 Y73.044 A1.94662
G1 X132.464 Y73.235 A1.95575
G1 X133.27 Y73.953 A1.98941
G1 X133.395 Y74.067 A1.99468
G1 X133.769 Y74.413 A2.01057
G1 X133.847 Y74.485 A2.01388
G1 X134.208 Y74.827 A2.02939
G1 X134.428 Y75.043 A2.039
G1 X135.179 Y75.805 A2.07236
G1 X135.279 Y75.908 A2.07684
G1 X135.595 Y76.239 A2.09111
G1 X135.68 Y76.329 A2.09497
G1 X136.084 Y76.764 A2.11348
G1 X136.289 Y76.993 A2.12306
G1 X136.974 Y77.783 A2.15567
G1 X137.061 Y77.885 A2.15985
G1 X137.379 Y78.263 A2.17525
G1 X137.466 Y78.368 A2.1795
G1 X137.807 Y78.786 A2.19632
G1 X137.988 Y79.016 A2.20545
G1 X138.622 Y79.847 A2.23804
G1 X138.71 Y79.964 A2.2426
G1 X139.036 Y80.406 A2.25973
G1 X139.114 Y80.513 A2.26386
G1 X139.395 Y80.906 A2.27892
G1 X139.558 Y81.143 A2.28789
G1 X140.141 Y82.016 A2.32063
G1 X140.23 Y82.152 A2.32569
G1 X140.508 Y82.585 A2.34174
G1 X140.573 Y82.686 A2.34548
G1 X140.861 Y83.148 A2.36246
G1 X141.009 Y83.394 A2.37141
G1 X141.535 Y84.301 A2.4041
G1 X141.615 Y84.442 A2.40916
G1 X141.888 Y84.933 A2.42668
G1 X141.951 Y85.048 A2.43077
G1 X142.175 Y85.465 A2.44553
G1 X142.303 Y85.713 A2.45423
G1 X142.77 Y86.651 A2.4869
G1 X142.838 Y86.792 A2.49178
G1 X143.049 Y87.235 A2.50708
G1 X143.106 Y87.356 A2.51125
G1 X143.347 Y87.882 A2.52929
G1 X143.461 Y88.141 A2.53812
G1 X143.856 Y89.08 A2.56988
G1 X143.911 Y89.214 A2.5744
G1 X144.126 Y89.749 A2.59238
G1 X144.175 Y89.874 A2.59656
G1 X144.345 Y90.316 A2.61133
G1 X144.446 Y90.593 A2.62052
G1 X144.79 Y91.583 A2.6532
G1 X144.84 Y91.729 A2.65801
G1 X144.994 Y92.198 A2.67341
G1 X145.031 Y92.313 A2.67717
G1 X145.19 Y92.82 A2.69374
G1 X145.272 Y93.097 A2.70275
G1 X145.568 Y94.159 A2.73713
G1 X145.612 Y94.324 A2.74245
G1 X145.737 Y94.808 A2.75804
G1 X145.763 Y94.913 A2.76141
G1 X145.888 Y95.422 A2.77775
G1 X145.956 Y95.717 A2.78719
G1 X146.171 Y96.74 A2.81979
G1 X146.197 Y96.871 A2.82395
G1 X146.286 Y97.328 A2.83847
G1 X146.314 Y97.479 A2.84326
G1 X146.416 Y98.055 A2.8615
G1 X146.46 Y98.326 A2.87006
G1 X146.612 Y99.369 A2.90293
G1 X146.632 Y99.514 A2.90749
G1 X146.694 Y99.994 A2.92258
G1 X146.711 Y100.139 A2.92713
G1 X146.775 Y100.707 A2.94496
G1 X146.803 Y100.989 A2.95379
G1 X146.884 Y101.99 A2.98511
G1 X146.895 Y102.14 A2.9898
G1 X146.93 Y102.686 A3.00686
G1 X146.936 Y102.805 A3.01057
G1 X146.961 Y103.297 A3.02593
G1 X146.972 Y103.599 A3.03536
G1 X146.991 Y104.703 A3.06979
G1 X146.992 Y104.858 A3.07462
G1 X146.992 Y105.331 A3.08937
G1 X146.991 Y105.461 A3.09342
G1 X146.983 Y106.014 A3.11067
G1 X146.974 Y106.297 A3.1195
G1 X146.927 Y107.319 A3.1514
G1 X146.919 Y107.468 A3.15605
G1 X146.887 Y107.979 A3.17202
G1 X146.877 Y108.121 A3.17645
G1 X146.834 Y108.669 A3.19359
G1 X146.808 Y108.947 A3.2023
G1 X146.692 Y110.004 A3.23546
G1 X146.673 Y110.166 A3.24054
G1 X146.612 Y110.642 A3.25551
G1 X146.597 Y110.757 A3.25912
G1 X146.522 Y111.288 A3.27584
G1 X146.475 Y111.582 A3.28513
G1 X146.286 Y112.661 A3.31928
G1 X146.258 Y112.813 A3.3241
G1 X146.17 Y113.269 A3.33859
G1 X146.147 Y113.383 A3.34221
G1 X146.031 Y113.945 A3.3601
G1 X145.967 Y114.231 A3.36924
G1 X145.737 Y115.187 A3.3999
G1 X145.7 Y115.338 A3.40475
G1 X145.562 Y115.871 A3.42192
G1 X145.528 Y115.998 A3.42602
G1 X145.397 Y116.475 A3.44144
G1 X145.319 Y116.743 A3.45015
G1 X144.992 Y117.804 A3.48476
G1 X144.937 Y117.975 A3.49037
G1 X144.796 Y118.402 A3.50439
G1 X144.764 Y118.498 A3.50754
G1 X144.569 Y119.067 A3.5263
G1 X144.468 Y119.347 A3.53558
G1 X144.116 Y120.273 A3.56647
G1 X144.054 Y120.431 A3.57176
G1 X143.847 Y120.946 A3.58907
G1 X143.801 Y121.057 A3.59281
G1 X143.614 Y121.505 A3.60795
G1 X143.505 Y121.757 A3.61651
G1 X143.039 Y122.784 A3.65168
G1 X142.965 Y122.942 A3.65712
G1 X142.776 Y123.338 A3.6708
G1 X142.726 Y123.441 A3.67437
G1 X142.475 Y123.95 A3.69207
G1 X142.346 Y124.202 A3.7009
G1 X141.858 Y125.118 A3.73326
G1 X141.776 Y125.268 A3.73859
G1 X141.519 Y125.729 A3.75505
G1 X141.46 Y125.833 A3.75877
G1 X141.207 Y126.273 A3.7746
G1 X141.063 Y126.516 A3.78341
G1 X140.498 Y127.431 A3.81694
G1 X140.41 Y127.57 A3.82207
G1 X140.147 Y127.979 A3.83723
G1 X140.084 Y128.076 A3.84084
G1 X139.791 Y128.519 A3.8574
G1 X139.622 Y128.764 A3.86668
G1 X139.005 Y129.633 A3.89991
G1 X138.913 Y129.761 A3.90483
G1 X138.608 Y130.175 A3.92086
G1 X138.525 Y130.286 A3.92518
G1 X138.204 Y130.708 A3.94172
G1 X138.037 Y130.92 A3.95013
G1 X137.384 Y131.727 A3.9825
G1 X137.28 Y131.854 A3.98762
G1 X136.981 Y132.21 A4.00212
G1 X136.904 Y132.3 A4.00581
G1 X136.509 Y132.758 A4.02467
G1 X136.315 Y132.976 A4.03377
G1 X135.607 Y133.745 A4.06636
G1 X135.498 Y133.862 A4.07135
G1 X135.166 Y134.21 A4.08634
G1 X135.074 Y134.305 A4.09047
G1 X134.681 Y134.705 A4.10795
G1 X134.487 Y134.896 A4.11644
G1 X133.75 Y135.602 A4.14826
G1 X133.643 Y135.702 A4.15283
G1 X133.258 Y136.059 A4.1692
G1 X133.145 Y136.163 A4.17399
G1 X132.741 Y136.525 A4.19091
G1 X132.531 Y136.708 A4.19959
G1 X131.754 Y137.362 A4.23126
G1 X131.636 Y137.459 A4.23602
G1 X131.224 Y137.794 A4.25258
G1 X131.119 Y137.878 A4.25677
G1 X130.684 Y138.221 A4.27405
G1 X130.461 Y138.391 A4.28279
G1 X129.629 Y139.006 A4.31505
G1 X129.508 Y139.094 A4.31972
G1 X129.092 Y139.391 A4.33565
G1 X128.969 Y139.477 A4.34033
G1 X128.551 Y139.765 A4.35616
G1 X128.327 Y139.915 A4.36457
G1 X127.404 Y140.511 A4.39883
G1 X127.261 Y140.602 A4.40411
G1 X126.867 Y140.846 A4.41856
G1 X126.765 Y140.907 A4.42227
G1 X126.281 Y141.198 A4.43988
G1 X126.034 Y141.341 A4.44878
G1 X125.116 Y141.854 A4.48157
G1 X124.985 Y141.926 A4.48623
G1 X124.501 Y142.186 A4.50336
G1 X124.371 Y142.255 A4.50795
G1 X123.972 Y142.461 A4.52195
G1 X123.729 Y142.582 A4.53042
G1 X122.741 Y143.055 A4.56457
G1 X122.595 Y143.123 A4.56959
G1 X122.155 Y143.324 A4.58468
G1 X122.034 Y143.379 A4.58882
G1 X121.533 Y143.599 A4.60588
G1 X121.271 Y143.708 A4.61473
G1 X120.281 Y144.106 A4.648
G1 X120.136 Y144.163 A4.65286
G1 X119.678 Y144.338 A4.66815
G1 X119.573 Y144.378 A4.67165
G1 X119.07 Y144.563 A4.68836
G1 X118.786 Y144.662 A4.69774
G1 X117.781 Y144.994 A4.73074
G1 X117.627 Y145.043 A4.73578
G1 X117.115 Y145.202 A4.7525
G1 X116.99 Y145.24 A4.75657
G1 X116.542 Y145.372 A4.77114
G1 X116.27 Y145.447 A4.77994
G1 X115.197 Y145.727 A4.81451
G1 X115.045 Y145.766 A4.81941
G1 X114.554 Y145.885 A4.83516
G1 X114.455 Y145.908 A4.83833
G1 X113.943 Y146.026 A4.85471
G1 X113.623 Y146.094 A4.86491
G1 X112.615 Y146.288 A4.89692
G1 X112.491 Y146.311 A4.90085
G1 X111.974 Y146.403 A4.91723
G1 X111.826 Y146.428 A4.92191
G1 X111.316 Y146.51 A4.93801
G1 X111.046 Y146.549 A4.94652
G1 X109.968 Y146.689 A4.98042
G1 X109.801 Y146.709 A4.98566
G1 X109.359 Y146.758 A4.99953
G1 X109.239 Y146.771 A5.00329
G1 X108.633 Y146.83 A5.02228
G1 X108.351 Y146.853 A5.0311
G1 X107.362 Y146.918 A5.062
G1 X107.198 Y146.927 A5.06713
G1 X106.692 Y146.951 A5.08292
G1 X106.565 Y146.956 A5.08688
G1 X105.993 Y146.975 A5.10473
G1 X105.711 Y146.98 A5.11352
G1 X104.674 Y146.982 A5.14586
G1 X104.519 Y146.981 A5.15069
G1 X103.997 Y146.973 A5.16697
G1 X103.863 Y146.97 A5.17115
G1 X103.334 Y146.954 A5.18765
G1 X103.049 Y146.941 A5.19655
G1 X102.017 Y146.877 A5.22879
G1 X101.858 Y146.865 A5.23376
G1 X101.319 Y146.822 A5.25062
G1 X101.204 Y146.813 A5.25422
G1 X100.697 Y146.766 A5.2701
G1 X100.399 Y146.733 A5.27944
G1 X99.355 Y146.601 A5.31226
G1 X99.211 Y146.582 A5.31679
G1 X98.756 Y146.517 A5.33112
G1 X98.62 Y146.496 A5.33541
G1 X98.027 Y146.402 A5.35413
G1 X97.753 Y146.354 A5.3628
G1 X96.734 Y146.16 A5.39515
G1 X96.566 Y146.126 A5.40049
G1 X96.057 Y146.019 A5.41671
G1 X95.937 Y145.994 A5.42053
G1 X95.438 Y145.882 A5.43648
G1 X95.167 Y145.816 A5.44518
G1 X94.125 Y145.548 A5.47873
G1 X93.96 Y145.504 A5.48405
G1 X93.506 Y145.378 A5.49874
G1 X93.396 Y145.347 A5.50231
G1 X92.857 Y145.19 A5.51981
G1 X92.576 Y145.103 A5.52898
G1 X91.57 Y144.774 A5.56199
G1 X91.427 Y144.726 A5.56669
G1 X90.996 Y144.577 A5.58091
G1 X90.881 Y144.536 A5.58472
G1 X90.316 Y144.332 A5.60345
G1 X90.039 Y144.227 A5.61268
G1 X89.111 Y143.857 A5.64383
G1 X88.968 Y143.799 A5.64865
G1 X88.445 Y143.58 A5.66633
G1 X88.316 Y143.525 A5.6707
G1 X87.863 Y143.327 A5.68611
G1 X87.617 Y143.215 A5.69454
G1 X86.658 Y142.761 A5.72763
G1 X86.52 Y142.694 A5.73241
G1 X86.067 Y142.47 A5.74817
G1 X85.947 Y142.409 A5.75237
G1 X85.493 Y142.176 A5.76828
G1 X85.237 Y142.04 A5.77732
G1 X84.265 Y141.501 A5.81197
G1 X84.126 Y141.422 A5.81696
G1 X83.735 Y141.196 A5.83104
G1 X83.622 Y141.13 A5.83512
G1 X83.13 Y140.836 A5.85299
G1 X82.902 Y140.695 A5.86135
G1 X82.055 Y140.154 A5.89269
G1 X81.912 Y140.06 A5.89803
G1 X81.466 Y139.763 A5.91473
G1 X81.364 Y139.695 A5.91856
G1 X80.909 Y139.383 A5.93576
G1 X80.677 Y139.218 A5.94464
G1 X79.867 Y138.624 A5.97596
G1 X79.737 Y138.526 A5.98103
G1 X79.301 Y138.194 A5.99812
G1 X79.199 Y138.116 A6.00212
G1 X78.782 Y137.789 A6.01865
G1 X78.567 Y137.614 A6.02729
G1 X77.784 Y136.96 A6.0591
G1 X77.664 Y136.859 A6.06399
G1 X77.241 Y136.493 A6.08144
G1 X77.124 Y136.39 A6.0863
G1 X76.768 Y136.071 A6.1012
G1 X76.58 Y135.897 A6.10919
G1 X75.781 Y135.139 A6.14353
G1 X75.662 Y135.025 A6.14867
G1 X75.346 Y134.714 A6.16249
G1 X75.242 Y134.61 A6.16708
G1 X74.826 Y134.187 A6.18558
G1 X74.647 Y133.999 A6.19367
G1 X73.936 Y133.233 A6.22626
G1 X73.824 Y133.111 A6.23143
G1 X73.493 Y132.741 A6.24691
G1 X73.405 Y132.641 A6.25106
G1 X73.049 Y132.231 A6.26799
G1 X72.875 Y132.024 A6.27642
G1 X72.219 Y131.221 A6.30875
G1 X72.116 Y131.093 A6.31388
G1 X71.791 Y130.68 A6.33026
G1 X71.706 Y130.57 A6.3346
G1 X71.395 Y130.162 A6.3506
G1 X71.23 Y129.938 A6.35927
G1 X70.597 Y129.052 A6.39322
G1 X70.503 Y128.917 A6.39835
G1 X70.235 Y128.527 A6.41311
G1 X70.168 Y128.43 A6.41678
G1 X69.854 Y127.96 A6.43441
G1 X69.694 Y127.711 A6.44364
G1 X69.17 Y126.868 A6.47459
G1 X69.095 Y126.745 A6.47908
G1 X68.791 Y126.238 A6.49751
G1 X68.718 Y126.113 A6.50203
G1 X68.488 Y125.715 A6.51636
G1 X68.357 Y125.481 A6.52472
G1 X67.844 Y124.529 A6.55844
G1 X67.769 Y124.387 A6.56345
G1 X67.543 Y123.949 A6.57882
G1 X67.482 Y123.828 A6.58304
G1 X67.231 Y123.323 A6.60063
G1 X67.111 Y123.074 A6.60925
G1 X66.682 Y122.14 A6.6413
G1 X66.609 Y121.975 A6.64692
G1 X66.424 Y121.55 A6.66137
G1 X66.384 Y121.457 A6.66453
G1 X66.149 Y120.9 A6.68338
G1 X66.041 Y120.633 A6.69236
G1 X65.677 Y119.687 A6.72397
G1 X65.616 Y119.524 A6.7294
G1 X65.435 Y119.025 A6.74595
G1 X65.396 Y118.915 A6.74959
G1 X65.223 Y118.418 A6.766
G1 X65.134 Y118.149 A6.77483
G1 X64.818 Y117.14 A6.8078
G1 X64.77 Y116.981 A6.81298
G1 X64.622 Y116.476 A6.82939
G1 X64.587 Y116.354 A6.83334
G1 X64.452 Y115.868 A6.84907
G1 X64.381 Y115.593 A6.85793
G1 X64.122 Y114.532 A6.89198
G1 X64.086 Y114.378 A6.89691
G1 X63.98 Y113.908 A6.91194
G1 X63.957 Y113.803 A6.91529
G1 X63.846 Y113.282 A6.9319
G1 X63.785 Y112.974 A6.94169
G1 X63.605 Y111.956 A6.97393
G1 X63.581 Y111.808 A6.9786
G1 X63.493 Y111.257 A6.996
G1 X63.475 Y111.139 A6.99972
G1 X63.404 Y110.653 A7.01504
G1 X63.366 Y110.366 A7.02406
G1 X63.249 Y109.334 A7.05645
G1 X63.232 Y109.172 A7.06153
G1 X63.183 Y108.657 A7.07766
G1 X63.173 Y108.534 A7.08151
G1 X63.128 Y107.98 A7.09884
G1 X63.109 Y107.693 A7.10781
G1 X63.058 Y106.655 A7.14021
G1 X63.052 Y106.498 A7.14511
G1 X63.035 Y105.961 A7.16186
G1 X63.032 Y105.844 A7.16551
G1 X63.023 Y105.361 A7.18058
G1 X63.022 Y105.067 A7.18974
G1 X63.037 Y103.997 A7.22311
G1 X63.041 Y103.83 A7.22832
G1 X63.057 Y103.339 A7.24364
G1 X63.062 Y103.215 A7.24751
G1 X63.088 Y102.655 A7.26499
G1 X63.105 Y102.381 A7.27355
G1 X63.185 Y101.342 A7.30604
G1 X63.199 Y101.17 A7.31142
G1 X63.249 Y100.651 A7.32768
G1 X63.262 Y100.528 A7.33154
G1 X63.32 Y100.002 A7.34804
G1 X63.356 Y99.721 A7.35687
G1 X63.502 Y98.694 A7.38922
G1 X63.525 Y98.542 A7.39401
G1 X63.613 Y97.991 A7.41141
G1 X63.637 Y97.847 A7.41596
G1 X63.722 Y97.365 A7.43122
G1 X63.773 Y97.1 A7.43964
G1 X63.986 Y96.073 A7.47234
G1 X64.019 Y95.918 A7.47728
G1 X64.122 Y95.462 A7.49186
G1 X64.152 Y95.335 A7.49593
G1 X64.288 Y94.771 A7.51402
G1 X64.358 Y94.5 A7.52275
G1 X64.643 Y93.461 A7.55634
