; generated by PrusaSlicer 2.0.0+win64 on 2019-06-09 at 09:20:08

; 

; external perimeters extrusion width = 2.80mm
; perimeters extrusion width = 2.80mm
; infill extrusion width = 2.80mm
; solid infill extrusion width = 2.80mm
; top infill extrusion width = 2.80mm
; first layer extrusion width = 3.00mm

M107
M107
g92 z0
g1 f1000 z-310
g92 x0 y0 a0 z0
; Filament gcode
G21 ; set units to millimeters
G90 ; use absolute coordinates
G1 Z4.000 F7800.000
G1 A-2.00000 F2400.00000
G1 X74.792 Y77.315 F7800.000
G1 A0.00000 F2400.00000
G1 F1800
G1 X76.316 Y75.996 A0.87927
G1 X77.919 Y74.775 A1.75855
G1 X79.441 Y73.757 A2.55758
G1 X81.549 Y72.536 A3.62009
G1 X83.215 Y71.714 A4.43059
G1 X84.897 Y71.006 A5.22676
G1 X87.204 Y70.207 A6.29213
G1 X88.990 Y69.717 A7.09976
G1 X90.936 Y69.309 A7.96758
G1 X93.192 Y68.993 A8.96139
G1 X95.018 Y68.852 A9.76043
G1 X96.941 Y68.819 A10.59959
G1 X99.289 Y68.936 A11.62489
G1 X101.121 Y69.145 A12.42965
G1 X103.093 Y69.493 A13.30320
G1 X105.300 Y70.039 A14.29503
G1 X107.046 Y70.586 A15.09317
G1 X108.940 Y71.311 A15.97818
G1 X110.768 Y72.145 A16.85458
G1 X112.384 Y73.007 A17.65362
G1 X114.324 Y74.199 A18.64742
G1 X115.950 Y75.357 A19.51811
G1 X117.389 Y76.522 A20.32574
G1 X119.169 Y78.165 A21.38252
G1 X120.439 Y79.502 A22.18730
G1 X121.623 Y80.908 A22.98920
G1 X122.980 Y82.738 A23.98300
G1 X124.048 Y84.400 A24.84510
G1 X124.954 Y86.022 A25.65559
G1 X126.006 Y88.235 A26.72472
G1 X126.677 Y89.923 A27.51713
G1 X127.260 Y91.687 A28.32762
G1 X127.867 Y94.041 A29.38817
G1 X128.210 Y95.838 A30.18631
G1 X128.464 Y97.837 A31.06558
G1 X128.593 Y99.848 A31.94486
G1 X128.597 Y101.680 A32.74389
G1 X128.443 Y104.130 A33.81498
G1 X128.205 Y105.966 A34.62262
G1 X127.827 Y107.926 A35.49329
G1 X127.246 Y110.128 A36.48711
G1 X126.669 Y111.873 A37.28900
G1 X125.930 Y113.720 A38.15681
G1 X124.938 Y115.780 A39.15437
G1 X124.045 Y117.377 A39.95252
G1 X122.955 Y119.072 A40.83179
G1 X121.607 Y120.886 A41.81788
G1 X120.427 Y122.284 A42.61603
G1 X119.046 Y123.733 A43.48958
G1 X117.369 Y125.268 A44.48140
G1 X115.946 Y126.419 A45.27954
G1 X114.304 Y127.587 A46.15882
G1 X112.592 Y128.650 A47.03810
G1 X110.980 Y129.519 A47.83713
G1 X108.918 Y130.472 A48.82807
G1 X107.048 Y131.187 A49.70161
G1 X105.300 Y131.735 A50.50065
G1 X103.095 Y132.280 A51.49159
G1 X101.117 Y132.629 A52.36800
G1 X99.291 Y132.837 A53.16989
G1 X96.937 Y132.954 A54.19807
G1 X95.020 Y132.921 A55.03436
G1 X93.194 Y132.780 A55.83339
G1 X90.932 Y132.463 A56.83007
G1 X88.991 Y132.057 A57.69502
G1 X87.200 Y131.565 A58.50551
G1 X84.893 Y130.765 A59.57089
G1 X83.199 Y130.051 A60.37279
G1 X81.394 Y129.156 A61.25206
G1 X79.648 Y128.149 A62.13134
G1 X78.121 Y127.138 A62.93036
G1 X76.181 Y125.665 A63.99287
G1 X74.779 Y124.446 A64.80338
G1 X73.476 Y123.169 A65.59955
G1 X71.847 Y121.349 A66.66492
G1 X70.706 Y119.892 A67.47255
G1 X69.574 Y118.248 A68.34323
G1 X68.412 Y116.289 A69.33704
G1 X67.573 Y114.654 A70.13894
G1 X66.775 Y112.831 A71.00676
G1 X66.003 Y110.680 A72.00429
G1 X65.491 Y108.923 A72.80245
G1 X65.048 Y106.957 A73.68173
G1 X64.701 Y104.724 A74.66782
G1 X64.531 Y102.902 A75.46597
G1 X64.468 Y100.888 A76.34525
G1 X64.531 Y98.873 A77.22452
G1 X64.701 Y97.050 A78.02356
G1 X65.049 Y94.812 A79.01163
G1 X65.491 Y92.852 A79.88803
G1 X66.004 Y91.087 A80.68994
G1 X66.775 Y88.944 A81.68374
G1 X67.575 Y87.116 A82.55442
G1 X68.411 Y85.486 A83.35345
G1 X69.573 Y83.527 A84.34727
G1 X70.705 Y81.883 A85.21794
G1 X71.850 Y80.420 A86.02844
G1 X73.479 Y78.601 A87.09381
G1 X74.364 Y77.735 A87.63394
G1 A85.63394 F2400.00000
G1 X110.017 Y114.580 F7800.000
G1 A87.63394 F2400.00000
G1 F1800
G1 X109.121 Y115.408 A88.16588
G1 X108.175 Y116.176 A88.69781
G1 X107.182 Y116.884 A89.22974
G1 X106.146 Y117.526 A89.76167
G1 X105.071 Y118.102 A90.29360
G1 X103.962 Y118.609 A90.82553
G1 X102.823 Y119.044 A91.35746
G1 X101.659 Y119.406 A91.88939
G1 X100.474 Y119.693 A92.42132
G1 X99.273 Y119.905 A92.95325
G1 X98.061 Y120.040 A93.48517
G1 X96.844 Y120.098 A94.01710
G1 X95.624 Y120.079 A94.54904
G1 X94.409 Y119.982 A95.08097
G1 X93.202 Y119.809 A95.61289
G1 X92.009 Y119.559 A96.14483
G1 X90.834 Y119.234 A96.67676
G1 X89.682 Y118.835 A97.20868
G1 X88.574 Y118.371 A97.73260
G1 X87.328 Y117.744 A98.34129
G1 X86.409 Y117.213 A98.80433
G1 X85.394 Y116.538 A99.33626
G1 X84.423 Y115.799 A99.86819
G1 X83.502 Y115.001 A100.40012
G1 X82.646 Y114.159 A100.92404
G1 X81.722 Y113.113 A101.53273
G1 X81.066 Y112.279 A101.99577
G1 X80.385 Y111.290 A102.51969
G1 X79.676 Y110.088 A103.12838
G1 X79.190 Y109.145 A103.59141
G1 X78.701 Y108.028 A104.12334
G1 X78.284 Y106.882 A104.65528
G1 X77.941 Y105.712 A105.18721
G1 X77.672 Y104.523 A105.71913
G1 X77.479 Y103.319 A106.25106
G1 X77.363 Y102.105 A106.78300
G1 X77.325 Y100.887 A107.31492
G1 X77.363 Y99.668 A107.84685
G1 X77.479 Y98.454 A108.37878
G1 X77.672 Y97.250 A108.91071
G1 X77.937 Y96.079 A109.43463
G1 X78.338 Y94.743 A110.04332
G1 X78.701 Y93.746 A110.50636
G1 X79.183 Y92.645 A111.03028
G1 X79.830 Y91.409 A111.63897
G1 X80.375 Y90.499 A112.10200
G1 X81.066 Y89.495 A112.63394
G1 X81.820 Y88.536 A113.16587
G1 X82.633 Y87.628 A113.69780
G1 X83.502 Y86.772 A114.22972
G1 X84.423 Y85.974 A114.76166
G1 X85.394 Y85.235 A115.29359
G1 X86.409 Y84.560 A115.82552
G1 X87.465 Y83.950 A116.35745
G1 X88.557 Y83.409 A116.88937
G1 X89.682 Y82.938 A117.42131
G1 X90.834 Y82.539 A117.95324
G1 X92.009 Y82.214 A118.48516
G1 X93.202 Y81.965 A119.01709
G1 X94.409 Y81.791 A119.54902
G1 X95.606 Y81.696 A120.07294
G1 X97.001 Y81.683 A120.68163
G1 X98.061 Y81.733 A121.14467
G1 X99.273 Y81.868 A121.67660
G1 X100.474 Y82.080 A122.20853
G1 X101.659 Y82.367 A122.74046
G1 X102.823 Y82.729 A123.27239
G1 X103.962 Y83.165 A123.80432
G1 X105.071 Y83.671 A124.33625
G1 X106.146 Y84.247 A124.86818
G1 X107.182 Y84.890 A125.40011
G1 X108.175 Y85.597 A125.93204
G1 X109.121 Y86.366 A126.46397
G1 X110.017 Y87.193 A126.99590
G1 X110.858 Y88.075 A127.52782
G1 X111.642 Y89.009 A128.05976
G1 X112.365 Y89.991 A128.59169
G1 X113.014 Y91.001 A129.11561
G1 X113.685 Y92.225 A129.72430
G1 X114.141 Y93.183 A130.18733
G1 X114.594 Y94.315 A130.71927
G1 X114.974 Y95.473 A131.25120
G1 X115.281 Y96.654 A131.78313
G1 X115.508 Y97.833 A132.30704
G1 X115.676 Y99.218 A132.91574
G1 X115.743 Y100.277 A133.37877
G1 X115.743 Y101.496 A133.91070
G1 X115.666 Y102.713 A134.44263
G1 X115.511 Y103.922 A134.97456
G1 X115.281 Y105.120 A135.50649
G1 X114.974 Y106.300 A136.03842
G1 X114.594 Y107.458 A136.57035
G1 X114.141 Y108.590 A137.10229
G1 X113.617 Y109.691 A137.63421
G1 X113.024 Y110.756 A138.16614
G1 X112.365 Y111.782 A138.69807
G1 X111.642 Y112.764 A139.23000
G1 X110.858 Y113.698 A139.76193
G1 X110.431 Y114.146 A140.03209
G1 A138.03209 F2400.00000
G1 X111.567 Y116.058 F7800.000
G1 A140.03209 F2400.00000
G1 F1800
G1 X110.524 Y117.027 A140.65294
G1 X109.472 Y117.881 A141.24419
G1 X108.369 Y118.667 A141.83544
G1 X107.217 Y119.382 A142.42669
G1 X106.022 Y120.022 A143.01794
G1 X104.790 Y120.585 A143.60919
G1 X103.524 Y121.069 A144.20044
G1 X102.230 Y121.471 A144.79168
G1 X100.913 Y121.790 A145.38293
G1 X99.578 Y122.026 A145.97418
G1 X98.231 Y122.176 A146.56543
G1 X96.878 Y122.241 A147.15668
G1 X95.523 Y122.219 A147.74793
G1 X94.172 Y122.112 A148.33918
G1 X92.830 Y121.919 A148.93043
G1 X91.504 Y121.641 A149.52168
G1 X90.197 Y121.280 A150.11293
G1 X88.917 Y120.837 A150.70417
G1 X87.678 Y120.318 A151.29038
G1 X86.310 Y119.629 A151.95839
G1 X85.279 Y119.034 A152.47778
G1 X84.151 Y118.283 A153.06903
G1 X83.072 Y117.462 A153.66028
G1 X82.048 Y116.575 A154.25153
G1 X81.090 Y115.632 A154.83773
G1 X80.077 Y114.485 A155.50574
G1 X79.341 Y113.549 A156.02513
G1 X78.579 Y112.442 A156.61134
G1 X77.801 Y111.124 A157.27935
G1 X77.255 Y110.066 A157.79873
G1 X76.712 Y108.824 A158.38998
G1 X76.248 Y107.551 A158.98123
G1 X75.867 Y106.250 A159.57248
G1 X75.568 Y104.928 A160.16373
G1 X75.354 Y103.590 A160.75498
G1 X75.225 Y102.241 A161.34623
G1 X75.182 Y100.887 A161.93748
G1 X75.225 Y99.532 A162.52873
G1 X75.354 Y98.183 A163.11998
G1 X75.568 Y96.845 A163.71123
G1 X75.864 Y95.534 A164.29743
G1 X76.305 Y94.068 A164.96544
G1 X76.712 Y92.949 A165.48483
G1 X77.251 Y91.718 A166.07104
G1 X77.961 Y90.362 A166.73904
G1 X78.572 Y89.340 A167.25843
G1 X79.341 Y88.224 A167.84969
G1 X80.179 Y87.159 A168.44093
G1 X81.082 Y86.149 A169.03218
G1 X82.048 Y85.198 A169.62343
G1 X83.072 Y84.311 A170.21468
G1 X84.151 Y83.490 A170.80593
G1 X85.279 Y82.739 A171.39718
G1 X86.453 Y82.062 A171.98843
G1 X87.667 Y81.460 A172.57967
G1 X88.917 Y80.936 A173.17093
G1 X90.198 Y80.493 A173.76217
G1 X91.504 Y80.132 A174.35342
G1 X92.830 Y79.855 A174.94467
G1 X94.172 Y79.662 A175.53592
G1 X95.511 Y79.555 A176.12212
G1 X97.042 Y79.541 A176.79013
G1 X98.231 Y79.597 A177.30953
G1 X99.578 Y79.747 A177.90077
G1 X100.913 Y79.983 A178.49202
G1 X102.230 Y80.302 A179.08327
G1 X103.524 Y80.705 A179.67452
G1 X104.790 Y81.188 A180.26577
G1 X106.022 Y81.751 A180.85702
G1 X107.217 Y82.391 A181.44827
G1 X108.369 Y83.106 A182.03952
G1 X109.472 Y83.892 A182.63076
G1 X110.524 Y84.746 A183.22201
G1 X111.520 Y85.666 A183.81326
G1 X112.455 Y86.647 A184.40451
G1 X113.326 Y87.685 A184.99576
G1 X114.130 Y88.776 A185.58701
G1 X114.856 Y89.907 A186.17322
G1 X115.592 Y91.249 A186.84122
G1 X116.104 Y92.324 A187.36061
G1 X116.607 Y93.582 A187.95186
G1 X117.030 Y94.870 A188.54311
G1 X117.371 Y96.182 A189.13436
G1 X117.625 Y97.501 A189.72056
G1 X117.809 Y99.021 A190.38858
G1 X117.885 Y100.209 A190.90797
G1 X117.885 Y101.564 A191.49921
G1 X117.799 Y102.917 A192.09046
G1 X117.627 Y104.261 A192.68171
G1 X117.371 Y105.592 A193.27296
G1 X117.030 Y106.903 A193.86421
G1 X116.607 Y108.191 A194.45546
G1 X116.104 Y109.449 A195.04671
G1 X115.521 Y110.673 A195.63796
G1 X114.862 Y111.857 A196.22921
G1 X114.130 Y112.997 A196.82045
G1 X113.326 Y114.088 A197.41171
G1 X112.455 Y115.127 A198.00296
G1 X111.981 Y115.624 A198.30277
G1 A196.30277 F2400.00000
G1 X113.117 Y117.536 F7800.000
G1 A198.30277 F2400.00000
G1 F1800
G1 X111.927 Y118.646 A199.01255
G1 X110.770 Y119.586 A199.66312
G1 X109.555 Y120.451 A200.31369
G1 X108.288 Y121.238 A200.96425
G1 X106.974 Y121.942 A201.61482
G1 X105.618 Y122.561 A202.26539
G1 X104.225 Y123.093 A202.91596
G1 X102.801 Y123.536 A203.56653
G1 X101.352 Y123.888 A204.21709
G1 X99.883 Y124.147 A204.86766
G1 X98.401 Y124.312 A205.51823
G1 X96.912 Y124.383 A206.16880
G1 X95.421 Y124.359 A206.81937
G1 X93.934 Y124.241 A207.46993
G1 X92.458 Y124.029 A208.12050
G1 X90.999 Y123.723 A208.77107
G1 X89.561 Y123.326 A209.42164
G1 X88.152 Y122.838 A210.07220
G1 X86.781 Y122.264 A210.72070
G1 X85.292 Y121.514 A211.44803
G1 X84.149 Y120.855 A212.02377
G1 X82.908 Y120.029 A212.67434
G1 X81.721 Y119.125 A213.32490
G1 X80.594 Y118.149 A213.97547
G1 X79.535 Y117.106 A214.62396
G1 X78.431 Y115.857 A215.35129
G1 X77.615 Y114.820 A215.92704
G1 X76.773 Y113.595 A216.57553
G1 X75.925 Y112.159 A217.30286
G1 X75.321 Y110.986 A217.87860
G1 X74.723 Y109.620 A218.52917
G1 X74.213 Y108.219 A219.17974
G1 X73.793 Y106.788 A219.83030
G1 X73.464 Y105.334 A220.48087
G1 X73.229 Y103.861 A221.13144
G1 X73.087 Y102.377 A221.78201
G1 X73.039 Y100.887 A222.43258
G1 X73.087 Y99.396 A223.08314
G1 X73.229 Y97.912 A223.73371
G1 X73.464 Y96.439 A224.38428
G1 X73.792 Y94.989 A225.03277
G1 X74.271 Y93.393 A225.76010
G1 X74.723 Y92.153 A226.33584
G1 X75.319 Y90.791 A226.98433
G1 X76.092 Y89.314 A227.71166
G1 X76.770 Y88.182 A228.28741
G1 X77.615 Y86.954 A228.93798
G1 X78.537 Y85.782 A229.58854
G1 X79.532 Y84.670 A230.23911
G1 X80.594 Y83.624 A230.88968
G1 X81.721 Y82.648 A231.54025
G1 X82.908 Y81.745 A232.19081
G1 X84.149 Y80.919 A232.84138
G1 X85.441 Y80.173 A233.49195
G1 X86.777 Y79.511 A234.14252
G1 X88.152 Y78.935 A234.79309
G1 X89.561 Y78.447 A235.44365
G1 X90.999 Y78.050 A236.09422
G1 X92.458 Y77.744 A236.74479
G1 X93.934 Y77.532 A237.39536
G1 X95.416 Y77.414 A238.04385
G1 X97.083 Y77.398 A238.77118
G1 X98.401 Y77.461 A239.34692
G1 X99.883 Y77.627 A239.99749
G1 X101.352 Y77.886 A240.64806
G1 X102.801 Y78.237 A241.29863
G1 X104.225 Y78.680 A241.94919
G1 X105.618 Y79.212 A242.59976
G1 X106.974 Y79.831 A243.25033
G1 X108.288 Y80.536 A243.90090
G1 X109.555 Y81.322 A244.55147
G1 X110.770 Y82.187 A245.20203
G1 X111.927 Y83.127 A245.85260
G1 X113.023 Y84.139 A246.50317
G1 X114.052 Y85.218 A247.15374
G1 X115.010 Y86.360 A247.80430
G1 X115.894 Y87.561 A248.45487
G1 X116.698 Y88.812 A249.10336
G1 X117.499 Y90.273 A249.83069
G1 X118.067 Y91.465 A250.40643
G1 X118.621 Y92.849 A251.05700
G1 X119.086 Y94.266 A251.70757
G1 X119.461 Y95.709 A252.35814
G1 X119.742 Y97.169 A253.00663
G1 X119.942 Y98.824 A253.73396
G1 X120.026 Y100.141 A254.30970
G1 X120.026 Y101.632 A254.96027
G1 X119.932 Y103.120 A255.61084
G1 X119.743 Y104.600 A256.26141
G1 X119.461 Y106.064 A256.91198
G1 X119.086 Y107.507 A257.56254
G1 X118.621 Y108.924 A258.21311
G1 X118.067 Y110.308 A258.86368
G1 X117.426 Y111.655 A259.51425
G1 X116.701 Y112.958 A260.16481
G1 X115.894 Y114.212 A260.81538
G1 X115.010 Y115.413 A261.46595
G1 X114.052 Y116.555 A262.11652
G1 X113.531 Y117.102 A262.44599
G1 X111.547 Y117.109 F7800.000
G1 A260.44599 F2400.00000
G1 X114.762 Y97.356 F7800.000
G1 A262.44599 F2400.00000
G1 F1800
G1 X101.363 Y83.958 A270.92707
G1 X100.145 Y83.653 A271.48917
G1 X99.044 Y83.459 A271.98924
G1 X97.934 Y83.335 A272.48931
G1 X97.618 Y83.320 A272.63076
G1 X114.104 Y99.805 A283.06557
G1 X114.137 Y100.328 A283.30005
G1 X114.137 Y101.445 A283.80012
G1 X114.066 Y102.560 A284.30019
G1 X114.030 Y102.839 A284.42601
G1 X94.580 Y83.389 A296.73749
G1 X93.481 Y83.547 A297.23449
G1 X92.388 Y83.776 A297.73456
G1 X91.974 Y83.890 A297.92651
G1 X113.535 Y105.451 A311.57414
G1 X113.432 Y105.847 A311.75723
G1 X113.084 Y106.909 A312.25731
G1 X112.741 Y107.764 A312.66989
G1 X89.664 Y84.687 A327.27753
G1 X89.225 Y84.871 A327.49067
G1 X88.223 Y85.367 A327.99074
G1 X87.598 Y85.728 A328.31406
G1 X111.701 Y109.831 A343.57076
G1 X111.041 Y110.871 A344.12192
G1 X110.444 Y111.682 A344.57255
G1 X85.747 Y86.985 A360.20528
G1 X85.437 Y87.221 A360.38001
G1 X84.592 Y87.953 A360.88008
G1 X84.096 Y88.441 A361.19153
G1 X108.988 Y113.332 A376.94729
G1 X108.069 Y114.193 A377.51086
G1 X107.336 Y114.788 A377.93322
G1 X82.640 Y90.092 A393.56559
G1 X82.360 Y90.447 A393.76808
G1 X81.727 Y91.368 A394.26815
G1 X81.383 Y91.942 A394.56772
G1 X105.486 Y116.045 A409.82473
G1 X104.357 Y116.662 A410.40062
G1 X103.423 Y117.089 A410.86036
G1 X80.340 Y94.006 A425.47135
G1 X80.193 Y94.343 A425.63576
G1 X79.863 Y95.249 A426.06744
G1 X79.543 Y96.316 A426.56595
G1 X101.112 Y117.886 A440.21929
G1 X100.145 Y118.120 A440.66499
G1 X99.044 Y118.314 A441.16506
G1 X98.495 Y118.376 A441.41237
G1 X79.048 Y98.928 A453.72241
G1 X78.967 Y99.770 A454.10100
G1 X78.932 Y100.887 A454.60106
G1 X78.966 Y101.953 A455.07863
G1 X95.468 Y118.455 A465.52411
G1 X94.587 Y118.385 A465.91943
G1 X93.481 Y118.226 A466.41949
G1 X92.388 Y117.997 A466.91957
G1 X91.717 Y117.812 A467.23089
G1 X78.303 Y104.397 A475.72222
G1 A473.72222 F2400.00000
G1 X79.881 Y109.082 F7800.000
G1 A475.72222 F2400.00000
G1 F1800
G1 X88.325 Y117.527 A481.06725
G1 A479.06725 F2400.00000
G1 X113.187 Y92.674 F7800.000
G1 A481.06725 F2400.00000
G1 F1800
G1 X104.738 Y84.225 A486.41536
G1 Z8.000 F7800.000
G1 A484.41536 F2400.00000
G1 X112.783 Y116.311 F7800.000
G1 A486.41536 F2400.00000
G1 F600
G1 X111.680 Y117.395 A487.02701
G1 X110.505 Y118.400 A487.63866
G1 X109.264 Y119.322 A488.25032
G1 X107.962 Y120.156 A488.86197
G1 X106.605 Y120.898 A489.47362
G1 X105.200 Y121.545 A490.08527
G1 X104.101 Y121.962 A490.55038
G1 X103.754 Y122.093 A490.69692
G1 X102.274 Y122.541 A491.30858
G1 X100.767 Y122.885 A491.92023
G1 X99.239 Y123.124 A492.53188
G1 X97.698 Y123.257 A493.14353
G1 X96.152 Y123.284 A493.75518
G1 X94.978 Y123.223 A494.22029
G1 X94.608 Y123.204 A494.36684
G1 X93.073 Y123.018 A494.97849
G1 X91.554 Y122.726 A495.59014
G1 X90.059 Y122.330 A496.20179
G1 X88.946 Y121.951 A496.66690
G1 X88.595 Y121.832 A496.81345
G1 X87.169 Y121.234 A497.42510
G1 X85.788 Y120.539 A498.03675
G1 X84.457 Y119.750 A498.64840
G1 X83.185 Y118.872 A499.26006
G1 X81.976 Y117.908 A499.87171
G1 X80.836 Y116.863 A500.48336
