; generated by PrusaSlicer 2.0.0+win64 on 2019-06-08 at 08:11:17

; 

; external perimeters extrusion width = 1.25mm
; perimeters extrusion width = 1.25mm
; infill extrusion width = 1.25mm
; solid infill extrusion width = 1.25mm
; top infill extrusion width = 1.25mm
; first layer extrusion width = 3.00mm

M107
M107
g92 z0
g1 f1000 z-310
g92 x0 y0 a0 z0
; Filament gcode
G21 ; set units to millimeters
G90 ; use absolute coordinates
G1 Z2.500 F7800.000
G1 A-2.00000 F2400.00000
G1 X14.952 Y14.158 F7800.000
G1 A0.00000 F2400.00000
G1 F1800
G1 X17.037 Y12.248 A0.45258
G1 X19.348 Y10.527 A0.91367
G1 X21.822 Y9.050 A1.37477
G1 X24.384 Y7.852 A1.82739
G1 X26.693 Y7.026 A2.21977
G1 X29.483 Y6.315 A2.68063
G1 X32.281 Y5.897 A3.13328
G1 X35.139 Y5.761 A3.59126
G1 X37.977 Y5.913 A4.04606
G1 X40.403 Y6.272 A4.43850
G1 X43.142 Y6.944 A4.88986
G1 X45.858 Y7.908 A5.35108
G1 X48.461 Y9.145 A5.81230
G1 X50.876 Y10.607 A6.26398
G1 X52.845 Y12.066 A6.65619
G1 X54.951 Y13.955 A7.10895
G1 X56.887 Y16.082 A7.56916
G1 X58.567 Y18.350 A8.02089
G1 X59.836 Y20.446 A8.41310
G1 X61.069 Y22.993 A8.86591
G1 X62.055 Y25.695 A9.32614
G1 X62.752 Y28.437 A9.77893
G1 X63.132 Y30.860 A10.17147
G1 X63.307 Y33.736 A10.63248
G1 X63.194 Y36.556 A11.08423
G1 X62.798 Y39.365 A11.53810
G1 X62.112 Y42.151 A11.99726
G1 X61.303 Y44.473 A12.39086
G1 X60.126 Y47.044 A12.84337
G1 X58.672 Y49.526 A13.30359
G1 X56.970 Y51.851 A13.76486
G1 X55.081 Y53.949 A14.21657
G1 X53.107 Y55.753 A14.64449
G1 X50.983 Y57.354 A15.07016
G1 X48.419 Y58.912 A15.55031
G1 X46.019 Y60.058 A15.97595
G1 X43.522 Y60.974 A16.40159
G1 X40.616 Y61.720 A16.88169
G1 X38.371 Y62.077 A17.24544
G1 X35.332 Y62.272 A17.73285
G1 X32.335 Y62.142 A18.21291
G1 X29.702 Y61.762 A18.63853
G1 X27.118 Y61.136 A19.06408
G1 X24.288 Y60.142 A19.54411
G1 X21.880 Y59.015 A19.96965
G1 X19.588 Y57.666 A20.39518
G1 X17.169 Y55.893 A20.87517
G1 X15.187 Y54.111 A21.30175
G1 X13.390 Y52.159 A21.72620
G1 X11.586 Y49.756 A22.20721
G1 X10.213 Y47.486 A22.63164
G1 X9.055 Y45.085 A23.05822
G1 X8.030 Y42.274 A23.53706
G1 X7.372 Y39.691 A23.96361
G1 X6.962 Y37.071 A24.38800
G1 X6.793 Y34.041 A24.87373
G1 X6.938 Y31.194 A25.32996
G1 X7.287 Y28.774 A25.72121
G1 X7.950 Y26.026 A26.17349
G1 X8.904 Y23.308 A26.63453
G1 X10.127 Y20.707 A27.09452
G1 X11.583 Y18.282 A27.54707
G1 X13.035 Y16.307 A27.93941
G1 X14.552 Y14.606 A28.30418
G1 A26.30418 F2400.00000
G1 X24.857 Y23.572 F7800.000
G1 A28.30418 F2400.00000
G1 F1800
G1 X25.268 Y23.187 A28.39444
G1 X25.984 Y22.581 A28.54447
G1 X26.610 Y22.112 A28.66963
G1 X27.204 Y21.711 A28.78425
G1 X27.680 Y21.420 A28.87352
G1 X28.395 Y21.029 A29.00407
G1 X29.039 Y20.717 A29.11857
G1 X29.552 Y20.497 A29.20784
G1 X30.317 Y20.212 A29.33852
G1 X30.967 Y20.006 A29.44763
G1 X31.883 Y19.770 A29.59896
G1 X32.403 Y19.664 A29.68398
G1 X33.354 Y19.521 A29.83778
G1 X33.915 Y19.465 A29.92806
G1 X34.487 Y19.432 A30.01981
G1 X35.306 Y19.425 A30.15084
G1 X36.018 Y19.453 A30.26488
G1 X36.598 Y19.503 A30.35798
G1 X37.157 Y19.574 A30.44827
G1 X38.080 Y19.740 A30.59827
G1 X38.846 Y19.924 A30.72429
G1 X39.528 Y20.124 A30.83809
G1 X40.047 Y20.303 A30.92596
G1 X40.909 Y20.649 A31.07452
G1 X41.747 Y21.047 A31.22309
G1 X42.215 Y21.300 A31.30812
G1 X43.036 Y21.799 A31.46196
G1 X43.503 Y22.116 A31.55225
G1 X44.447 Y22.846 A31.74334
G1 X44.872 Y23.218 A31.83363
G1 X45.561 Y23.888 A31.98748
G1 X45.923 Y24.277 A32.07252
G1 X46.520 Y24.989 A32.22110
G1 X47.071 Y25.736 A32.36968
G1 X47.365 Y26.179 A32.45472
G1 X47.854 Y27.006 A32.60857
G1 X48.116 Y27.506 A32.69888
G1 X48.357 Y28.016 A32.78918
G1 X48.724 Y28.905 A32.94304
G1 X49.080 Y29.985 A33.12501
G1 X49.284 Y30.784 A33.25703
G1 X49.419 Y31.444 A33.36487
G1 X49.556 Y32.381 A33.51636
G1 X49.606 Y32.910 A33.60140
G1 X49.647 Y33.871 A33.75526
G1 X49.643 Y34.411 A33.84170
G1 X49.596 Y35.235 A33.97375
G1 X49.521 Y35.937 A34.08683
G1 X49.437 Y36.489 A34.17617
G1 X49.273 Y37.298 A34.30820
G1 X49.099 Y37.983 A34.42129
G1 X48.930 Y38.540 A34.51450
G1 X48.744 Y39.073 A34.60481
G1 X48.382 Y39.963 A34.75867
G1 X48.153 Y40.453 A34.84511
G1 X47.768 Y41.181 A34.97703
G1 X47.407 Y41.790 A35.09023
G1 X47.087 Y42.276 A35.18342
G1 X46.758 Y42.735 A35.27373
G1 X46.159 Y43.487 A35.42757
G1 X45.805 Y43.887 A35.51314
G1 X45.153 Y44.553 A35.66221
G1 X44.808 Y44.874 A35.73769
G1 X44.147 Y45.433 A35.87616
G1 X43.768 Y45.725 A35.95269
G1 X43.084 Y46.204 A36.08642
G1 X42.392 Y46.633 A36.21669
G1 X41.769 Y46.975 A36.33031
G1 X41.223 Y47.244 A36.42782
G1 X40.461 Y47.573 A36.56067
G1 X39.796 Y47.820 A36.67416
G1 X39.215 Y48.006 A36.77179
G1 X38.421 Y48.218 A36.90333
G1 X37.632 Y48.382 A37.03230
G1 X36.806 Y48.507 A37.16601
G1 X36.301 Y48.560 A37.24727
G1 X35.227 Y48.612 A37.41923
G1 X34.199 Y48.588 A37.58385
G1 X33.264 Y48.499 A37.73415
G1 X32.522 Y48.392 A37.85418
G1 X31.531 Y48.182 A38.01629
G1 X30.726 Y47.956 A38.14998
G1 X29.964 Y47.696 A38.27893
G1 X29.209 Y47.391 A38.40924
G1 X28.570 Y47.093 A38.52201
G1 X28.025 Y46.809 A38.62032
G1 X27.317 Y46.393 A38.75177
G1 X26.646 Y45.948 A38.88071
G1 X25.976 Y45.448 A39.01439
G1 X25.607 Y45.144 A39.09090
G1 X24.986 Y44.585 A39.22458
G1 X24.413 Y44.008 A39.35488
G1 X23.944 Y43.484 A39.46737
G1 X23.549 Y43.000 A39.56733
G1 X23.121 Y42.423 A39.68223
G1 X22.777 Y41.912 A39.78087
G1 X22.337 Y41.184 A39.91700
G1 X22.109 Y40.763 A39.99351
G1 X21.745 Y40.012 A40.12718
G1 X21.435 Y39.268 A40.25611
G1 X21.156 Y38.481 A40.38977
G1 X21.017 Y38.023 A40.46627
G1 X20.812 Y37.214 A40.59994
G1 X20.657 Y36.423 A40.72887
G1 X20.542 Y35.596 A40.86253
G1 X20.468 Y34.587 A41.02445
G1 X20.461 Y33.692 A41.16762
G1 X20.482 Y33.155 A41.25367
G1 X20.571 Y32.198 A41.40744
G1 X20.647 Y31.673 A41.49243
G1 X20.832 Y30.730 A41.64620
G1 X20.961 Y30.215 A41.73120
G1 X21.242 Y29.296 A41.88497
G1 X21.434 Y28.765 A41.97523
G1 X21.648 Y28.243 A42.06548
G1 X22.056 Y27.374 A42.21925
G1 X22.311 Y26.897 A42.30578
G1 X22.729 Y26.199 A42.43592
G1 X23.127 Y25.602 A42.55081
G1 X23.457 Y25.152 A42.64007
G1 X23.970 Y24.521 A42.77030
G1 X24.437 Y24.001 A42.88209
G1 A40.88209 F2400.00000
G1 X23.136 Y21.809 F7800.000
G1 A42.88209 F2400.00000
G1 F1800
G1 X23.630 Y21.346 A42.99049
G1 X24.449 Y20.653 A43.16212
G1 X25.181 Y20.105 A43.30850
G1 X25.871 Y19.638 A43.44184
G1 X26.446 Y19.287 A43.54964
G1 X27.267 Y18.838 A43.69939
G1 X28.016 Y18.476 A43.83261
G1 X28.635 Y18.210 A43.94041
G1 X29.513 Y17.883 A44.09030
G1 X30.286 Y17.637 A44.22014
G1 X31.330 Y17.368 A44.39258
G1 X31.974 Y17.237 A44.49776
G1 X33.049 Y17.075 A44.67172
G1 X33.723 Y17.009 A44.78015
G1 X34.405 Y16.969 A44.88948
G1 X35.344 Y16.961 A45.03974
G1 X36.173 Y16.994 A45.17248
G1 X36.859 Y17.053 A45.28265
G1 X37.531 Y17.138 A45.39108
G1 X38.586 Y17.328 A45.56271
G1 X39.481 Y17.543 A45.70999
G1 X40.276 Y17.776 A45.84249
G1 X40.908 Y17.994 A45.94943
G1 X41.898 Y18.391 A46.12018
G1 X42.861 Y18.849 A46.29093
G1 X43.440 Y19.161 A46.39613
G1 X44.369 Y19.726 A46.57013
G1 X44.930 Y20.107 A46.67857
G1 X45.490 Y20.523 A46.79027
G1 X46.033 Y20.961 A46.90196
G1 X46.543 Y21.407 A47.01041
G1 X47.323 Y22.165 A47.18442
G1 X47.771 Y22.647 A47.28962
G1 X48.456 Y23.464 A47.46039
G1 X49.090 Y24.323 A47.63116
G1 X49.453 Y24.871 A47.73637
G1 X50.007 Y25.807 A47.91039
G1 X50.321 Y26.407 A48.01884
G1 X50.611 Y27.020 A48.12730
G1 X51.025 Y28.025 A48.30132
G1 X51.251 Y28.664 A48.40978
G1 X51.452 Y29.317 A48.51909
G1 X51.686 Y30.233 A48.67038
G1 X51.847 Y31.020 A48.79892
G1 X52.003 Y32.087 A48.97149
G1 X52.064 Y32.741 A49.07670
G1 X52.111 Y33.828 A49.25073
G1 X52.106 Y34.491 A49.35680
G1 X52.052 Y35.435 A49.50811
G1 X51.965 Y36.253 A49.63987
G1 X51.864 Y36.920 A49.74774
G1 X51.676 Y37.846 A49.89903
G1 X51.473 Y38.644 A50.03081
G1 X51.273 Y39.304 A50.14106
G1 X51.050 Y39.944 A50.24952
G1 X50.640 Y40.951 A50.42354
G1 X50.359 Y41.551 A50.52962
G1 X49.917 Y42.386 A50.68079
G1 X49.497 Y43.095 A50.81268
G1 X49.119 Y43.671 A50.92292
G1 X48.724 Y44.222 A51.03137
G1 X48.046 Y45.072 A51.20539
G1 X47.609 Y45.566 A51.31092
G1 X46.873 Y46.318 A51.47935
G1 X46.442 Y46.718 A51.57338
G1 X45.695 Y47.350 A51.73000
G1 X45.227 Y47.711 A51.82468
G1 X44.440 Y48.262 A51.97837
G1 X43.635 Y48.761 A52.12993
G1 X42.908 Y49.160 A52.26268
G1 X42.257 Y49.481 A52.37883
G1 X41.378 Y49.860 A52.53198
G1 X40.601 Y50.149 A52.66460
G1 X39.909 Y50.371 A52.78087
G1 X38.990 Y50.616 A52.93321
G1 X38.067 Y50.808 A53.08396
G1 X37.118 Y50.951 A53.23763
G1 X36.511 Y51.015 A53.33522
G1 X35.257 Y51.076 A53.53620
G1 X34.030 Y51.046 A53.73266
G1 X32.971 Y50.946 A53.90278
G1 X32.112 Y50.822 A54.04178
G1 X30.920 Y50.569 A54.23668
G1 X29.996 Y50.310 A54.39033
G1 X29.104 Y50.006 A54.54106
G1 X28.226 Y49.651 A54.69262
G1 X27.479 Y49.303 A54.82450
G1 X26.831 Y48.965 A54.94147
G1 X26.011 Y48.483 A55.09373
G1 X25.226 Y47.962 A55.24445
G1 X24.457 Y47.388 A55.39809
G1 X24.000 Y47.012 A55.49274
G1 X23.287 Y46.370 A55.64637
G1 X22.619 Y45.698 A55.79793
G1 X22.071 Y45.085 A55.92950
G1 X21.604 Y44.514 A56.04760
G1 X21.109 Y43.846 A56.18064
G1 X20.700 Y43.238 A56.29794
G1 X20.199 Y42.408 A56.45309
G1 X19.917 Y41.888 A56.54774
G1 X19.498 Y41.024 A56.70136
G1 X19.136 Y40.155 A56.85206
G1 X18.815 Y39.250 A57.00569
G1 X18.643 Y38.684 A57.10033
G1 X18.407 Y37.754 A57.25395
G1 X18.226 Y36.830 A57.40465
G1 X18.094 Y35.879 A57.55827
G1 X18.005 Y34.665 A57.75303
G1 X17.997 Y33.652 A57.91515
G1 X18.024 Y32.991 A58.02095
G1 X18.123 Y31.909 A58.19488
G1 X18.217 Y31.259 A58.30003
G1 X18.427 Y30.192 A58.47396
G1 X18.587 Y29.555 A58.57911
G1 X18.904 Y28.516 A58.75304
G1 X19.135 Y27.879 A58.86144
G1 X19.391 Y27.252 A58.96983
G1 X19.854 Y26.268 A59.14376
G1 X20.166 Y25.684 A59.24986
G1 X20.645 Y24.883 A59.39920
G1 X21.109 Y24.188 A59.53281
G1 X21.507 Y23.645 A59.64059
G1 X22.096 Y22.921 A59.79002
G1 X22.715 Y22.237 A59.93761
G1 A57.93761 F2400.00000
G1 X21.379 Y20.082 F7800.000
G1 A59.93761 F2400.00000
G1 F1800
G1 X21.991 Y19.505 A60.07221
G1 X22.914 Y18.726 A60.26544
G1 X23.751 Y18.097 A60.43303
G1 X24.539 Y17.565 A60.58510
G1 X25.212 Y17.154 A60.71142
G1 X26.139 Y16.648 A60.88038
G1 X26.993 Y16.234 A61.03231
G1 X27.719 Y15.923 A61.15864
G1 X28.709 Y15.553 A61.32775
G1 X29.606 Y15.268 A61.47832
G1 X30.777 Y14.967 A61.67187
G1 X31.544 Y14.811 A61.79721
G1 X32.744 Y14.630 A61.99134
G1 X33.531 Y14.552 A62.11791
G1 X34.323 Y14.507 A62.24482
G1 X35.382 Y14.497 A62.41430
G1 X36.327 Y14.535 A62.56576
G1 X37.120 Y14.603 A62.69299
G1 X37.904 Y14.702 A62.81957
G1 X39.093 Y14.916 A63.01283
G1 X40.117 Y15.162 A63.18135
G1 X41.023 Y15.428 A63.33256
G1 X41.768 Y15.684 A63.45858
G1 X42.887 Y16.134 A63.65151
G1 X43.975 Y16.651 A63.84444
G1 X44.665 Y17.023 A63.96980
G1 X45.702 Y17.653 A64.16397
G1 X46.356 Y18.098 A64.29057
G1 X46.998 Y18.573 A64.41839
G1 X47.619 Y19.075 A64.54621
G1 X48.214 Y19.596 A64.67281
G1 X49.085 Y20.442 A64.86699
G1 X49.618 Y21.016 A64.99236
G1 X50.393 Y21.940 A65.18531
G1 X51.109 Y22.910 A65.37827
G1 X51.542 Y23.563 A65.50364
G1 X52.159 Y24.607 A65.69783
G1 X52.527 Y25.308 A65.82443
G1 X52.865 Y26.023 A65.95104
G1 X53.327 Y27.145 A66.14523
G1 X53.591 Y27.891 A66.27184
G1 X53.824 Y28.649 A66.39877
G1 X54.088 Y29.682 A66.56932
G1 X54.274 Y30.595 A66.71857
G1 X54.449 Y31.793 A66.91221
G1 X54.523 Y32.573 A67.03759
G1 X54.575 Y33.785 A67.23178
G1 X54.569 Y34.570 A67.35749
G1 X54.508 Y35.635 A67.52807
G1 X54.409 Y36.570 A67.67852
G1 X54.290 Y37.350 A67.80490
G1 X54.078 Y38.395 A67.97545
G1 X53.847 Y39.306 A68.12592
G1 X53.616 Y40.067 A68.25321
G1 X53.355 Y40.814 A68.37982
G1 X52.897 Y41.938 A68.57401
G1 X52.564 Y42.649 A68.69971
G1 X52.067 Y43.591 A68.87015
G1 X51.587 Y44.400 A69.02073
G1 X51.150 Y45.065 A69.14801
G1 X50.689 Y45.708 A69.27461
G1 X49.933 Y46.657 A69.46879
G1 X49.413 Y47.244 A69.59429
G1 X48.593 Y48.083 A69.78207
G1 X48.077 Y48.562 A69.89466
G1 X47.243 Y49.267 A70.06943
G1 X46.685 Y49.697 A70.18226
G1 X45.796 Y50.319 A70.35591
G1 X44.878 Y50.889 A70.52876
G1 X44.046 Y51.345 A70.68064
G1 X43.290 Y51.718 A70.81544
G1 X42.295 Y52.148 A70.98888
G1 X41.406 Y52.477 A71.14063
G1 X40.604 Y52.735 A71.27555
G1 X39.558 Y53.014 A71.44868
G1 X38.503 Y53.234 A71.62121
G1 X37.430 Y53.396 A71.79484
G1 X36.722 Y53.470 A71.90876
G1 X36.005 Y53.518 A72.02379
G1 X35.286 Y53.540 A72.13881
G1 X34.568 Y53.535 A72.25383
G1 X33.860 Y53.505 A72.36715
G1 X32.679 Y53.393 A72.55708
G1 X31.702 Y53.251 A72.71505
G1 X31.003 Y53.117 A72.82887
G1 X30.310 Y52.956 A72.94278
G1 X29.265 Y52.663 A73.11640
G1 X28.245 Y52.316 A73.28890
G1 X27.244 Y51.911 A73.46172
G1 X26.389 Y51.513 A73.61269
G1 X25.637 Y51.121 A73.74832
G1 X24.705 Y50.573 A73.92140
G1 X23.807 Y49.977 A74.09389
G1 X22.938 Y49.328 A74.26749
G1 X22.393 Y48.880 A74.38028
G1 X21.587 Y48.154 A74.55387
G1 X20.826 Y47.388 A74.72668
G1 X20.198 Y46.686 A74.87734
G1 X19.660 Y46.027 A75.01358
G1 X19.097 Y45.268 A75.16476
G1 X18.622 Y44.564 A75.30073
G1 X18.060 Y43.632 A75.47489
G1 X17.724 Y43.012 A75.58767
G1 X17.252 Y42.036 A75.76125
G1 X16.836 Y41.042 A75.93373
G1 X16.474 Y40.019 A76.10731
G1 X16.269 Y39.345 A76.22009
G1 X16.003 Y38.294 A76.39367
G1 X15.796 Y37.236 A76.56614
G1 X15.647 Y36.162 A76.73971
G1 X15.581 Y35.453 A76.85360
G1 X15.542 Y34.743 A76.96736
G1 X15.533 Y33.612 A77.14843
G1 X15.565 Y32.828 A77.27398
G1 X15.676 Y31.620 A77.46806
G1 X15.788 Y30.845 A77.59337
G1 X16.022 Y29.655 A77.78746
G1 X16.212 Y28.896 A77.91277
G1 X16.567 Y27.736 A78.10685
G1 X16.836 Y26.992 A78.23339
G1 X17.135 Y26.260 A78.35993
G1 X17.652 Y25.163 A78.55402
G1 X18.022 Y24.470 A78.67969
G1 X18.562 Y23.567 A78.84822
G1 X19.090 Y22.775 A79.00055
G1 X19.558 Y22.139 A79.12686
G1 X20.222 Y21.321 A79.29548
G1 X20.958 Y20.510 A79.47082
G1 X22.192 Y20.299 F7800.000
G1 A77.47082 F2400.00000
G1 X22.163 Y39.094 F7800.000
G1 A79.47082 F2400.00000
G1 F1800
G1 X26.813 Y43.744 A80.55637
G1 X27.710 Y44.437 A80.74344
G1 X28.297 Y44.826 A80.85961
G1 X28.921 Y45.193 A80.97909
G1 X29.388 Y45.436 A81.06606
G1 X29.945 Y45.696 A81.16761
G1 X30.608 Y45.964 A81.28557
G1 X31.274 Y46.191 A81.40174
G1 X31.972 Y46.387 A81.52140
G1 X32.846 Y46.572 A81.66884
G1 X33.300 Y46.638 A81.74458
G1 X22.432 Y35.769 A84.28175
G1 X22.381 Y35.401 A84.34317
G1 X22.315 Y34.511 A84.49038
G1 X22.308 Y33.723 A84.62058
G1 X22.327 Y33.278 A84.69406
G1 X22.440 Y32.183 A84.87566
G1 X36.883 Y46.627 A88.24741
G1 X37.305 Y46.563 A88.31789
G1 X37.994 Y46.420 A88.43407
G1 X38.694 Y46.233 A88.55366
G1 X39.725 Y45.875 A88.73378
G1 X23.194 Y29.344 A92.59303
G1 X23.340 Y28.987 A92.65667
G1 X23.708 Y28.203 A92.79969
G1 X23.920 Y27.807 A92.87380
G1 X24.426 Y26.983 A93.03344
G1 X42.088 Y44.645 A97.15655
G1 X42.986 Y43.995 A97.33947
G1 X43.582 Y43.491 A97.46826
G1 X44.063 Y43.026 A97.57877
G1 X26.046 Y25.009 A101.78461
G1 X26.512 Y24.555 A101.89202
G1 X27.136 Y24.027 A102.02690
G1 X27.682 Y23.618 A102.13958
G1 X28.020 Y23.389 A102.20691
G1 X45.676 Y41.046 A106.32871
G1 X45.849 Y40.795 A106.37897
G1 X46.155 Y40.278 A106.47821
G1 X46.498 Y39.629 A106.59938
G1 X46.688 Y39.223 A106.67336
G1 X46.908 Y38.684 A106.76944
G1 X30.383 Y22.159 A110.62699
G1 X30.920 Y21.959 A110.72155
G1 X31.477 Y21.782 A110.81806
G1 X32.297 Y21.571 A110.95782
G1 X33.226 Y21.408 A111.11348
G1 X47.666 Y35.848 A114.48439
G1 X47.754 Y35.085 A114.61127
G1 X47.796 Y34.351 A114.73257
G1 X47.799 Y33.903 A114.80654
G1 X47.762 Y33.037 A114.94964
G1 X47.671 Y32.260 A115.07882
G1 X36.806 Y21.395 A117.61514
G1 X37.700 Y21.549 A117.76489
G1 X38.369 Y21.710 A117.87844
G1 X39.402 Y22.035 A118.05718
G1 X40.167 Y22.342 A118.19326
G1 X40.912 Y22.696 A118.32935
G1 X41.296 Y22.903 A118.40146
G1 X42.020 Y23.343 A118.54133
G1 X42.851 Y23.934 A118.70968
G1 X43.401 Y24.396 A118.82808
G1 X47.934 Y28.929 A119.88640
G1 Z5.000 F7800.000
G1 A117.88640 F2400.00000
G1 X20.430 Y19.090 F7800.000
G1 A119.88640 F2400.00000
G1 F600
G1 X21.073 Y18.476 A119.92757
G1 X21.722 Y17.915 A119.96735
G1 X22.392 Y17.383 A120.00697
G1 X23.092 Y16.873 A120.04714
G1 X24.153 Y16.180 A120.10588
G1 X24.897 Y15.746 A120.14580
G1 X26.031 Y15.160 A120.20494
G1 X26.815 Y14.805 A120.24486
G1 X28.003 Y14.338 A120.30400
G1 X28.816 Y14.065 A120.34378
G1 X29.646 Y13.825 A120.38381
G1 X30.882 Y13.533 A120.44269
G1 X31.730 Y13.379 A120.48261
G1 X32.995 Y13.215 A120.54176
