; generated by PrusaSlicer 2.0.0+win64 on 2019-06-06 at 07:51:19

; 

; external perimeters extrusion width = 4.50mm
; perimeters extrusion width = 4.50mm
; infill extrusion width = 4.50mm
; solid infill extrusion width = 4.50mm
; top infill extrusion width = 4.00mm

M107
M107
g92 z0
g1 f1000 z-310
g92 x0 y0 a0 z0
; Filament gcode
G21 ; set units to millimeters
G90 ; use absolute coordinates
G1 Z2.000 F7800.000
G1 A-2.00000 F2400.00000
G1 X10.973 Y10.601 F7800.000
G1 A0.00000 F2400.00000
G1 F1800
G1 X12.841 Y8.914 A0.53233
G1 X15.185 Y7.168 A1.15088
G1 X17.655 Y5.689 A1.75987
G1 X20.285 Y4.454 A2.37445
G1 X23.024 Y3.491 A2.98873
G1 X25.447 Y2.886 A3.51706
G1 X28.295 Y2.452 A4.12655
G1 X31.232 Y2.305 A4.74855
G1 X34.112 Y2.452 A5.35862
G1 X36.594 Y2.814 A5.88933
G1 X39.388 Y3.492 A6.49753
G1 X42.162 Y4.471 A7.11995
G1 X44.817 Y5.724 A7.74105
G1 X47.285 Y7.210 A8.35047
G1 X49.309 Y8.703 A8.88259
G1 X51.468 Y10.633 A9.49523
G1 X53.445 Y12.798 A10.11542
G1 X55.165 Y15.112 A10.72535
G1 X56.467 Y17.258 A11.25637
G1 X57.732 Y19.865 A11.86941
G1 X58.740 Y22.620 A12.48995
G1 X59.453 Y25.422 A13.10166
G1 X59.888 Y28.330 A13.72376
G1 X60.022 Y30.845 A14.25647
G1 X59.907 Y33.727 A14.86672
G1 X59.503 Y36.583 A15.47700
G1 X58.920 Y39.026 A16.00822
G1 X57.987 Y41.770 A16.62133
G1 X56.770 Y44.430 A17.24034
G1 X55.309 Y46.924 A17.85185
G1 X53.575 Y49.297 A18.47362
G1 X51.900 Y51.185 A19.00745
G1 X49.631 Y53.288 A19.66207
G1 X47.460 Y54.926 A20.23736
G1 X45.133 Y56.359 A20.81550
G1 X42.386 Y57.691 A21.46135
G1 X39.828 Y58.629 A22.03774
G1 X37.192 Y59.320 A22.61418
G1 X34.559 Y59.754 A23.17885
G1 X31.424 Y59.949 A23.84322
G1 X28.363 Y59.810 A24.49156
G1 X25.670 Y59.414 A25.06733
G1 X23.031 Y58.766 A25.64228
G1 X20.162 Y57.750 A26.28621
G1 X17.659 Y56.568 A26.87164
G1 X15.083 Y55.018 A27.50764
G1 X12.881 Y53.374 A28.08915
G1 X10.908 Y51.591 A28.65171
G1 X9.073 Y49.589 A29.22625
G1 X7.251 Y47.155 A29.86957
G1 X5.852 Y44.836 A30.44242
G1 X4.675 Y42.390 A31.01666
G1 X3.637 Y39.533 A31.65971
G1 X2.968 Y36.903 A32.23384
G1 X2.551 Y34.225 A32.80714
G1 X2.382 Y31.152 A33.45820
G1 X2.532 Y28.206 A34.08235
G1 X2.966 Y25.365 A34.69042
G1 X3.573 Y22.932 A35.22077
G1 X4.545 Y20.178 A35.83870
G1 X5.771 Y17.570 A36.44841
G1 X7.276 Y15.062 A37.06709
G1 X9.032 Y12.714 A37.68735
G1 X10.567 Y11.043 A38.16751
G1 A36.16751 F2400.00000
G1 X24.416 Y23.260 F7800.000
G1 A38.16751 F2400.00000
G1 F1800
G1 X24.691 Y23.031 A38.24308
G1 X25.279 Y22.591 A38.39853
G1 X25.906 Y22.188 A38.55614
G1 X26.537 Y21.843 A38.70833
G1 X26.895 Y21.670 A38.79245
G1 X27.914 Y21.270 A39.02408
G1 X28.942 Y20.985 A39.24971
G1 X29.994 Y20.806 A39.47544
G1 X30.790 Y20.742 A39.64440
G1 X31.163 Y20.735 A39.72340
G1 X31.904 Y20.759 A39.88026
G1 X32.960 Y20.885 A40.10514
G1 X33.997 Y21.118 A40.33003
G1 X34.756 Y21.361 A40.49878
G1 X35.104 Y21.496 A40.57755
G1 X35.783 Y21.800 A40.73510
G1 X36.713 Y22.317 A40.96016
G1 X37.585 Y22.927 A41.18527
G1 X38.196 Y23.440 A41.35419
G1 X38.467 Y23.697 A41.43303
G1 X38.981 Y24.237 A41.59071
G1 X39.645 Y25.069 A41.81596
G1 X40.221 Y25.965 A42.04124
G1 X40.592 Y26.672 A42.21027
G1 X40.905 Y27.407 A42.37930
G1 X41.130 Y28.062 A42.52580
G1 X41.314 Y28.730 A42.67231
G1 X41.467 Y29.502 A42.83882
G1 X41.525 Y29.935 A42.93121
G1 X41.582 Y30.621 A43.07678
G1 X41.591 Y31.373 A43.23590
G1 X41.547 Y32.117 A43.39370
G1 X41.505 Y32.488 A43.47261
G1 X41.449 Y32.857 A43.55153
G1 X41.299 Y33.587 A43.70932
G1 X41.080 Y34.352 A43.87754
G1 X40.703 Y35.340 A44.10138
G1 X40.519 Y35.730 A44.19247
G1 X40.192 Y36.341 A44.33918
G1 X39.608 Y37.238 A44.56563
G1 X38.938 Y38.066 A44.79088
G1 X38.429 Y38.596 A44.94631
G1 X37.691 Y39.245 A45.15413
G1 X37.220 Y39.599 A45.27886
G1 X36.705 Y39.944 A45.41007
G1 X35.909 Y40.392 A45.60317
G1 X35.062 Y40.777 A45.80004
G1 X34.497 Y40.983 A45.92736
G1 X33.945 Y41.150 A46.04930
G1 X33.059 Y41.353 A46.24161
G1 X32.052 Y41.486 A46.45653
G1 X31.299 Y41.521 A46.61600
G1 X30.917 Y41.518 A46.69677
G1 X30.156 Y41.468 A46.85820
G1 X29.776 Y41.423 A46.93912
G1 X28.790 Y41.236 A47.15143
G1 X27.918 Y40.985 A47.34345
G1 X27.070 Y40.662 A47.53542
G1 X26.508 Y40.397 A47.66676
G1 X26.005 Y40.124 A47.78798
G1 X25.517 Y39.823 A47.90917
G1 X25.007 Y39.469 A48.04045
G1 X24.305 Y38.896 A48.23226
G1 X23.653 Y38.266 A48.42402
G1 X23.030 Y37.544 A48.62585
G1 X22.476 Y36.767 A48.82764
G1 X22.157 Y36.236 A48.95880
G1 X21.889 Y35.730 A49.07986
G1 X21.523 Y34.902 A49.27149
G1 X21.316 Y34.317 A49.40261
G1 X21.156 Y33.768 A49.52364
G1 X21.024 Y33.206 A49.64577
G1 X20.874 Y32.259 A49.84851
G1 X20.840 Y31.890 A49.92703
G1 X20.812 Y31.186 A50.07612
G1 X20.862 Y30.123 A50.30126
G1 X21.019 Y29.069 A50.52650
G1 X21.179 Y28.400 A50.67216
G1 X21.299 Y27.987 A50.76302
G1 X21.670 Y27.002 A50.98583
G1 X22.117 Y26.089 A51.20085
G1 X22.677 Y25.191 A51.42480
G1 X23.090 Y24.638 A51.57071
G1 X23.356 Y24.316 A51.65918
G1 X23.975 Y23.667 A51.84887
G1 A49.84887 F2400.00000
G1 X21.655 Y20.269 F7800.000
G1 A51.84887 F2400.00000
G1 F1800
G1 X22.165 Y19.837 A51.99032
G1 X22.922 Y19.270 A52.19038
G1 X23.863 Y18.666 A52.42691
G1 X24.675 Y18.222 A52.62265
G1 X25.202 Y17.967 A52.74655
G1 X25.713 Y17.747 A52.86428
G1 X26.588 Y17.420 A53.06184
G1 X27.108 Y17.256 A53.17724
G1 X28.016 Y17.019 A53.37570
G1 X28.543 Y16.910 A53.48968
G1 X29.478 Y16.767 A53.68968
G1 X30.628 Y16.674 A53.93378
G1 X31.189 Y16.663 A54.05254
G1 X32.138 Y16.693 A54.25341
G1 X32.664 Y16.737 A54.36496
G1 X33.607 Y16.865 A54.56645
G1 X34.126 Y16.962 A54.67799
G1 X35.052 Y17.185 A54.87954
G1 X36.149 Y17.535 A55.12321
G1 X36.671 Y17.737 A55.24166
G1 X37.541 Y18.127 A55.44330
G1 X38.011 Y18.366 A55.55494
G1 X38.837 Y18.843 A55.75663
G1 X39.280 Y19.130 A55.86830
G1 X40.053 Y19.688 A56.07004
G1 X40.937 Y20.429 A56.31395
G1 X41.343 Y20.814 A56.43251
G1 X42.001 Y21.505 A56.63433
G1 X42.345 Y21.906 A56.74606
G1 X42.929 Y22.661 A56.94792
G1 X43.230 Y23.095 A57.05967
G1 X43.734 Y23.905 A57.26157
G1 X44.270 Y24.927 A57.50563
G1 X44.722 Y25.988 A57.74972
G1 X45.021 Y26.861 A57.94481
G1 X45.266 Y27.750 A58.13991
G1 X45.490 Y28.874 A58.38248
G1 X45.573 Y29.496 A58.51514
G1 X45.647 Y30.385 A58.70388
G1 X45.661 Y31.510 A58.94197
G1 X45.604 Y32.463 A59.14394
G1 X45.542 Y33.021 A59.26261
G1 X45.457 Y33.575 A59.38127
G1 X45.265 Y34.510 A59.58324
G1 X45.125 Y35.046 A59.70039
G1 X44.942 Y35.643 A59.83245
G1 X44.637 Y36.484 A60.02173
G1 X44.421 Y36.998 A60.13971
G1 X44.156 Y37.560 A60.27101
G1 X43.733 Y38.351 A60.46097
G1 X43.459 Y38.807 A60.57344
G1 X42.926 Y39.599 A60.77532
G1 X42.609 Y40.021 A60.88707
G1 X41.998 Y40.754 A61.08892
G1 X41.237 Y41.545 A61.32112
G1 X40.607 Y42.117 A61.50114
G1 X40.211 Y42.444 A61.60975
G1 X39.577 Y42.920 A61.77756
G1 X38.889 Y43.380 A61.95264
G1 X38.455 Y43.642 A62.05974
G1 X37.752 Y44.023 A62.22889
G1 X37.004 Y44.377 A62.40401
G1 X36.544 Y44.569 A62.50947
G1 X35.787 Y44.846 A62.68006
G1 X35.021 Y45.078 A62.84944
G1 X34.216 Y45.275 A63.02468
G1 X33.750 Y45.366 A63.12508
G1 X32.904 Y45.492 A63.30595
G1 X32.388 Y45.544 A63.41571
G1 X31.337 Y45.592 A63.63828
G1 X30.805 Y45.587 A63.75083
G1 X30.274 Y45.563 A63.86330
G1 X29.216 Y45.455 A64.08844
G1 X28.718 Y45.377 A64.19490
G1 X27.880 Y45.205 A64.37606
G1 X27.420 Y45.088 A64.47633
G1 X26.629 Y44.848 A64.65130
G1 X25.852 Y44.565 A64.82623
G1 X25.415 Y44.382 A64.92646
G1 X24.667 Y44.029 A65.10135
G1 X23.966 Y43.649 A65.27007
G1 X23.287 Y43.231 A65.43875
G1 X22.608 Y42.760 A65.61356
G1 X22.232 Y42.472 A65.71372
G1 X21.600 Y41.941 A65.88849
G1 X20.998 Y41.375 A66.06324
G1 X20.668 Y41.036 A66.16336
G1 X20.101 Y40.396 A66.34422
G1 X19.804 Y40.028 A66.44432
G1 X19.298 Y39.339 A66.62514
G1 X19.036 Y38.945 A66.72523
G1 X18.610 Y38.238 A66.89988
G1 X18.238 Y37.533 A67.06838
G1 X17.893 Y36.784 A67.24300
G1 X17.715 Y36.345 A67.34306
G1 X17.440 Y35.567 A67.51766
G1 X17.217 Y34.803 A67.68611
G1 X17.035 Y34.024 A67.85523
G1 X16.900 Y33.264 A68.01860
G1 X16.828 Y32.711 A68.13664
G1 X16.780 Y32.188 A68.24762
G1 X16.740 Y31.163 A68.46474
G1 X16.770 Y30.216 A68.66512
G1 X16.814 Y29.688 A68.77733
G1 X16.939 Y28.747 A68.97812
G1 X17.036 Y28.227 A69.08999
G1 X17.242 Y27.359 A69.27863
G1 X17.415 Y26.765 A69.40948
G1 X17.591 Y26.244 A69.52602
G1 X17.930 Y25.388 A69.72068
G1 X18.296 Y24.605 A69.90351
G1 X18.570 Y24.089 A70.02718
G1 X19.029 Y23.322 A70.21619
G1 X19.352 Y22.839 A70.33912
G1 X19.889 Y22.120 A70.52903
G1 X20.276 Y21.653 A70.65741
G1 X20.668 Y21.219 A70.78112
G1 X21.214 Y20.676 A70.94397
G1 A68.94397 F2400.00000
G1 X18.894 Y17.278 F7800.000
G1 A70.94397 F2400.00000
G1 F1800
G1 X19.640 Y16.642 A71.15132
G1 X20.566 Y15.949 A71.39597
G1 X21.184 Y15.533 A71.55367
G1 X21.820 Y15.143 A71.71149
G1 X22.812 Y14.601 A71.95078
G1 X23.509 Y14.264 A72.11447
G1 X24.193 Y13.969 A72.27208
G1 X25.262 Y13.570 A72.51334
G1 X25.980 Y13.343 A72.67280
G1 X27.090 Y13.054 A72.91537
G1 X27.822 Y12.902 A73.07342
G1 X28.962 Y12.727 A73.31755
G1 X29.710 Y12.651 A73.47660
G1 X30.466 Y12.605 A73.63684
G1 X31.215 Y12.591 A73.79537
G1 X32.372 Y12.628 A74.04024
G1 X33.105 Y12.689 A74.19582
G1 X34.255 Y12.844 A74.44137
G1 X34.978 Y12.980 A74.59699
G1 X36.107 Y13.252 A74.84261
G1 X36.824 Y13.464 A75.00071
G1 X37.542 Y13.709 A75.16126
G1 X38.239 Y13.979 A75.31940
G1 X39.299 Y14.453 A75.56513
G1 X39.955 Y14.788 A75.72087
G1 X40.961 Y15.369 A75.96668
G1 X41.580 Y15.769 A76.12245
G1 X42.522 Y16.449 A76.36832
G1 X43.105 Y16.918 A76.52657
G1 X43.677 Y17.417 A76.68728
G1 X44.220 Y17.932 A76.84556
G1 X45.022 Y18.774 A77.09152
G1 X45.502 Y19.333 A77.24739
G1 X46.213 Y20.253 A77.49339
G1 X46.633 Y20.858 A77.64929
G1 X47.247 Y21.846 A77.89534
G1 X47.609 Y22.502 A78.05370
G1 X47.949 Y23.182 A78.21452
G1 X48.260 Y23.875 A78.37534
G1 X48.539 Y24.570 A78.53373
G1 X48.913 Y25.659 A78.77740
G1 X49.218 Y26.770 A79.02108
G1 X49.380 Y27.501 A79.17949
G1 X49.513 Y28.247 A79.33980
G1 X49.621 Y29.057 A79.51271
G1 X49.712 Y30.150 A79.74463
G1 X49.737 Y30.899 A79.90333
G1 X49.731 Y31.648 A80.06175
G1 X49.661 Y32.810 A80.30790
G1 X49.579 Y33.554 A80.46632
G1 X49.465 Y34.294 A80.62474
G1 X49.231 Y35.434 A80.87087
G1 X49.043 Y36.156 A81.02874
G1 X48.804 Y36.934 A81.20103
G1 X48.430 Y37.968 A81.43351
G1 X48.140 Y38.657 A81.59166
G1 X47.794 Y39.390 A81.76316
G1 X47.274 Y40.362 A81.99636
G1 X46.894 Y40.994 A82.15253
G1 X46.244 Y41.959 A82.39856
G1 X45.802 Y42.548 A82.55445
G1 X45.057 Y43.441 A82.80044
G1 X44.548 Y43.991 A82.95899
G1 X44.044 Y44.494 A83.10948
G1 X43.272 Y45.196 A83.33025
G1 X42.730 Y45.643 A83.47886
G1 X41.933 Y46.241 A83.68976
G1 X41.073 Y46.817 A83.90872
G1 X40.478 Y47.176 A84.05575
G1 X39.595 Y47.654 A84.26807
G1 X38.660 Y48.097 A84.48698
G1 X38.026 Y48.362 A84.63230
G1 X37.077 Y48.708 A84.84617
G1 X36.096 Y49.006 A85.06298
G1 X35.091 Y49.251 A85.28185
G1 X34.441 Y49.379 A85.42192
G1 X33.409 Y49.532 A85.64275
G1 X32.725 Y49.601 A85.78819
G1 X31.376 Y49.664 A86.07387
G1 X30.693 Y49.657 A86.21820
G1 X30.012 Y49.626 A86.36248
G1 X29.332 Y49.570 A86.50679
G1 X28.655 Y49.488 A86.65111
G1 X27.992 Y49.383 A86.79322
G1 X26.969 Y49.174 A87.01400
G1 X26.328 Y49.011 A87.15388
G1 X25.340 Y48.711 A87.37241
G1 X24.370 Y48.357 A87.59090
G1 X23.760 Y48.103 A87.73072
G1 X22.826 Y47.662 A87.94916
G1 X21.928 Y47.175 A88.16537
G1 X21.057 Y46.639 A88.38155
G1 X20.210 Y46.050 A88.59989
G1 X19.685 Y45.649 A88.73961
G1 X18.895 Y44.985 A88.95790
G1 X18.143 Y44.279 A89.17616
G1 X17.683 Y43.805 A89.31583
G1 X16.992 Y43.026 A89.53623
G1 X16.577 Y42.512 A89.67588
G1 X15.961 Y41.672 A89.89624
G1 X15.595 Y41.123 A90.03586
G1 X15.064 Y40.239 A90.25400
G1 X14.587 Y39.337 A90.46994
G1 X14.156 Y38.400 A90.68804
G1 X13.908 Y37.789 A90.82762
G1 X13.565 Y36.817 A91.04570
G1 X13.278 Y35.838 A91.26159
G1 X13.046 Y34.843 A91.47770
G1 X12.876 Y33.884 A91.68368
G1 X12.781 Y33.162 A91.83772
G1 X12.719 Y32.487 A91.98117
G1 X12.668 Y31.140 A92.26631
G1 X12.705 Y29.985 A92.51086
G1 X12.765 Y29.252 A92.66629
G1 X12.918 Y28.106 A92.91099
G1 X13.052 Y27.384 A93.06631
G1 X13.305 Y26.319 A93.29793
G1 X13.531 Y25.544 A93.46876
G1 X13.768 Y24.841 A93.62575
G1 X14.191 Y23.775 A93.86830
G1 X14.652 Y22.789 A94.09858
G1 X15.023 Y22.089 A94.26620
G1 X15.589 Y21.144 A94.49919
G1 X16.027 Y20.488 A94.66609
G1 X16.689 Y19.602 A94.89999
G1 X17.196 Y18.990 A95.06828
G1 X17.702 Y18.429 A95.22790
G1 X18.453 Y17.685 A95.45165
G1 X19.826 Y17.580 F7800.000
G1 A93.45165 F2400.00000
G1 X40.325 Y30.309 F7800.000
G1 A95.45165 F2400.00000
G1 F1800
G1 X34.700 Y24.684 A97.38903
G1 X33.906 Y24.306 A97.60320
G1 X33.195 Y24.067 A97.78580
G1 X32.442 Y23.898 A97.97374
G1 X31.674 Y23.806 A98.16222
G1 X30.941 Y23.793 A98.34083
G1 X30.372 Y23.838 A98.47979
G1 X29.608 Y23.968 A98.66845
G1 X28.883 Y24.170 A98.85164
G1 X27.943 Y24.555 A99.09901
G1 X37.773 Y34.385 A102.48455
G1 X37.430 Y35.002 A102.65654
G1 X36.986 Y35.640 A102.84594
G1 X36.513 Y36.191 A103.02276
G1 X35.956 Y36.715 A103.20894
G1 X35.452 Y37.106 A103.36446
G1 X34.874 Y37.480 A103.53196
G1 X34.461 Y37.699 A103.64589
G1 X24.633 Y27.872 A107.03064
G1 X24.474 Y28.212 A107.12205
G1 X24.294 Y28.666 A107.24099
G1 X24.132 Y29.186 A107.37369
G1 X23.975 Y29.896 A107.55090
G1 X23.886 Y30.651 A107.73606
G1 X23.873 Y31.409 A107.92058
G1 X23.910 Y31.909 A108.04260
G1 X24.023 Y32.619 A108.21776
G1 X24.110 Y32.992 A108.31101
G1 X24.217 Y33.358 A108.40399
G1 X24.453 Y33.998 A108.56996
G1 X24.628 Y34.377 A108.67170
G1 X24.758 Y34.623 A108.73954
G1 X30.397 Y40.263 A110.68185
G1 Z4.000 F7800.000
G1 A108.68185 F2400.00000
G1 X17.192 Y15.568 F7800.000
G1 A110.68185 F2400.00000
G1 F1681
G1 X17.334 Y15.440 A110.70527
G1
G1 X17.803 Y15.041 A110.78053
G1
G1 X17.847 Y15.004 A110.78757
G1
G1 X18.156 Y14.753 A110.83635
G1
G1 X18.726 Y14.315 A110.92445
G1
G1 X18.773 Y14.280 A110.93154
G1
G1 X19.010 Y14.106 A110.96756
G1
G1 X19.509 Y13.761 A111.04180
G1
G1 X19.560 Y13.727 A111.04928
G1
G1 X19.891 Y13.510 A111.09782
G1
G1 X20.498 Y13.137 A111.18510
G1
G1 X20.548 Y13.107 A111.19215
G1
G1 X20.999 Y12.845 A111.25598
G1
G1 X21.340 Y12.658 A111.30358
G1
G1 X21.386 Y12.634 A111.30992
G1
G1 X21.748 Y12.446 A111.35994
G1
G1 X22.106 Y12.269 A111.40874
G1
G1 X22.149 Y12.248 A111.41458
G1
G1 X22.519 Y12.075 A111.46462
G1
G1 X22.884 Y11.913 A111.51341
G1
G1 X22.939 Y11.890 A111.52072
G1
G1 X23.302 Y11.740 A111.56891
G1
G1 X24.066 Y11.445 A111.66921
G1
G1 X24.122 Y11.424 A111.67651
G1
G1 X24.323 Y11.353 A111.70255
G1
G1 X24.888 Y11.167 A111.77527
G1
G1 X24.942 Y11.150 A111.78221
G1
G1 X25.322 Y11.035 A111.83092
G1
G1 X25.983 Y10.855 A111.91477
G1
G1 X26.039 Y10.841 A111.92180
G1
G1 X26.573 Y10.710 A111.98916
G1
G1 X26.952 Y10.627 A112.03661
G1
G1 X27.015 Y10.614 A112.04453
G1
G1 X27.402 Y10.540 A112.09276
G1
G1 X28.210 Y10.407 A112.19308
G1
G1 X28.269 Y10.398 A112.20038
G1
G1 X28.492 Y10.367 A112.22794
G1
G1 X29.071 Y10.301 A112.29918
G1
G1 X29.119 Y10.296 A112.30502
G1
G1 X29.530 Y10.258 A112.35554
G1
G1 X29.924 Y10.230 A112.40391
G1
G1 X29.981 Y10.227 A112.41079
G1
G1 X30.377 Y10.209 A112.45944
G1
G1 X31.038 Y10.194 A112.54035
G1
G1 X31.095 Y10.194 A112.54737
G1
G1 X31.490 Y10.195 A112.59568
G1
G1 X32.056 Y10.210 A112.66499
G1
G1 X32.110 Y10.212 A112.67153
G1
G1 X32.525 Y10.233 A112.72233
G1
G1 X32.919 Y10.262 A112.77072
G1
G1 X32.979 Y10.267 A112.77804
G1
G1 X33.369 Y10.306 A112.82606
G1
G1 X34.184 Y10.408 A112.92667
G1
G1 X34.243 Y10.416 A112.93396
G1
G1 X34.654 Y10.478 A112.98484
G1
G1 X35.041 Y10.547 A113.03289
G1
G1 X35.100 Y10.558 A113.04021
G1
G1 X35.486 Y10.637 A113.08844
G1
G1 X36.285 Y10.820 A113.18887
G1
G1 X36.343 Y10.834 A113.19617
G1
G1 X36.584 Y10.896 A113.22658
G1
G1 X37.123 Y11.048 A113.29506
G1
G1 X37.180 Y11.065 A113.30236
G1
G1 X37.557 Y11.182 A113.35072
G1
G1 X38.332 Y11.447 A113.45105
G1
G1 X38.389 Y11.467 A113.45833
G1
G1 X38.779 Y11.611 A113.50920
G1
G1 X39.144 Y11.757 A113.55731
G1
G1 X39.199 Y11.780 A113.56463
G1
G1 X39.565 Y11.937 A113.61336
G1
G1 X40.308 Y12.275 A113.71335
G1
G1 X40.340 Y12.290 A113.71764
G1
G1 X40.362 Y12.301 A113.72069
G1
G1 X41.081 Y12.673 A113.81948
G1
G1 X41.134 Y12.701 A113.82677
G1
G1 X41.482 Y12.893 A113.87548
G1
G1 X42.185 Y13.308 A113.97552
G1
G1 X42.236 Y13.339 A113.98280
G1
G1 X42.588 Y13.560 A114.03362
G1
