; generated by PrusaSlicer 2.0.0+win64 on 2019-06-05 at 08:48:35

; 

; external perimeters extrusion width = 4.00mm
; perimeters extrusion width = 4.00mm
; infill extrusion width = 4.00mm
; solid infill extrusion width = 4.00mm
; top infill extrusion width = 4.00mm
; first layer extrusion width = 3.00mm

M107
g92 z0
g1 f1000 z-310
g92 x0 y0 a0 z0
; Filament gcode
G21 ; set units to millimeters
G90 ; use absolute coordinates
G1 Z4.000 F7800.000
G1 A-2.00000 F2400.00000
G1 X22.697 Y20.250 F7800.000
G1 A0.00000 F2400.00000
G1 F1800
G1 X23.213 Y19.671 A2.76024
G1 X25.327 Y17.736 A12.97030
G1 X27.669 Y15.992 A23.36714
G1 X30.176 Y14.496 A33.76410
G1 X32.773 Y13.283 A43.97418
G1 X35.107 Y12.448 A52.80294
G1 X37.930 Y11.730 A63.17604
G1 X40.772 Y11.305 A73.40949
G1 X43.668 Y11.168 A83.73624
G1 X46.544 Y11.323 A93.99295
G1 X48.996 Y11.687 A102.82172
G1 X51.774 Y12.369 A113.00787
G1 X54.524 Y13.347 A123.40494
G1 X57.161 Y14.600 A133.80193
G1 X59.607 Y16.083 A143.98850
G1 X61.598 Y17.559 A152.81675
G1 X63.732 Y19.474 A163.02676
G1 X65.692 Y21.628 A173.40020
G1 X67.394 Y23.926 A183.58707
G1 X68.678 Y26.047 A192.41547
G1 X69.927 Y28.628 A202.62551
G1 X70.925 Y31.364 A212.99900
G1 X71.630 Y34.143 A223.20891
G1 X72.060 Y37.030 A233.60569
G1 X72.192 Y39.505 A242.43428
G1 X72.078 Y42.363 A252.62078
G1 X71.676 Y45.208 A262.85399
G1 X70.982 Y48.030 A273.20424
G1 X70.164 Y50.377 A282.05629
G1 X68.974 Y52.979 A292.24254
G1 X67.499 Y55.498 A302.63955
G1 X65.775 Y57.853 A313.03643
G1 X63.861 Y59.979 A323.22327
G1 X61.869 Y61.801 A332.83835
G1 X59.720 Y63.423 A342.42757
G1 X57.115 Y65.006 A353.28361
G1 X54.686 Y66.167 A362.87307
G1 X52.158 Y67.095 A372.46228
G1 X49.212 Y67.852 A383.29472
G1 X46.156 Y68.296 A394.29310
G1 X43.862 Y68.412 A402.47505
G1 X40.823 Y68.281 A413.30761
G1 X38.159 Y67.897 A422.89460
G1 X35.542 Y67.264 A432.48401
G1 X32.672 Y66.257 A443.31635
G1 X30.233 Y65.116 A452.90584
G1 X27.912 Y63.750 A462.49511
G1 X25.458 Y61.954 A473.32789
G1 X23.456 Y60.154 A482.91732
G1 X21.631 Y58.173 A492.50668
G1 X19.805 Y55.741 A503.33928
G1 X18.411 Y53.438 A512.92859
G1 X17.240 Y51.013 A522.51788
G1 X16.198 Y48.156 A533.35044
G1 X15.531 Y45.540 A542.96315
G1 X15.115 Y42.879 A552.55471
G1 X14.949 Y39.816 A563.47952
G1 X15.091 Y36.934 A573.75597
G1 X15.445 Y34.481 A582.58464
G1 X16.115 Y31.700 A592.77081
G1 X17.085 Y28.940 A603.19119
G1 X18.325 Y26.304 A613.56485
G1 X19.801 Y23.847 A623.77469
G1 X21.269 Y21.850 A632.60342
G1 X22.297 Y20.697 A638.10281
G1 A636.10281 F2400.00000
G1 X34.072 Y27.215 F7800.000
G1 A638.10281 F2400.00000
G1 F1800
G1 X34.810 Y26.682 A641.34508
G1 X35.341 Y26.343 A643.58834
G1 X36.220 Y25.843 A647.18982
G1 X36.756 Y25.573 A649.33018
G1 X37.682 Y25.165 A652.93159
G1 X38.244 Y24.951 A655.07196
G1 X39.179 Y24.649 A658.57336
G1 X40.145 Y24.401 A662.12601
G1 X40.719 Y24.284 A664.21225
G1 X41.734 Y24.131 A667.86784
G1 X42.347 Y24.071 A670.05940
G1 X42.989 Y24.034 A672.35102
G1 X43.619 Y24.024 A674.59431
G1 X44.631 Y24.060 A678.20109
G1 X45.215 Y24.110 A680.28976
G1 X46.232 Y24.250 A683.94536
G1 X46.836 Y24.365 A686.13695
G1 X47.463 Y24.511 A688.42855
G1 X48.070 Y24.680 A690.67183
G1 X49.031 Y25.000 A694.27862
G1 X49.605 Y25.224 A696.47265
G1 X50.195 Y25.483 A698.76961
G1 X50.774 Y25.765 A701.06125
G1 X51.328 Y26.064 A703.30452
G1 X52.193 Y26.590 A706.91130
G1 X52.678 Y26.920 A708.99996
G1 X53.496 Y27.540 A712.65558
G1 X53.944 Y27.917 A714.74178
G1 X54.694 Y28.616 A718.39203
G1 X55.111 Y29.048 A720.52993
G1 X55.777 Y29.811 A724.13669
G1 X56.158 Y30.295 A726.33078
G1 X56.535 Y30.816 A728.62237
G1 X56.883 Y31.342 A730.86563
G1 X57.383 Y32.188 A734.36707
G1 X57.837 Y33.076 A737.91968
G1 X58.088 Y33.637 A740.10593
G1 X58.321 Y34.222 A742.34924
G1 X58.639 Y35.152 A745.85061
G1 X58.903 Y36.114 A749.40324
G1 X59.029 Y36.686 A751.48945
G1 X59.198 Y37.698 A755.14505
G1 X59.269 Y38.310 A757.33665
G1 X59.316 Y38.953 A759.63363
G1 X59.336 Y39.568 A761.82520
G1 X59.317 Y40.594 A765.48080
G1 X59.277 Y41.178 A767.56698
G1 X59.153 Y42.197 A771.22260
G1 X59.048 Y42.804 A773.41420
G1 X58.918 Y43.405 A775.60579
G1 X58.650 Y44.396 A779.26139
G1 X58.460 Y44.981 A781.45294
G1 X58.235 Y45.586 A783.74991
G1 X57.997 Y46.153 A785.94153
G1 X57.553 Y47.078 A789.59709
G1 X57.259 Y47.617 A791.78334
G1 X56.935 Y48.158 A794.02665
G1 X56.370 Y48.998 A797.63340
G1 X56.002 Y49.490 A799.82214
G1 X55.604 Y49.979 A802.06542
G1 X54.923 Y50.733 A805.68267
G1 X54.530 Y51.127 A807.66711
G1 X53.850 Y51.747 A810.94197
G1 X53.435 Y52.092 A812.86614
G1 X52.729 Y52.625 A816.01758
G1 X52.006 Y53.111 A819.12032
G1 X51.258 Y53.557 A822.22086
G1 X50.463 Y53.972 A825.41617
G1 X49.985 Y54.195 A827.29380
G1 X49.131 Y54.545 A830.57925
G1 X48.623 Y54.727 A832.50346
G1 X47.777 Y54.986 A835.65486
G1 X46.931 Y55.195 A838.75763
G1 X46.049 Y55.362 A841.95303
G1 X44.924 Y55.501 A845.99207
G1 X43.764 Y55.558 A850.12594
G1 X42.604 Y55.529 A854.26002
G1 X42.025 Y55.483 A856.32725
G1 X41.475 Y55.418 A858.29978
G1 X40.590 Y55.273 A861.49512
G1 X39.715 Y55.080 A864.68569
G1 X39.194 Y54.938 A866.60986
G1 X38.351 Y54.668 A869.76131
G1 X37.512 Y54.348 A872.95892
G1 X37.029 Y54.137 A874.83655
G1 X36.224 Y53.741 A878.03193
G1 X35.443 Y53.302 A881.22246
G1 X34.985 Y53.016 A883.14661
G1 X34.257 Y52.513 A886.29806
G1 X33.569 Y51.979 A889.40084
G1 X32.891 Y51.391 A892.59616
G1 X32.509 Y51.027 A894.47382
G1 X31.889 Y50.379 A897.66922
G1 X31.322 Y49.718 A900.76973
G1 X30.777 Y49.006 A903.96507
G1 X30.476 Y48.573 A905.84274
G1 X29.998 Y47.813 A909.03812
G1 X29.564 Y47.030 A912.22864
G1 X29.324 Y46.546 A914.15284
G1 X28.968 Y45.736 A917.30430
G1 X28.662 Y44.920 A920.40703
G1 X28.402 Y44.089 A923.50753
G1 X28.181 Y43.220 A926.70290
G1 X28.069 Y42.677 A928.67539
G1 X27.899 Y41.529 A932.80932
G1 X27.814 Y40.375 A936.93050
G1 X27.804 Y39.797 A938.98818
G1 X27.817 Y39.143 A941.31888
G1 X27.856 Y38.504 A943.59901
G1 X27.921 Y37.877 A945.84229
G1 X28.076 Y36.877 A949.44907
G1 X28.195 Y36.302 A951.53774
G1 X28.454 Y35.311 A955.18798
G1 X28.635 Y34.739 A957.32589
G1 X28.980 Y33.818 A960.82730
G1 X29.386 Y32.907 A964.37995
G1 X29.665 Y32.358 A966.57153
G1 X29.966 Y31.822 A968.76313
G1 X30.498 Y30.978 A972.31331
G1 X31.080 Y30.169 A975.86352
G1 X31.446 Y29.712 A977.94972
G1 X32.128 Y28.944 A981.60533
G1 X32.559 Y28.506 A983.79694
G1 X33.030 Y28.065 A986.09389
G1 X33.598 Y27.583 A988.74669
G1 A986.74669 F2400.00000
G1 X32.758 Y25.524 F7800.000
G1 A988.74669 F2400.00000
G1 F1800
G1 X33.620 Y24.900 A992.53690
G1 X34.234 Y24.508 A995.13214
G1 X35.208 Y23.954 A999.12368
G1 X35.843 Y23.635 A1001.65413
G1 X36.869 Y23.183 A1005.64564
G1 X37.533 Y22.930 A1008.17609
G1 X38.583 Y22.591 A1012.10462
G1 X39.665 Y22.313 A1016.08548
G1 X40.346 Y22.174 A1018.56180
G1 X41.470 Y22.005 A1022.60748
G1 X42.180 Y21.935 A1025.15011
G1 X42.911 Y21.894 A1027.75576
G1 X43.639 Y21.882 A1030.35103
G1 X44.760 Y21.921 A1034.34591
G1 X45.453 Y21.981 A1036.82375
G1 X46.579 Y22.136 A1040.86944
G1 X47.280 Y22.270 A1043.41210
G1 X47.993 Y22.436 A1046.01772
G1 X48.695 Y22.631 A1048.61298
G1 X49.759 Y22.985 A1052.60787
G1 X50.425 Y23.245 A1055.15206
G1 X51.095 Y23.539 A1057.76107
G1 X51.753 Y23.860 A1060.36672
G1 X52.394 Y24.206 A1062.96196
G1 X53.352 Y24.789 A1066.95686
G1 X53.928 Y25.180 A1069.43470
G1 X54.833 Y25.866 A1073.48039
G1 X55.365 Y26.314 A1075.95669
G1 X56.195 Y27.088 A1079.99901
G1 X56.689 Y27.599 A1082.52791
G1 X57.426 Y28.444 A1086.52277
G1 X57.868 Y29.005 A1089.06700
G1 X58.297 Y29.598 A1091.67263
G1 X58.699 Y30.206 A1094.26787
G1 X59.260 Y31.155 A1098.19642
G1 X59.768 Y32.151 A1102.17727
G1 X60.060 Y32.801 A1104.71655
G1 X60.330 Y33.478 A1107.31183
G1 X60.687 Y34.522 A1111.24034
G1 X60.983 Y35.600 A1115.22118
G1 X61.132 Y36.279 A1117.69749
G1 X61.320 Y37.399 A1121.74317
G1 X61.401 Y38.108 A1124.28583
G1 X61.455 Y38.839 A1126.89484
G1 X61.478 Y39.553 A1129.43749
G1 X61.458 Y40.688 A1133.48318
G1 X61.409 Y41.382 A1135.95945
G1 X61.272 Y42.510 A1140.00516
G1 X61.150 Y43.213 A1142.54781
G1 X61.000 Y43.911 A1145.09046
G1 X60.703 Y45.008 A1149.13616
G1 X60.482 Y45.686 A1151.67878
G1 X60.227 Y46.373 A1154.28779
G1 X59.951 Y47.031 A1156.83047
G1 X59.459 Y48.055 A1160.87613
G1 X59.118 Y48.681 A1163.41542
G1 X58.743 Y49.306 A1166.01069
G1 X58.118 Y50.237 A1170.00556
G1 X57.690 Y50.809 A1172.54641
G1 X57.230 Y51.374 A1175.14167
G1 X56.477 Y52.208 A1179.14316
G1 X56.010 Y52.675 A1181.49724
G1 X55.257 Y53.362 A1185.12885
G1 X54.765 Y53.771 A1187.40491
G1 X53.973 Y54.369 A1190.94075
G1 X53.152 Y54.921 A1194.46398
G1 X52.302 Y55.427 A1197.98581
G1 X51.411 Y55.893 A1201.56733
G1 X50.844 Y56.157 A1203.79604
G1 X49.899 Y56.545 A1207.43432
G1 X49.297 Y56.760 A1209.71040
G1 X48.348 Y57.051 A1213.24621
G1 X47.387 Y57.288 A1216.76946
G1 X46.399 Y57.476 A1220.35103
G1 X45.107 Y57.635 A1224.98678
G1 X43.791 Y57.699 A1229.68225
G1 X42.473 Y57.667 A1234.37784
G1 X41.815 Y57.614 A1236.72594
G1 X41.177 Y57.540 A1239.01440
G1 X40.185 Y57.377 A1242.59594
G1 X39.204 Y57.160 A1246.17447
G1 X38.587 Y56.993 A1248.45053
G1 X37.641 Y56.690 A1251.98638
G1 X36.702 Y56.331 A1255.56933
G1 X36.128 Y56.081 A1257.79804
G1 X35.226 Y55.637 A1261.37961
G1 X34.350 Y55.144 A1264.95811
G1 X33.808 Y54.805 A1267.23416
G1 X32.991 Y54.241 A1270.77000
G1 X32.210 Y53.635 A1274.29325
G1 X31.450 Y52.976 A1277.87478
G1 X30.997 Y52.544 A1280.10350
G1 X30.301 Y51.818 A1283.68507
G1 X29.658 Y51.067 A1287.20689
G1 X29.046 Y50.269 A1290.78843
G1 X28.689 Y49.755 A1293.01717
G1 X28.154 Y48.904 A1296.59872
G1 X27.666 Y48.025 A1300.17722
G1 X27.383 Y47.452 A1302.45330
G1 X26.984 Y46.543 A1305.98915
G1 X26.636 Y45.617 A1309.51237
G1 X26.340 Y44.673 A1313.03418
G1 X26.093 Y43.699 A1316.61574
G1 X25.964 Y43.069 A1318.90418
G1 X25.770 Y41.765 A1323.59968
G1 X25.710 Y41.108 A1325.94782
G1 X25.673 Y40.452 A1328.28795
G1 X25.662 Y39.795 A1330.63001
G1 X25.676 Y39.057 A1333.26023
G1 X25.721 Y38.328 A1335.85863
G1 X25.796 Y37.603 A1338.45389
G1 X25.968 Y36.495 A1342.44878
G1 X26.109 Y35.814 A1344.92662
G1 X26.396 Y34.716 A1348.96893
G1 X26.611 Y34.039 A1351.49784
G1 X26.997 Y33.006 A1355.42638
G1 X27.452 Y31.985 A1359.40724
G1 X27.776 Y31.348 A1361.94989
G1 X28.125 Y30.726 A1364.49255
G1 X28.721 Y29.781 A1368.47186
G1 X29.374 Y28.874 A1372.45118
G1 X29.808 Y28.331 A1374.92747
G1 X30.563 Y27.481 A1378.97316
G1 X31.063 Y26.973 A1381.51582
G1 X31.598 Y26.472 A1384.12482
G1 X32.284 Y25.892 A1387.32356
G1 A1385.32356 F2400.00000
G1 X31.444 Y23.833 F7800.000
G1 A1387.32356 F2400.00000
G1 F1800
G1 X31.765 Y23.584 A1388.77062
G1 X32.430 Y23.119 A1391.66295
G1 X33.128 Y22.674 A1394.61017
G1 X34.197 Y22.065 A1398.99179
G1 X34.930 Y21.697 A1401.91233
G1 X36.056 Y21.201 A1406.29393
G1 X36.822 Y20.909 A1409.21447
G1 X37.986 Y20.533 A1413.57013
G1 X39.185 Y20.225 A1417.97920
G1 X39.974 Y20.065 A1420.84560
G1 X41.205 Y19.880 A1425.28136
G1 X42.014 Y19.800 A1428.17507
G1 X42.832 Y19.753 A1431.09474
G1 X43.660 Y19.740 A1434.04198
G1 X44.890 Y19.783 A1438.42496
G1 X45.692 Y19.852 A1441.29199
G1 X46.926 Y20.022 A1445.72776
G1 X47.724 Y20.174 A1448.62149
G1 X48.522 Y20.360 A1451.54113
G1 X49.320 Y20.581 A1454.48837
G1 X50.487 Y20.970 A1458.87136
G1 X51.244 Y21.266 A1461.76571
G1 X51.995 Y21.595 A1464.68676
G1 X52.732 Y21.955 A1467.60643
G1 X53.460 Y22.348 A1470.55366
G1 X54.512 Y22.987 A1474.93665
G1 X55.177 Y23.440 A1477.80367
G1 X56.170 Y24.192 A1482.23945
G1 X56.786 Y24.710 A1485.10583
G1 X57.696 Y25.560 A1489.54022
G1 X58.266 Y26.149 A1492.46012
G1 X59.076 Y27.076 A1496.84310
G1 X59.578 Y27.715 A1499.73746
G1 X60.058 Y28.379 A1502.65712
G1 X60.515 Y29.069 A1505.60435
G1 X61.137 Y30.122 A1509.96002
G1 X61.700 Y31.225 A1514.36909
G1 X62.033 Y31.966 A1517.26142
G1 X62.339 Y32.734 A1520.20866
G1 X62.735 Y33.892 A1524.56431
G1 X63.062 Y35.086 A1528.97337
G1 X63.235 Y35.872 A1531.83976
G1 X63.441 Y37.100 A1536.27554
G1 X63.534 Y37.907 A1539.16926
G1 X63.594 Y38.725 A1542.09030
G1 X63.621 Y39.537 A1544.98402
G1 X63.598 Y40.783 A1549.41979
G1 X63.542 Y41.585 A1552.28617
G1 X63.392 Y42.822 A1556.72195
G1 X63.253 Y43.622 A1559.61567
G1 X63.081 Y44.417 A1562.50938
G1 X62.757 Y45.619 A1566.94516
G1 X62.505 Y46.391 A1569.83887
G1 X62.219 Y47.160 A1572.75992
G1 X61.905 Y47.910 A1575.65364
G1 X61.366 Y49.032 A1580.08941
G1 X60.977 Y49.745 A1582.98174
G1 X60.551 Y50.455 A1585.92898
G1 X59.865 Y51.477 A1590.31197
G1 X59.379 Y52.127 A1593.20493
G1 X58.856 Y52.769 A1596.15216
G1 X58.031 Y53.683 A1600.53789
G1 X57.490 Y54.224 A1603.26162
G1 X56.663 Y54.978 A1607.24997
G1 X56.095 Y55.450 A1609.87793
G1 X55.217 Y56.113 A1613.79816
G1 X54.298 Y56.731 A1617.74187
G1 X53.347 Y57.298 A1621.68501
G1 X52.360 Y57.814 A1625.65273
G1 X51.703 Y58.119 A1628.23252
G1 X50.666 Y58.545 A1632.22362
G1 X49.971 Y58.793 A1634.85159
G1 X48.919 Y59.116 A1638.77181
G1 X47.844 Y59.382 A1642.71553
G1 X46.749 Y59.589 A1646.68327
G1 X46.025 Y59.692 A1649.28764
G1 X45.291 Y59.769 A1651.91662
G1 X44.555 Y59.818 A1654.54562
G1 X43.817 Y59.841 A1657.17458
G1 X43.079 Y59.837 A1659.80359
G1 X42.341 Y59.805 A1662.43257
G1 X41.605 Y59.746 A1665.06154
G1 X40.879 Y59.661 A1667.66594
G1 X39.780 Y59.481 A1671.63367
G1 X38.692 Y59.240 A1675.60016
G1 X37.980 Y59.047 A1678.22811
G1 X36.932 Y58.711 A1682.14835
G1 X35.891 Y58.314 A1686.11666
G1 X35.227 Y58.024 A1688.69644
G1 X34.227 Y57.532 A1692.66419
G1 X33.257 Y56.986 A1696.63067
G1 X32.631 Y56.595 A1699.25862
G1 X31.725 Y55.969 A1703.17886
G1 X30.850 Y55.291 A1707.12257
G1 X30.009 Y54.561 A1711.09030
G1 X29.484 Y54.061 A1713.67009
G1 X28.714 Y53.257 A1717.63783
G1 X27.993 Y52.416 A1721.58097
G1 X27.316 Y51.532 A1725.54869
G1 X26.902 Y50.937 A1728.12850
G1 X26.309 Y49.994 A1732.09623
G1 X25.769 Y49.020 A1736.06271
G1 X25.442 Y48.358 A1738.69068
G1 X24.999 Y47.351 A1742.61092
G1 X24.610 Y46.314 A1746.55462
G1 X24.279 Y45.257 A1750.49775
G1 X24.005 Y44.178 A1754.46549
G1 X23.858 Y43.461 A1757.06988
G1 X23.736 Y42.733 A1759.69885
G1 X23.641 Y42.001 A1762.32784
G1 X23.573 Y41.266 A1764.95681
G1 X23.533 Y40.530 A1767.58250
G1 X23.520 Y39.793 A1770.20893
G1 X23.536 Y38.970 A1773.13868
G1 X23.586 Y38.153 A1776.05536
G1 X23.671 Y37.330 A1779.00259
G1 X23.860 Y36.113 A1783.38559
G1 X24.023 Y35.325 A1786.25261
G1 X24.338 Y34.121 A1790.68699
G1 X24.586 Y33.339 A1793.60690
G1 X25.015 Y32.194 A1797.96257
G1 X25.519 Y31.063 A1802.37164
G1 X25.887 Y30.339 A1805.26534
G1 X26.284 Y29.630 A1808.15907
G1 X26.945 Y28.583 A1812.56750
G1 X27.668 Y27.578 A1816.97593
G1 X28.171 Y26.950 A1819.84232
G1 X28.997 Y26.019 A1824.27810
G1 X29.567 Y25.439 A1827.17181
G1 X30.166 Y24.879 A1830.09286
G1 X30.970 Y24.201 A1833.83754
G1 X31.822 Y23.980 F7800.000
G1 A1831.83754 F2400.00000
G1 X49.786 Y26.005 F7800.000
G1 A1833.83754 F2400.00000
G1 F1800
G1 X57.356 Y33.574 A1872.57268
G1 A1870.57268 F2400.00000
G1 X58.571 Y37.867 F7800.000
G1 A1872.57268 F2400.00000
G1 F1800
G1 X46.683 Y25.979 A1933.40685
G1 X45.972 Y25.836 A1936.03241
G1 X45.036 Y25.707 A1939.44933
G1 X44.534 Y25.663 A1941.27491
G1 X43.603 Y25.631 A1944.64373
G1 X43.263 Y25.636 A1945.87405
G1 X57.720 Y40.093 A2019.85439
G1 X57.677 Y41.026 A2023.23405
G1 X57.563 Y41.963 A2026.65096
G1 X57.396 Y42.846 A2029.90081
G1 X40.515 Y25.965 A2116.28737
G1 X39.626 Y26.192 A2119.60530
G1 X38.777 Y26.467 A2122.83731
G1 X38.176 Y26.703 A2125.17313
G1 X56.660 Y45.188 A2219.76664
G1 X56.532 Y45.495 A2220.97198
G1 X56.123 Y46.346 A2224.38884
G1 X55.621 Y47.225 A2228.05261
G1 X36.136 Y27.740 A2327.76404
G1 X35.259 Y28.326 A2331.57953
G1 X34.358 Y29.040 A2335.73853
G1 X54.321 Y49.003 A2437.89618
G1 X53.758 Y49.626 A2440.93602
G1 X53.420 Y49.966 A2442.67058
G1 X52.785 Y50.544 A2445.77708
G1 X32.822 Y30.581 A2547.93310
G1 X32.360 Y31.141 A2550.56047
G1 X31.830 Y31.877 A2553.84057
G1 X31.525 Y32.361 A2555.91246
G1 X51.003 Y51.839 A2655.58977
G1 X50.474 Y52.154 A2657.81618
G1 X49.751 Y52.532 A2660.76839
G1 X48.964 Y52.877 A2663.87906
G1 X30.482 Y34.395 A2758.46262
G1 X30.154 Y35.263 A2761.82213
G1 X29.997 Y35.757 A2763.69636
G1 X29.745 Y36.736 A2767.35257
G1 X46.626 Y53.616 A2853.73732
G1 X45.787 Y53.777 A2856.82899
G1 X45.319 Y53.844 A2858.53867
G1 X44.251 Y53.936 A2862.41786
