; generated by PrusaSlicer 2.0.0+win64 on 2019-06-05 at 03:36:06

; 

; external perimeters extrusion width = 1.13mm
; perimeters extrusion width = 1.13mm
; infill extrusion width = 1.13mm
; solid infill extrusion width = 1.13mm
; top infill extrusion width = 1.00mm
; first layer extrusion width = 1.05mm

M107
g92 z0
g1 f1000 z-309
g92 x0 y0 a0 z0
g1 f1000 z0.5
; Filament gcode
G21 ; set units to millimeters
G90 ; use absolute coordinates
G1 Z1.000 F7800.000
G1 A-2.00000 F2400.00000
G1 X24.064 Y17.991 F7800.000
G1 A0.00000 F2400.00000
G1 F1800
G1 X25.284 Y16.360 A0.70733
G1 X26.843 Y14.639 A1.51379
G1 X28.831 Y12.819 A2.45005
G1 X31.029 Y11.184 A3.40151
G1 X33.376 Y9.783 A4.35080
G1 X35.818 Y8.643 A5.28705
G1 X38.004 Y7.861 A6.09343
G1 X40.653 Y7.186 A7.04276
G1 X43.319 Y6.788 A7.97900
G1 X46.037 Y6.659 A8.92393
G1 X48.741 Y6.805 A9.86451
G1 X51.032 Y7.145 A10.66877
G1 X53.650 Y7.787 A11.60500
G1 X56.225 Y8.703 A12.55426
G1 X58.699 Y9.879 A13.50569
G1 X60.999 Y11.272 A14.43973
G1 X62.864 Y12.655 A15.24615
G1 X64.866 Y14.451 A16.18020
G1 X66.705 Y16.472 A17.12944
G1 X68.306 Y18.634 A18.06349
G1 X69.508 Y20.620 A18.86991
G1 X70.680 Y23.041 A19.80396
G1 X71.616 Y25.608 A20.75318
G1 X72.280 Y28.221 A21.68938
G1 X72.639 Y30.514 A22.49569
G1 X72.806 Y33.243 A23.44503
G1 X72.699 Y35.930 A24.37906
G1 X72.323 Y38.599 A25.31528
G1 X71.670 Y41.253 A26.26449
G1 X70.904 Y43.451 A27.07299
G1 X69.786 Y45.897 A28.00714
G1 X68.401 Y48.261 A28.95853
G1 X66.787 Y50.466 A29.90777
G1 X64.987 Y52.465 A30.84182
G1 X63.117 Y54.175 A31.72193
G1 X61.100 Y55.697 A32.59976
G1 X58.657 Y57.182 A33.59266
G1 X56.382 Y58.269 A34.46834
G1 X54.009 Y59.140 A35.34620
G1 X51.241 Y59.852 A36.33912
G1 X48.371 Y60.268 A37.34625
G1 X46.221 Y60.377 A38.09381
G1 X43.365 Y60.254 A39.08672
G1 X40.867 Y59.894 A39.96336
G1 X38.416 Y59.301 A40.83905
G1 X35.719 Y58.355 A41.83198
G1 X33.429 Y57.283 A42.70987
G1 X31.256 Y56.005 A43.58556
G1 X28.950 Y54.316 A44.57848
G1 X27.070 Y52.626 A45.45639
G1 X25.362 Y50.771 A46.33211
G1 X23.645 Y48.486 A47.32505
G1 X22.339 Y46.328 A48.20077
G1 X21.240 Y44.052 A49.07864
G1 X20.260 Y41.367 A50.07160
G1 X19.636 Y38.917 A50.94948
G1 X19.246 Y36.423 A51.82642
G1 X19.087 Y33.541 A52.82893
G1 X19.223 Y30.836 A53.76954
G1 X19.554 Y28.538 A54.57595
G1 X20.184 Y25.923 A55.51011
G1 X21.092 Y23.338 A56.46158
G1 X22.255 Y20.865 A57.41088
G1 X23.705 Y18.472 A58.38271
G1 A56.38271 F2400.00000
G1 X38.113 Y17.041 F7800.000
G1 A58.38271 F2400.00000
G1 F1800
G1 X39.114 Y16.601 A58.76235
G1 X39.791 Y16.343 A59.01409
G1 X40.867 Y15.995 A59.40676
G1 X41.962 Y15.714 A59.79944
G1 X42.680 Y15.568 A60.05408
G1 X43.455 Y15.445 A60.32659
G1 X44.542 Y15.327 A60.70630
G1 X45.275 Y15.285 A60.96127
G1 X46.059 Y15.274 A61.23375
G1 X47.152 Y15.313 A61.61349
G1 X47.885 Y15.376 A61.86912
G1 X48.615 Y15.469 A62.12443
G1 X49.727 Y15.669 A62.51710
G1 X50.826 Y15.937 A62.90977
G1 X51.519 Y16.145 A63.16117
G1 X52.595 Y16.527 A63.55774
G1 X53.264 Y16.804 A63.80914
G1 X54.295 Y17.294 A64.20571
G1 X54.942 Y17.644 A64.46102
G1 X55.574 Y18.019 A64.71632
G1 X56.515 Y18.645 A65.10898
G1 X57.416 Y19.328 A65.50165
G1 X57.979 Y19.801 A65.75695
G1 X58.530 Y20.305 A66.01615
G1 X59.051 Y20.822 A66.27146
G1 X59.820 Y21.667 A66.66802
G1 X60.286 Y22.235 A66.92332
G1 X60.729 Y22.822 A67.17863
G1 X61.369 Y23.767 A67.57519
G1 X61.749 Y24.396 A67.83049
G1 X62.104 Y25.040 A68.08579
G1 X62.603 Y26.067 A68.48235
G1 X62.885 Y26.734 A68.73375
G1 X63.276 Y27.806 A69.13031
G1 X63.489 Y28.498 A69.38171
G1 X63.769 Y29.605 A69.77827
G1 X63.912 Y30.326 A70.03357
G1 X64.028 Y31.063 A70.29277
G1 X64.113 Y31.805 A70.55197
G1 X64.167 Y32.538 A70.80727
G1 X64.193 Y33.678 A71.20318
G1 X64.169 Y34.450 A71.47148
G1 X64.082 Y35.529 A71.84756
G1 X63.923 Y36.649 A72.24054
G1 X63.783 Y37.371 A72.49584
G1 X63.613 Y38.086 A72.75114
G1 X63.293 Y39.182 A73.14770
G1 X63.051 Y39.876 A73.40300
G1 X62.780 Y40.560 A73.65830
G1 X62.307 Y41.599 A74.05486
G1 X61.974 Y42.241 A74.30626
G1 X61.397 Y43.226 A74.70282
G1 X60.993 Y43.841 A74.95813
G1 X60.565 Y44.438 A75.21343
G1 X59.854 Y45.331 A75.60999
G1 X59.374 Y45.874 A75.86178
G1 X58.603 Y46.663 A76.24480
G1 X58.094 Y47.134 A76.48558
G1 X57.350 Y47.763 A76.82399
G1 X56.539 Y48.376 A77.17710
G1 X55.965 Y48.769 A77.41869
G1 X55.136 Y49.282 A77.75708
G1 X54.244 Y49.769 A78.11019
G1 X53.619 Y50.074 A78.35181
G1 X52.716 Y50.463 A78.69309
G1 X52.065 Y50.709 A78.93502
G1 X51.138 Y51.011 A79.27336
G1 X50.164 Y51.271 A79.62356
G1 X49.178 Y51.476 A79.97346
G1 X48.172 Y51.629 A80.32688
G1 X47.518 Y51.697 A80.55515
G1 X46.172 Y51.764 A81.02316
G1 X45.505 Y51.759 A81.25494
G1 X44.160 Y51.677 A81.72296
G1 X42.839 Y51.498 A82.18596
G1 X41.842 Y51.296 A82.53938
G1 X40.857 Y51.040 A82.89280
G1 X40.225 Y50.844 A83.12258
G1 X39.601 Y50.625 A83.35237
G1 X38.648 Y50.241 A83.70931
G1 X38.055 Y49.969 A83.93558
G1 X37.151 Y49.504 A84.28900
G1 X36.275 Y48.989 A84.64182
G1 X35.691 Y48.609 A84.88368
G1 X34.901 Y48.040 A85.22183
G1 X34.109 Y47.403 A85.57495
G1 X33.588 Y46.940 A85.81683
G1 X32.890 Y46.262 A86.15495
G1 X32.199 Y45.514 A86.50868
G1 X31.780 Y45.015 A86.73495
G1 X31.156 Y44.201 A87.09129
G1 X30.759 Y43.628 A87.33321
G1 X30.241 Y42.804 A87.67130
G1 X29.748 Y41.913 A88.02503
G1 X29.458 Y41.329 A88.25130
G1 X29.049 Y40.398 A88.60473
G1 X28.692 Y39.447 A88.95756
G1 X28.478 Y38.784 A89.19951
G1 X28.222 Y37.845 A89.53757
G1 X28.008 Y36.849 A89.89130
G1 X27.813 Y35.530 A90.35431
G1 X27.751 Y34.861 A90.58761
G1 X27.715 Y34.195 A90.81918
G1 X27.703 Y33.333 A91.11878
G1 X27.737 Y32.395 A91.44474
G1 X27.797 Y31.658 A91.70157
G1 X27.895 Y30.879 A91.97431
G1 X28.084 Y29.805 A92.35314
G1 X28.258 Y29.050 A92.62230
G1 X28.557 Y28.000 A93.00113
G1 X28.807 Y27.267 A93.27029
G1 X29.208 Y26.262 A93.64590
G1 X29.689 Y25.239 A94.03892
G1 X30.036 Y24.590 A94.29423
G1 X30.413 Y23.949 A94.55278
G1 X30.840 Y23.290 A94.82548
G1 X31.479 Y22.403 A95.20502
G1 X31.939 Y21.829 A95.46066
G1 X32.421 Y21.274 A95.71598
G1 X33.206 Y20.460 A96.10866
G1 X34.039 Y19.695 A96.50134
G1 X34.606 Y19.227 A96.75665
G1 X35.198 Y18.776 A97.01520
G1 X35.842 Y18.328 A97.28783
G1 X36.770 Y17.750 A97.66743
G1 X37.577 Y17.310 A97.98656
G1 X37.739 Y16.295 F7800.000
G1 F1800
G1 X38.797 Y15.828 A98.38806
G1 X39.514 Y15.555 A98.65452
G1 X40.634 Y15.193 A99.06352
G1 X41.775 Y14.900 A99.47252
G1 X42.531 Y14.746 A99.74077
G1 X43.345 Y14.616 A100.02676
G1 X44.473 Y14.495 A100.42105
G1 X45.245 Y14.450 A100.68951
G1 X46.068 Y14.438 A100.97546
G1 X47.203 Y14.479 A101.36979
G1 X47.974 Y14.545 A101.63866
G1 X48.741 Y14.643 A101.90732
G1 X49.900 Y14.852 A102.31631
G1 X51.044 Y15.131 A102.72530
G1 X51.779 Y15.350 A102.99155
G1 X52.895 Y15.747 A103.40296
G1 X53.603 Y16.041 A103.66920
G1 X54.673 Y16.549 A104.08061
G1 X55.354 Y16.917 A104.34927
G1 X56.019 Y17.312 A104.61792
G1 X56.999 Y17.964 A105.02691
G1 X57.938 Y18.675 A105.43590
G1 X58.530 Y19.173 A105.70456
G1 X59.106 Y19.700 A105.97563
G1 X59.655 Y20.244 A106.24429
G1 X60.452 Y21.120 A106.65569
G1 X60.943 Y21.718 A106.92435
G1 X61.409 Y22.336 A107.19300
G1 X62.073 Y23.317 A107.60440
G1 X62.473 Y23.978 A107.87306
G1 X62.846 Y24.656 A108.14171
G1 X63.363 Y25.722 A108.55311
G1 X63.663 Y26.427 A108.81935
G1 X64.068 Y27.540 A109.23075
G1 X64.294 Y28.273 A109.49699
G1 X64.584 Y29.421 A109.90839
G1 X64.735 Y30.180 A110.17704
G1 X64.856 Y30.951 A110.44811
G1 X64.945 Y31.726 A110.71919
G1 X65.002 Y32.498 A110.98784
G1 X65.029 Y33.681 A111.39883
G1 X65.004 Y34.496 A111.68210
G1 X64.913 Y35.621 A112.07425
G1 X64.747 Y36.788 A112.48344
G1 X64.599 Y37.547 A112.75209
G1 X64.421 Y38.300 A113.02074
G1 X64.088 Y39.437 A113.43214
G1 X63.834 Y40.167 A113.70080
G1 X63.550 Y40.886 A113.96945
G1 X63.058 Y41.964 A114.38085
G1 X62.705 Y42.645 A114.64709
G1 X62.107 Y43.667 A115.05849
G1 X61.683 Y44.314 A115.32715
G1 X61.232 Y44.942 A115.59580
G1 X60.494 Y45.869 A116.00721
G1 X59.985 Y46.443 A116.27369
G1 X59.185 Y47.262 A116.67118
G1 X58.648 Y47.760 A116.92572
G1 X57.872 Y48.416 A117.27860
G1 X57.027 Y49.055 A117.64651
G1 X56.421 Y49.469 A117.90157
G1 X55.557 Y50.004 A118.25442
G1 X54.627 Y50.512 A118.62234
G1 X53.967 Y50.833 A118.87742
G1 X53.029 Y51.238 A119.23205
G1 X52.342 Y51.497 A119.48734
G1 X51.376 Y51.812 A119.84015
G1 X50.357 Y52.084 A120.20626
G1 X49.326 Y52.299 A120.57219
G1 X48.278 Y52.458 A120.94030
G1 X47.588 Y52.530 A121.18116
G1 X46.183 Y52.599 A121.66996
G1 X45.483 Y52.595 A121.91300
G1 X44.078 Y52.509 A122.40181
G1 X43.381 Y52.427 A122.64579
G1 X42.693 Y52.321 A122.88759
G1 X41.654 Y52.111 A123.25570
G1 X40.628 Y51.844 A123.62381
G1 X39.963 Y51.638 A123.86562
G1 X39.306 Y51.407 A124.10742
G1 X38.317 Y51.008 A124.47771
G1 X37.690 Y50.721 A124.71734
G1 X36.748 Y50.236 A125.08545
G1 X35.835 Y49.700 A125.45319
G1 X35.219 Y49.298 A125.70852
G1 X34.395 Y48.705 A126.06113
G1 X33.570 Y48.041 A126.42906
G1 X33.020 Y47.553 A126.68441
G1 X32.292 Y46.846 A127.03699
G1 X31.572 Y46.066 A127.40529
G1 X31.128 Y45.539 A127.64493
G1 X30.480 Y44.693 A128.01485
G1 X30.062 Y44.088 A128.27024
G1 X29.522 Y43.229 A128.62279
G1 X29.008 Y42.301 A128.99109
G1 X28.701 Y41.683 A129.23072
G1 X28.275 Y40.713 A129.59884
G1 X27.903 Y39.722 A129.96659
G1 X27.677 Y39.022 A130.22201
G1 X27.411 Y38.042 A130.57453
G1 X27.188 Y37.006 A130.94284
G1 X27.073 Y36.319 A131.18465
G1 X26.983 Y35.622 A131.42863
G1 X26.918 Y34.923 A131.67262
G1 X26.879 Y34.224 A131.91553
G1 X26.867 Y33.324 A132.22842
G1 X26.903 Y32.346 A132.56827
G1 X26.966 Y31.572 A132.83788
G1 X27.068 Y30.754 A133.12410
G1 X27.265 Y29.638 A133.51777
G1 X27.449 Y28.841 A133.80177
G1 X27.759 Y27.751 A134.19544
G1 X28.023 Y26.977 A134.47944
G1 X28.441 Y25.930 A134.87112
G1 X28.942 Y24.864 A135.28034
G1 X29.307 Y24.181 A135.54901
G1 X29.702 Y23.510 A135.81968
G1 X30.150 Y22.818 A136.10586
G1 X30.814 Y21.898 A136.49998
G1 X31.297 Y21.293 A136.76886
G1 X31.805 Y20.709 A137.03753
G1 X32.622 Y19.862 A137.44654
G1 X33.490 Y19.065 A137.85554
G1 X34.086 Y18.572 A138.12421
G1 X34.706 Y18.100 A138.39488
G1 X35.383 Y17.630 A138.68099
G1 X36.346 Y17.030 A139.07518
G1 X37.203 Y16.563 A139.41397
G1 X37.365 Y15.548 F7800.000
G1 F1800
G1 X38.480 Y15.055 A139.83735
G1 X39.236 Y14.767 A140.11851
G1 X40.401 Y14.390 A140.54384
G1 X41.587 Y14.085 A140.96916
G1 X42.383 Y13.924 A141.25102
G1 X43.234 Y13.788 A141.55049
G1 X44.405 Y13.662 A141.95937
G1 X45.215 Y13.615 A142.24131
G1 X46.077 Y13.603 A142.54074
G1 X47.254 Y13.645 A142.94966
G1 X48.063 Y13.714 A143.23175
G1 X48.868 Y13.817 A143.51377
G1 X50.074 Y14.034 A143.93909
G1 X51.263 Y14.324 A144.36440
G1 X52.039 Y14.556 A144.64549
G1 X53.195 Y14.967 A145.07173
G1 X53.943 Y15.277 A145.35282
G1 X55.051 Y15.804 A145.77906
G1 X55.766 Y16.190 A146.06108
G1 X56.464 Y16.604 A146.34309
G1 X57.483 Y17.283 A146.76840
G1 X58.459 Y18.022 A147.19371
G1 X59.081 Y18.545 A147.47572
G1 X59.682 Y19.094 A147.75867
G1 X60.258 Y19.666 A148.04068
G1 X61.084 Y20.574 A148.46692
G1 X61.599 Y21.202 A148.74893
G1 X62.088 Y21.850 A149.03094
G1 X62.776 Y22.866 A149.45718
G1 X63.197 Y23.561 A149.73919
G1 X63.588 Y24.272 A150.02120
G1 X64.124 Y25.376 A150.44744
G1 X64.440 Y26.121 A150.72852
G1 X64.861 Y27.274 A151.15476
G1 X65.099 Y28.048 A151.43583
G1 X65.399 Y29.237 A151.86207
G1 X65.558 Y30.034 A152.14408
G1 X65.684 Y30.839 A152.42702
G1 X65.777 Y31.648 A152.70997
G1 X65.837 Y32.458 A152.99197
G1 X65.864 Y33.684 A153.41805
G1 X65.838 Y34.542 A153.71628
G1 X65.744 Y35.714 A154.12451
G1 X65.571 Y36.926 A154.54989
G1 X65.416 Y37.723 A154.83190
G1 X65.229 Y38.513 A155.11391
G1 X64.884 Y39.691 A155.54015
G1 X64.617 Y40.458 A155.82216
G1 X64.319 Y41.213 A156.10417
G1 X63.810 Y42.330 A156.53041
G1 X63.437 Y43.048 A156.81148
G1 X62.817 Y44.108 A157.23772
G1 X62.372 Y44.786 A157.51973
G1 X61.899 Y45.446 A157.80174
G1 X61.134 Y46.406 A158.22799
G1 X60.597 Y47.013 A158.50916
G1 X59.768 Y47.861 A158.92112
G1 X59.201 Y48.386 A159.18942
G1 X58.394 Y49.068 A159.55677
G1 X57.515 Y49.733 A159.93949
G1 X56.877 Y50.169 A160.20800
G1 X55.978 Y50.726 A160.57532
G1 X55.011 Y51.255 A160.95804
G1 X54.315 Y51.593 A161.22660
G1 X53.342 Y52.012 A161.59458
G1 X52.619 Y52.285 A161.86322
G1 X51.613 Y52.613 A162.23049
G1 X50.551 Y52.897 A162.61252
G1 X49.474 Y53.121 A162.99448
G1 X48.384 Y53.286 A163.37728
G1 X47.658 Y53.362 A163.63074
G1 X46.193 Y53.434 A164.14033
G1 X45.461 Y53.430 A164.39463
G1 X43.996 Y53.340 A164.90422
G1 X43.268 Y53.255 A165.15888
G1 X42.546 Y53.143 A165.41270
G1 X41.466 Y52.925 A165.79551
G1 X40.399 Y52.647 A166.17831
G1 X39.701 Y52.431 A166.43213
G1 X39.011 Y52.189 A166.68596
G1 X37.987 Y51.776 A167.06960
G1 X37.325 Y51.472 A167.32258
G1 X36.345 Y50.968 A167.70539
G1 X35.395 Y50.410 A168.08805
G1 X34.747 Y49.987 A168.35685
G1 X33.889 Y49.370 A168.72392
G1 X33.030 Y48.679 A169.10665
G1 X32.451 Y48.165 A169.37547
G1 X31.693 Y47.429 A169.74252
G1 X30.945 Y46.619 A170.12540
G1 X30.476 Y46.062 A170.37838
G1 X29.805 Y45.185 A170.76189
G1 X29.364 Y44.549 A171.03075
G1 X28.802 Y43.654 A171.39776
G1 X28.268 Y42.690 A171.78064
G1 X27.944 Y42.037 A172.03363
G1 X27.501 Y41.028 A172.41644
G1 X27.114 Y39.996 A172.79911
G1 X26.876 Y39.259 A173.06800
G1 X26.599 Y38.240 A173.43498
G1 X26.367 Y37.162 A173.81787
G1 X26.246 Y36.441 A174.07169
G1 X26.152 Y35.714 A174.32636
G1 X26.085 Y34.984 A174.58103
G1 X26.044 Y34.253 A174.83529
G1 X26.031 Y33.314 A175.16147
G1 X26.068 Y32.296 A175.51520
G1 X26.135 Y31.486 A175.79759
G1 X26.242 Y30.630 A176.09730
G1 X26.446 Y29.472 A176.50580
G1 X26.640 Y28.633 A176.80465
G1 X26.962 Y27.502 A177.21316
G1 X27.240 Y26.688 A177.51200
G1 X27.674 Y25.597 A177.91975
G1 X28.196 Y24.489 A178.34516
G1 X28.578 Y23.773 A178.62719
G1 X28.991 Y23.071 A178.90998
G1 X29.460 Y22.346 A179.20965
G1 X30.148 Y21.392 A179.61835
G1 X30.656 Y20.758 A179.90046
G1 X31.189 Y20.145 A180.18248
G1 X32.039 Y19.263 A180.60781
G1 X32.941 Y18.435 A181.03314
G1 X33.567 Y17.918 A181.31517
G1 X34.215 Y17.425 A181.59797
G1 X34.923 Y16.932 A181.89755
G1 X35.922 Y16.310 A182.30633
G1 X36.828 Y15.817 A182.66479
G1 X38.372 Y16.234 F7800.000
G1 A180.66479 F2400.00000
G1 X55.833 Y18.492 F7800.000
G1 A182.66479 F2400.00000
G1 F1800
G1 X60.980 Y23.639 A185.20320
G1 A183.20320 F2400.00000
G1 X62.411 Y26.256 F7800.000
G1 A185.20320 F2400.00000
G1 F1800
G1 X54.004 Y17.850 A189.34922
G1 X53.009 Y17.377 A189.73346
G1 X52.370 Y17.112 A189.97473
G1 X51.920 Y16.952 A190.14130
G1 X62.515 Y27.547 A195.36661
G1 X62.682 Y28.006 A195.53712
G1 X62.886 Y28.667 A195.77838
G1 X63.033 Y29.252 A195.98864
G1 X50.215 Y16.433 A202.31080
G1 X49.597 Y16.283 A202.53240
G1 X48.720 Y16.125 A202.84332
G1 X63.344 Y30.749 A210.05608
G1 X63.407 Y31.148 A210.19683
G1 X63.506 Y32.097 A210.52983
G1 X47.370 Y15.961 A218.48857
G1 X46.126 Y15.903 A218.92271
G1 X63.558 Y33.336 A227.52041
G1 X63.566 Y33.675 A227.63879
G1 X63.537 Y34.500 A227.92676
G1 X44.967 Y15.931 A237.08534
G1 X43.879 Y16.029 A237.46626
G1 X63.441 Y35.590 A247.11395
G1 X63.289 Y36.625 A247.47875
G1 X42.841 Y16.177 A257.56405
G1 X41.864 Y16.386 A257.91254
G1 X63.083 Y37.605 A268.37794
G1 X62.828 Y38.537 A268.71475
G1 X40.926 Y16.635 A279.51699
G1 X40.030 Y16.925 A279.84552
G1 X62.541 Y39.436 A290.94794
G1 X62.212 Y40.293 A291.26826
G1 X39.177 Y17.258 A302.62925
G1 X38.380 Y17.609 A302.93290
G1 X38.354 Y17.622 A302.94297
G1 X61.842 Y41.109 A314.52710
G1 X61.445 Y41.899 A314.83534
G1 X37.569 Y18.023 A326.61136
G1 X36.818 Y18.458 A326.91406
G1 X61.009 Y42.649 A338.84512
G1 X60.549 Y43.376 A339.14499
G1 X36.091 Y18.918 A351.20770
G1 X35.398 Y19.411 A351.50438
G1 X60.058 Y44.070 A363.66642
G1 X59.531 Y44.730 A363.96082
G1 X34.734 Y19.933 A376.19079
G1 X34.102 Y20.488 A376.48395
G1 X58.984 Y45.369 A388.75556
G1 X58.401 Y45.973 A389.04814
G1 X33.493 Y21.065 A401.33281
G1 X32.911 Y21.669 A401.62540
G1 X57.797 Y46.555 A413.89930
G1 X57.159 Y47.104 A414.19267
G1 X32.360 Y22.305 A426.42359
G1 X31.841 Y22.972 A426.71840
G1 X56.494 Y47.625 A438.87717
G1 X55.803 Y48.120 A439.17365
G1 X31.345 Y23.662 A451.23647
G1 X30.883 Y24.386 A451.53605
G1 X55.078 Y48.581 A463.46912
G1 X54.323 Y49.012 A463.77235
G1 X30.452 Y25.141 A475.54571
G1 X30.056 Y25.931 A475.85397
G1 X53.540 Y49.415 A487.43630
G1 X52.718 Y49.780 A487.74982
G1 X29.688 Y26.750 A499.10830
G1 X29.355 Y27.603 A499.42770
G1 X51.866 Y50.114 A510.53024
G1 X50.972 Y50.406 A510.85830
G1 X29.066 Y28.500 A521.66217
G1 X28.813 Y29.434 A521.99937
G1 X50.036 Y50.656 A532.46650
G1 X49.054 Y50.861 A532.81614
G1 X28.612 Y30.419 A542.89829
G1 X28.514 Y30.972 A543.09421
G1 X28.455 Y31.448 A543.26146
G1 X48.021 Y51.015 A552.91162
G1 X47.470 Y51.072 A553.10481
G1 X46.920 Y51.099 A553.29702
G1 X28.358 Y32.538 A562.45148
G1 X28.334 Y33.700 A562.85684
G1 X45.769 Y51.135 A571.45551
G1 X44.789 Y51.099 A571.79726
G1 X44.520 Y51.072 A571.89181
G1 X28.399 Y34.951 A579.84272
G1 X28.437 Y35.467 A580.02316
G1 X28.550 Y36.289 A580.31249
G1 X43.178 Y50.916 A587.52693
G1 X41.983 Y50.686 A587.95139
G1 X41.683 Y50.608 A588.05947
G1 X28.854 Y37.779 A594.38671
G1 X29.079 Y38.605 A594.68541
G1 X29.376 Y39.487 A595.01011
G1 X39.979 Y50.090 A600.23948
G1 X38.895 Y49.665 A600.64552
G1 X38.329 Y49.406 A600.86267
G1 X37.874 Y49.171 A601.04136
G1 X29.497 Y40.794 A605.17295
G1 A603.17295 F2400.00000
G1 X30.904 Y43.388 F7800.000
G1 A605.17295 F2400.00000
G1 F1800
G1 X36.078 Y48.562 A607.72494
G1 Z2.000 F7800.000
G1 A605.72494 F2400.00000
G1 X37.858 Y16.533 F7800.000
G1 A607.72494 F2400.00000
G1 F1800
G1 X38.890 Y16.078 A608.15394
G1 X39.985 Y15.674 A608.59830
G1 X40.696 Y15.452 A608.88186
G1 X41.838 Y15.158 A609.33049
G1 X42.578 Y15.008 A609.61790
G1 X43.378 Y14.881 A609.92617
G1 X44.499 Y14.760 A610.35516
G1 X45.254 Y14.717 A610.64297
G1 X46.064 Y14.705 A610.95120
G1 X47.190 Y14.745 A611.38023
G1 X47.934 Y14.809 A611.66419
G1 X49.101 Y14.970 A612.11281
G1 X49.845 Y15.112 A612.40103
G1 X50.583 Y15.284 A612.68926
G1 X51.714 Y15.609 A613.13707
G1 X52.467 Y15.870 A613.44054
G1 X53.501 Y16.287 A613.86498
G1 X54.556 Y16.789 A614.30933
G1 X55.222 Y17.148 A614.59755
G1 X55.873 Y17.535 A614.88578
G1 X56.855 Y18.188 A615.33439
G1 X57.463 Y18.639 A615.62261
G1 X58.052 Y19.115 A615.91083
G1 X58.931 Y19.901 A616.35944
G1 X59.467 Y20.433 A616.64686
G1 X60.017 Y21.027 A616.95488
G1 X60.732 Y21.883 A617.37943
G1 X61.426 Y22.822 A617.82377
G1 X61.844 Y23.453 A618.11199
G1 X62.236 Y24.101 A618.40021
G1 X62.794 Y25.140 A618.84881
G1 X63.118 Y25.824 A619.13703
G1 X63.418 Y26.533 A619.42992
G1 X63.689 Y27.253 A619.72280
G1 X63.930 Y27.982 A620.01488
G1 X64.151 Y28.760 A620.32285
G1 X64.403 Y29.857 A620.75131
G1 X64.541 Y30.643 A621.05500
G1 X64.681 Y31.763 A621.48427
G1 X64.736 Y32.507 A621.76822
G1 X64.762 Y33.683 A622.21602
G1 X64.738 Y34.480 A622.51931
G1 X64.647 Y35.604 A622.94858
G1 X64.548 Y36.354 A623.23640
G1 X64.408 Y37.151 A623.54436
G1 X64.158 Y38.250 A623.97363
G1 X63.953 Y38.978 A624.26144
G1 X63.701 Y39.747 A624.56941
G1 X63.301 Y40.789 A624.99400
G1 X62.817 Y41.851 A625.43834
G1 X62.469 Y42.522 A625.72575
G1 X62.066 Y43.223 A626.03375
G1 X61.457 Y44.170 A626.46218
G1 X60.991 Y44.818 A626.76592
G1 X60.288 Y45.700 A627.19515
G1 X59.793 Y46.259 A627.47957
G1 X59.003 Y47.067 A627.90934
G1 X58.231 Y47.771 A628.30725
G1 X57.678 Y48.229 A628.58030
G1 X56.877 Y48.834 A628.96238
G1 X56.014 Y49.414 A629.35811
G1 X55.114 Y49.950 A629.75695
G1 X54.480 Y50.288 A630.03005
G1 X53.574 Y50.719 A630.41209
G1 X52.612 Y51.114 A630.80782
G1 X51.620 Y51.459 A631.20739
G1 X50.977 Y51.649 A631.46260
G1 X49.949 Y51.903 A631.86564
G1 X49.245 Y52.042 A632.13881
G1 X48.242 Y52.194 A632.52498
G1 X47.563 Y52.265 A632.78475
G1 X46.872 Y52.311 A633.04836
G1 X46.179 Y52.333 A633.31197
G1 X45.487 Y52.328 A633.57558
G1 X44.795 Y52.299 A633.83918
G1 X44.104 Y52.244 A634.10280
G1 X43.416 Y52.163 A634.36641
G1 X42.734 Y52.057 A634.62928
G1 X42.018 Y51.919 A634.90674
G1 X41.043 Y51.683 A635.28863
G1 X40.036 Y51.381 A635.68858
G1 X39.403 Y51.159 A635.94379
G1 X38.430 Y50.766 A636.34337
G1 X37.481 Y50.321 A636.74221
G1 X36.846 Y49.985 A637.01554
G1 X35.981 Y49.477 A637.39737
G1 X35.115 Y48.902 A637.79312
G1 X34.273 Y48.274 A638.19269
G1 X33.748 Y47.843 A638.45137
G1 X33.202 Y47.359 A638.72895
G1 X32.483 Y46.660 A639.11074
G1 X31.777 Y45.896 A639.50649
G1 X31.116 Y45.095 A639.90187
G1 X30.493 Y44.249 A640.30145
G1 X30.120 Y43.692 A640.55667
G1 X29.572 Y42.783 A640.96045
G1 X29.248 Y42.186 A641.21912
G1 X28.925 Y41.532 A641.49677
G1 X28.522 Y40.613 A641.87850
G1 X28.154 Y39.631 A642.27770
G1 X27.933 Y38.947 A642.55116
G1 X27.670 Y37.980 A642.93288
G1 X27.450 Y36.957 A643.33096
G1 X27.247 Y35.593 A643.85577
G1 X27.184 Y34.903 A644.11939
G1 X27.146 Y34.222 A644.37907
G1 X27.136 Y33.193 A644.77066
G1 X27.168 Y32.363 A645.08678
G1 X27.230 Y31.610 A645.37417
G1 X27.386 Y30.442 A645.82280
G1 X27.525 Y29.697 A646.11104
G1 X27.694 Y28.959 A646.39927
G1 X28.012 Y27.837 A646.84324
G1 X28.398 Y26.736 A647.28720
G1 X28.685 Y26.035 A647.57543
G1 X29.001 Y25.346 A647.86367
G1 X29.546 Y24.301 A648.31230
G1 X29.929 Y23.650 A648.59971
G1 X30.369 Y22.970 A648.90818
G1 X31.028 Y22.056 A649.33699
G1 X31.501 Y21.466 A649.62481
G1 X32.034 Y20.855 A649.93325
G1 X32.808 Y20.053 A650.35742
G1 X33.668 Y19.264 A650.80178
G1 X34.252 Y18.781 A651.09002
G1 X34.854 Y18.322 A651.37825
G1 X35.828 Y17.658 A651.82688
G1 X36.474 Y17.263 A652.11511
G1 X37.322 Y16.802 A652.48238
G1 X37.448 Y15.714 F7800.000
G1 F1800
G1 X38.547 Y15.229 A652.93940
G1 X39.690 Y14.807 A653.40321
G1 X40.446 Y14.571 A653.70459
G1 X41.633 Y14.266 A654.17103
G1 X42.415 Y14.107 A654.47479
G1 X43.257 Y13.973 A654.79925
G1 X44.423 Y13.847 A655.24575
G1 X45.221 Y13.802 A655.54975
G1 X46.073 Y13.789 A655.87417
G1 X47.246 Y13.831 A656.32070
G1 X48.035 Y13.899 A656.62233
G1 X49.250 Y14.067 A657.08877
G1 X50.035 Y14.216 A657.39303
G1 X50.814 Y14.398 A657.69729
G1 X51.990 Y14.736 A658.16322
G1 X52.788 Y15.013 A658.48466
G1 X53.870 Y15.449 A658.92840
G1 X54.970 Y15.972 A659.39219
G1 X55.674 Y16.352 A659.69645
G1 X56.361 Y16.760 A660.00071
G1 X57.381 Y17.439 A660.46713
G1 X58.024 Y17.915 A660.77139
G1 X58.646 Y18.417 A661.07565
G1 X59.559 Y19.235 A661.54208
G1 X60.125 Y19.797 A661.84584
G1 X60.704 Y20.422 A662.17005
G1 X61.452 Y21.316 A662.61388
G1 X62.176 Y22.297 A663.07767
G1 X62.618 Y22.963 A663.38193
G1 X63.031 Y23.647 A663.68618
G1 X63.611 Y24.727 A664.15261
G1 X63.953 Y25.450 A664.45686
G1 X64.268 Y26.193 A664.76400
G1 X64.552 Y26.948 A665.07113
G1 X64.805 Y27.713 A665.37778
G1 X65.038 Y28.533 A665.70193
G1 X65.300 Y29.675 A666.14820
G1 X65.447 Y30.507 A666.46971
G1 X65.592 Y31.672 A666.91649
G1 X65.650 Y32.463 A667.21811
G1 X65.678 Y33.687 A667.68403
G1 X65.652 Y34.530 A668.00529
G1 X65.558 Y35.700 A668.45207
G1 X65.453 Y36.492 A668.75608
G1 X65.306 Y37.331 A669.08022
G1 X65.046 Y38.476 A669.52700
G1 X64.829 Y39.245 A669.83101
G1 X64.564 Y40.054 A670.15516
G1 X64.146 Y41.143 A670.59905
G1 X63.640 Y42.252 A671.06283
G1 X63.273 Y42.961 A671.36659
G1 X62.849 Y43.699 A671.69077
G1 X62.214 Y44.685 A672.13702
G1 X61.721 Y45.371 A672.45858
G1 X60.989 Y46.289 A672.90531
G1 X60.463 Y46.883 A673.20722
G1 X59.639 Y47.726 A673.65570
G1 X58.831 Y48.462 A674.07188
G1 X58.246 Y48.947 A674.36111
G1 X57.409 Y49.580 A674.76055
G1 X56.504 Y50.188 A675.17538
G1 X55.563 Y50.748 A675.59214
G1 X54.892 Y51.105 A675.88142
G1 X53.945 Y51.556 A676.28082
G1 X52.936 Y51.970 A676.69565
G1 X51.901 Y52.330 A677.11286
G1 X51.217 Y52.533 A677.38410
G1 X50.148 Y52.797 A677.80346
G1 X49.402 Y52.944 A678.09280
G1 X48.358 Y53.102 A678.49473
G1 X47.641 Y53.177 A678.76880
G1 X46.917 Y53.226 A679.04523
G1 X46.191 Y53.248 A679.32167
G1 X45.464 Y53.244 A679.59810
G1 X44.739 Y53.213 A679.87454
G1 X44.015 Y53.155 A680.15097
G1 X43.293 Y53.070 A680.42741
G1 X42.576 Y52.959 A680.70339
G1 X41.823 Y52.813 A680.99543
G1 X40.803 Y52.567 A681.39468
G1 X39.753 Y52.252 A681.81212
G1 X39.080 Y52.016 A682.08337
G1 X38.064 Y51.606 A682.50058
G1 X37.072 Y51.140 A682.91735
G1 X36.400 Y50.785 A683.20686
G1 X35.496 Y50.253 A683.60604
G1 X34.587 Y49.650 A684.02089
G1 X33.709 Y48.995 A684.43811
G1 X33.154 Y48.539 A684.71150
G1 X32.579 Y48.030 A685.00365
G1 X31.827 Y47.299 A685.40279
G1 X31.088 Y46.498 A685.81765
G1 X30.394 Y45.658 A686.23227
G1 X29.743 Y44.775 A686.64949
G1 X29.347 Y44.183 A686.92075
G1 X28.777 Y43.238 A687.34057
G1 X28.435 Y42.607 A687.61396
G1 X28.095 Y41.918 A687.90617
G1 X27.674 Y40.958 A688.30526
G1 X27.289 Y39.932 A688.72225
G1 X27.056 Y39.208 A689.01188
G1 X26.780 Y38.196 A689.41096
G1 X26.550 Y37.127 A689.82725
G1 X26.337 Y35.694 A690.37860
G1 X26.271 Y34.970 A690.65505
G1 X26.231 Y34.252 A690.92906
G1 X26.220 Y33.180 A691.33707
G1 X26.255 Y32.308 A691.66915
G1 X26.320 Y31.512 A691.97290
G1 X26.482 Y30.297 A692.43935
G1 X26.629 Y29.511 A692.74362
G1 X26.807 Y28.732 A693.04789
G1 X27.139 Y27.560 A693.51146
G1 X27.542 Y26.411 A693.97502
G1 X27.845 Y25.671 A694.27929
G1 X28.178 Y24.944 A694.58357
G1 X28.745 Y23.857 A695.05001
G1 X29.150 Y23.169 A695.35377
G1 X29.613 Y22.453 A695.67843
G1 X30.299 Y21.502 A696.12475
G1 X30.798 Y20.878 A696.42876
G1 X31.359 Y20.236 A696.75339
G1 X32.169 Y19.398 A697.19684
G1 X33.067 Y18.574 A697.66066
G1 X33.683 Y18.064 A697.96492
G1 X34.319 Y17.580 A698.26919
G1 X35.331 Y16.888 A698.73564
G1 X36.013 Y16.472 A699.03990
G1 X36.912 Y15.983 A699.42917
G1 X37.038 Y14.896 F7800.000
G1 F900
G1 X38.204 Y14.380 A699.91423
G1 X39.395 Y13.940 A700.39748
G1 X40.195 Y13.690 A700.71668
G1 X41.428 Y13.374 A701.20094
G1 X42.252 Y13.206 A701.52105
G1 X43.136 Y13.066 A701.86169
G1 X44.348 Y12.935 A702.32570
G1 X45.188 Y12.887 A702.64590
G1 X46.083 Y12.874 A702.98650
G1 X47.302 Y12.917 A703.45054
G1 X48.137 Y12.989 A703.76983
G1 X49.398 Y13.163 A704.25409
G1 X50.225 Y13.320 A704.57438
G1 X51.044 Y13.512 A704.89468
G1 X52.266 Y13.863 A705.37874
G1 X53.109 Y14.155 A705.71815
G1 X54.238 Y14.610 A706.18117
G1 X55.384 Y15.155 A706.66441
G1 X56.125 Y15.555 A706.98471
G1 X56.849 Y15.985 A707.30500
G1 X57.908 Y16.690 A707.78925
G1 X58.584 Y17.191 A708.10954
G1 X59.239 Y17.720 A708.42983
G1 X60.187 Y18.568 A708.91408
G1 X60.784 Y19.161 A709.23418
G1 X61.391 Y19.817 A709.57457
G1 X62.172 Y20.750 A710.03770
G1 X62.927 Y21.772 A710.52094
G1 X63.391 Y22.473 A710.84123
G1 X63.827 Y23.194 A711.16152
G1 X64.429 Y24.314 A711.64576
G1 X64.789 Y25.075 A711.96605
G1 X65.118 Y25.853 A712.28744
G1 X65.416 Y26.643 A712.60883
G1 X65.680 Y27.445 A712.93003
G1 X65.924 Y28.305 A713.27037
G1 X66.198 Y29.493 A713.73446
G1 X66.352 Y30.371 A714.07378
G1 X66.503 Y31.582 A714.53808
G1 X66.565 Y32.419 A714.85736
G1 X66.593 Y33.690 A715.34141
G1 X66.566 Y34.581 A715.68063
G1 X66.468 Y35.797 A716.14493
G1 X66.358 Y36.631 A716.46512
G1 X66.204 Y37.512 A716.80545
G1 X65.933 Y38.702 A717.26974
G1 X65.705 Y39.512 A717.58993
G1 X65.427 Y40.361 A717.93027
G1 X64.990 Y41.497 A718.39346
G1 X64.464 Y42.653 A718.87669
G1 X64.076 Y43.399 A719.19679
G1 X63.631 Y44.175 A719.53716
G1 X62.972 Y45.201 A720.00122
G1 X62.451 Y45.925 A720.34060
G1 X61.690 Y46.878 A720.80484
G1 X61.134 Y47.507 A721.12424
G1 X60.276 Y48.384 A721.59143
G1 X59.432 Y49.154 A722.02588
G1 X58.814 Y49.665 A722.33128
G1 X57.940 Y50.325 A722.74808
G1 X56.994 Y50.962 A723.18202
G1 X56.013 Y51.546 A723.61669
G1 X55.304 Y51.923 A723.92214
G1 X54.315 Y52.394 A724.33890
G1 X53.261 Y52.827 A724.77284
G1 X52.181 Y53.202 A725.20769
G1 X51.458 Y53.416 A725.49497
G1 X50.346 Y53.691 A725.93064
G1 X49.559 Y53.847 A726.23616
G1 X48.473 Y54.010 A726.65384
G1 X47.720 Y54.089 A726.94220
G1 X46.962 Y54.140 A727.23146
G1 X46.202 Y54.164 A727.52072
G1 X45.442 Y54.159 A727.80999
G1 X44.682 Y54.126 A728.09925
G1 X43.925 Y54.066 A728.38851
G1 X43.170 Y53.977 A728.67778
G1 X42.419 Y53.861 A728.96687
G1 X41.628 Y53.708 A729.27347
G1 X40.564 Y53.451 A729.69008
G1 X39.470 Y53.122 A730.12502
G1 X38.757 Y52.873 A730.41231
G1 X37.698 Y52.445 A730.84716
G1 X36.664 Y51.960 A731.28185
G1 X35.954 Y51.584 A731.58753
G1 X35.010 Y51.030 A732.00407
G1 X34.060 Y50.399 A732.43803
G1 X33.144 Y49.716 A732.87289
G1 X32.559 Y49.235 A733.16099
G1 X31.956 Y48.701 A733.46772
G1 X31.171 Y47.938 A733.88421
G1 X30.398 Y47.100 A734.31817
G1 X29.672 Y46.221 A734.75204
G1 X28.994 Y45.302 A735.18690
G1 X28.575 Y44.674 A735.47419
G1 X27.983 Y43.693 A735.91004
G1 X27.622 Y43.028 A736.19815
G1 X27.265 Y42.305 A736.50493
G1 X26.825 Y41.303 A736.92138
G1 X26.424 Y40.234 A737.35615
G1 X26.178 Y39.469 A737.66196
G1 X25.890 Y38.413 A738.07839
G1 X25.650 Y37.297 A738.51290
G1 X25.427 Y35.795 A739.09080
G1 X25.358 Y35.038 A739.38007
G1 X25.316 Y34.281 A739.66841
G1 X25.305 Y33.166 A740.09285
G1 X25.341 Y32.252 A740.44089
G1 X25.409 Y31.414 A740.76099
G1 X25.578 Y30.153 A741.24526
G1 X25.732 Y29.325 A741.56557
G1 X25.920 Y28.505 A741.88588
G1 X26.266 Y27.283 A742.36904
G1 X26.686 Y26.086 A742.85221
G1 X27.005 Y25.307 A743.17251
G1 X27.356 Y24.541 A743.49282
G1 X27.944 Y23.413 A743.97709
G1 X28.371 Y22.688 A744.29720
G1 X28.857 Y21.936 A744.63804
G1 X29.570 Y20.948 A745.10186
G1 X30.096 Y20.291 A745.42207
G1 X30.685 Y19.616 A745.76289
G1 X31.529 Y18.742 A746.22563
G1 X32.465 Y17.883 A746.70889
G1 X33.113 Y17.347 A747.02920
G1 X33.783 Y16.837 A747.34950
G1 X34.834 Y16.119 A747.83376
G1 X35.552 Y15.681 A748.15406
G1 X36.502 Y15.165 A748.56533
G1 X38.090 Y15.616 F7800.000
G1 A746.56533 F2400.00000
G1 X38.178 Y16.684 F7800.000
G1 A748.56533 F2400.00000
G1 F900
G1 X29.904 Y24.958 A752.41226
G1 X29.559 Y25.620 A752.65752
G1 X29.256 Y26.282 A752.89711
G1 X28.956 Y27.025 A753.16052
G1 X39.445 Y16.536 A758.03736
G1 X40.186 Y16.262 A758.29709
G1 X41.112 Y15.987 A758.61500
G1 X28.419 Y28.680 A764.51669
G1 X28.296 Y29.113 A764.66476
G1 X28.074 Y30.143 A765.01113
G1 X42.574 Y15.643 A771.75286
G1 X43.460 Y15.497 A772.04809
G1 X43.884 Y15.451 A772.18830
G1 X27.878 Y31.458 A779.63058
G1 X27.778 Y32.676 A780.03225
G1 X45.106 Y15.348 A788.08891
G1 X46.239 Y15.333 A788.46141
G1 X27.764 Y33.809 A797.05162
G1 X27.807 Y34.884 A797.40535
G1 X47.311 Y15.379 A806.47388
G1 X47.864 Y15.427 A806.65640
G1 X48.319 Y15.490 A806.80735
G1 X27.917 Y35.892 A816.29319
G1 X28.065 Y36.862 A816.61592
G1 X49.289 Y15.639 A826.48374
G1 X50.210 Y15.835 A826.79358
G1 X28.263 Y37.783 A836.99796
G1 X28.500 Y38.664 A837.29794
G1 X51.088 Y16.076 A847.80000
G1 X51.938 Y16.345 A848.09300
G1 X28.772 Y39.510 A858.86385
G1 X29.077 Y40.324 A859.14940
G1 X52.747 Y16.653 A870.15482
G1 X53.530 Y16.989 A870.43479
G1 X29.416 Y41.103 A881.64666
G1 X29.779 Y41.858 A881.92210
G1 X54.287 Y17.350 A893.31711
G1 X55.010 Y17.745 A893.58802
G1 X30.175 Y42.580 A905.13497
G1 X30.596 Y43.278 A905.40278
G1 X55.705 Y18.169 A917.07687
G1 X56.376 Y18.616 A917.34205
G1 X31.043 Y43.949 A929.12047
G1 X31.518 Y44.593 A929.38342
G1 X57.024 Y19.087 A941.24225
G1 X57.645 Y19.584 A941.50382
G1 X32.018 Y45.211 A953.41889
G1 X32.541 Y45.806 A953.67942
G1 X58.235 Y20.112 A965.62583
G1 X58.809 Y20.656 A965.88591
G1 X33.086 Y46.379 A977.84587
G1 X33.655 Y46.929 A978.10589
G1 X59.356 Y21.228 A990.05559
G1 X59.875 Y21.827 A990.31622
G1 X34.251 Y47.451 A1002.23032
G1 X34.874 Y47.947 A1002.49200
G1 X60.375 Y22.445 A1014.34877
G1 X60.850 Y23.089 A1014.61168
G1 X35.516 Y48.422 A1026.39061
G1 X36.189 Y48.869 A1026.65585
G1 X61.300 Y23.757 A1038.33133
G1 X61.721 Y24.455 A1038.59917
G1 X36.887 Y49.289 A1050.14547
G1 X37.609 Y49.685 A1050.41618
G1 X62.111 Y25.183 A1061.80875
G1 X62.481 Y25.931 A1062.08330
G1 X38.364 Y50.049 A1073.29654
G1 X39.146 Y50.385 A1073.57642
G1 X62.819 Y26.712 A1084.58315
G1 X63.124 Y27.525 A1084.86865
G1 X39.955 Y50.694 A1095.64109
G1 X40.805 Y50.963 A1095.93405
G1 X63.395 Y28.373 A1106.43720
G1 X63.627 Y29.258 A1106.73823
G1 X41.687 Y51.199 A1116.93957
G1 X42.605 Y51.399 A1117.24850
G1 X63.828 Y30.176 A1127.11624
G1 X63.977 Y31.145 A1127.43856
G1 X43.567 Y51.555 A1136.92816
G1 X44.582 Y51.658 A1137.26358
G1 X64.086 Y32.154 A1146.33191
G1 X64.115 Y32.537 A1146.45793
G1 X64.130 Y33.229 A1146.68559
G1 X45.651 Y51.708 A1155.27740
G1 X46.785 Y51.692 A1155.65026
G1 X64.120 Y34.358 A1163.70997
G1 X64.024 Y35.571 A1164.11022
G1 X48.002 Y51.594 A1171.55985
G1 X49.320 Y51.394 A1171.99810
G1 X63.823 Y36.891 A1178.74134
G1 X63.485 Y38.347 A1179.23269
G1 X50.773 Y51.060 A1185.14348
G1 X51.430 Y50.867 A1185.36861
G1 X52.437 Y50.514 A1185.71937
G1 X62.931 Y40.020 A1190.59871
G1 X62.728 Y40.548 A1190.78490
G1 X62.258 Y41.579 A1191.15734
G1 X62.008 Y42.061 A1191.33562
G1 X53.713 Y50.356 A1195.19243
G1 A1193.19243 F2400.00000
G1 X56.264 Y48.923 F7800.000
G1 A1195.19243 F2400.00000
G1 F900
G1 X61.358 Y43.829 A1197.56076
G1 A1195.56076 F2400.00000
G1 X35.619 Y18.125 F7800.000
G1 A1197.56076 F2400.00000
G1 F900
G1 X30.531 Y23.213 A1199.92643
G1 Z3.000 F7800.000
G1 A1197.92643 F2400.00000
G1 X37.299 Y15.457 F7800.000
G1 A1199.92643 F2400.00000
G1 F900
G1 X38.053 Y15.106 A1200.24283
G1 X38.854 Y14.783 A1200.57174
G1 X39.974 Y14.396 A1201.02254
G1 X40.804 Y14.157 A1201.35142
G1 X41.960 Y13.886 A1201.80312
G1 X43.168 Y13.679 A1202.26971
G1 X43.985 Y13.581 A1202.58268
G1 X44.802 Y13.518 A1202.89470
G1 X45.663 Y13.487 A1203.22266
G1 X46.845 Y13.505 A1203.67230
G1 X47.667 Y13.559 A1203.98604
G1 X48.485 Y13.646 A1204.29901
G1 X49.693 Y13.838 A1204.76457
G1 X50.501 Y14.009 A1205.07864
G1 X51.686 Y14.324 A1205.54530
G1 X52.849 Y14.711 A1206.01196
G1 X53.615 Y15.010 A1206.32492
G1 X54.368 Y15.340 A1206.63788
G1 X55.462 Y15.888 A1207.10344
G1 X56.178 Y16.293 A1207.41642
G1 X56.874 Y16.726 A1207.72842
G1 X57.586 Y17.212 A1208.05666
G1 X58.529 Y17.928 A1208.50686
G1 X59.160 Y18.459 A1208.82084
G1 X60.054 Y19.293 A1209.28640
G1 X60.626 Y19.884 A1209.59936
G1 X61.173 Y20.498 A1209.91232
G1 X61.940 Y21.451 A1210.37787
G1 X62.421 Y22.118 A1210.69083
G1 X62.875 Y22.803 A1211.00379
G1 X63.498 Y23.857 A1211.46934
G1 X63.881 Y24.587 A1211.78340
G1 X64.393 Y25.699 A1212.24895
G1 X64.699 Y26.465 A1212.56301
G1 X65.095 Y27.622 A1213.02856
G1 X65.320 Y28.413 A1213.34152
G1 X65.513 Y29.210 A1213.65353
G1 X65.680 Y30.057 A1213.98195
G1 X65.850 Y31.227 A1214.43196
G1 X65.928 Y32.048 A1214.74594
G1 X65.981 Y33.273 A1215.21259
G1 X65.958 Y34.499 A1215.67923
G1 X65.901 Y35.320 A1215.99235
G1 X65.804 Y36.177 A1216.32077
G1 X65.613 Y37.344 A1216.77077
G1 X65.440 Y38.148 A1217.08365
G1 X65.234 Y38.944 A1217.39661
G1 X64.866 Y40.111 A1217.86216
G1 X64.579 Y40.884 A1218.17622
G1 X64.095 Y42.008 A1218.64177
G1 X63.731 Y42.745 A1218.95489
G1 X63.317 Y43.502 A1219.28325
G1 X62.698 Y44.510 A1219.73347
G1 X62.207 Y45.223 A1220.06283
G1 X61.488 Y46.163 A1220.51292
G1 X60.956 Y46.789 A1220.82580
G1 X60.401 Y47.392 A1221.13756
G1 X59.850 Y47.945 A1221.43482
G1 X59.036 Y48.687 A1221.85408
G1 X58.436 Y49.184 A1222.15050
G1 X57.584 Y49.827 A1222.55666
G1 X56.668 Y50.443 A1222.97674
G1 X56.002 Y50.847 A1223.27311
G1 X55.065 Y51.358 A1223.67932
G1 X54.067 Y51.834 A1224.10025
G1 X53.044 Y52.254 A1224.52124
G1 X52.000 Y52.617 A1224.94161
G1 X51.222 Y52.845 A1225.25036
G1 X50.578 Y53.011 A1225.50359
G1 X49.857 Y53.168 A1225.78427
G1 X49.131 Y53.298 A1226.06495
G1 X48.401 Y53.402 A1226.34563
G1 X47.667 Y53.479 A1226.62632
G1 X46.932 Y53.529 A1226.90700
G1 X46.194 Y53.551 A1227.18768
G1 X45.457 Y53.547 A1227.46837
G1 X44.720 Y53.515 A1227.74905
G1 X43.985 Y53.456 A1228.02974
G1 X43.252 Y53.371 A1228.31042
G1 X42.523 Y53.258 A1228.59146
G1 X41.081 Y52.953 A1229.15239
G1 X40.366 Y52.760 A1229.43406
G1 X39.315 Y52.423 A1229.85408
G1 X38.282 Y52.028 A1230.27508
G1 X37.274 Y51.578 A1230.69510
G1 X36.611 Y51.244 A1230.97776
G1 X35.651 Y50.704 A1231.39693
G1 X34.992 Y50.291 A1231.69287
G1 X34.113 Y49.684 A1232.09954
G1 X33.239 Y49.006 A1232.52048
G1 X32.405 Y48.282 A1232.94050
G1 X31.867 Y47.770 A1233.22317
G1 X31.105 Y46.975 A1233.64233
G1 X30.595 Y46.389 A1233.93819
G1 X29.930 Y45.552 A1234.34495
G1 X29.290 Y44.650 A1234.76589
G1 X28.701 Y43.713 A1235.18691
G1 X28.166 Y42.748 A1235.60706
G1 X27.822 Y42.051 A1235.90286
G1 X27.392 Y41.072 A1236.30968
G1 X27.004 Y40.039 A1236.72964
G1 X26.776 Y39.334 A1237.01167
G1 X26.401 Y37.909 A1237.57261
G1 X26.252 Y37.186 A1237.85330
G1 X26.131 Y36.459 A1238.13400
G1 X26.036 Y35.727 A1238.41469
G1 X25.968 Y34.993 A1238.69538
G1 X25.927 Y34.256 A1238.97604
G1 X25.914 Y33.518 A1239.25699
G1 X25.931 Y32.697 A1239.56975
G1 X26.018 Y31.477 A1240.03533
G1 X26.119 Y30.660 A1240.34830
G1 X26.253 Y29.849 A1240.66128
G1 X26.514 Y28.654 A1241.12686
G1 X26.730 Y27.860 A1241.43999
G1 X26.991 Y27.040 A1241.76753
G1 X27.407 Y25.930 A1242.21846
G1 X27.735 Y25.173 A1242.53246
G1 X28.278 Y24.077 A1242.99804
G1 X28.681 Y23.360 A1243.31117
G1 X29.133 Y22.627 A1243.63876
G1 X29.806 Y21.652 A1244.08964
G1 X30.309 Y20.998 A1244.40364
G1 X31.102 Y20.067 A1244.86921
G1 X31.667 Y19.469 A1245.18219
G1 X32.255 Y18.894 A1245.49516
G1 X33.173 Y18.086 A1245.96074
G1 X33.818 Y17.575 A1246.27386
G1 X34.514 Y17.068 A1246.60158
G1 X35.506 Y16.421 A1247.05233
G1 X36.217 Y16.007 A1247.36522
G1 X36.760 Y15.720 A1247.59917
G1 X37.356 Y14.627 F7800.000
G1 X36.741 Y14.321
G1 F900
G1 X37.117 Y14.136 A1247.75873
G1 X37.959 Y13.774 A1248.10750
G1 X38.770 Y13.465 A1248.43781
G1 X40.016 Y13.062 A1248.93623
G1 X41.284 Y12.736 A1249.43465
G1 X42.135 Y12.563 A1249.76513
G1 X42.993 Y12.425 A1250.09560
G1 X44.298 Y12.283 A1250.59512
G1 X45.162 Y12.233 A1250.92458
G1 X46.426 Y12.225 A1251.40577
G1 X47.342 Y12.265 A1251.75465
G1 X48.210 Y12.339 A1252.08606
G1 X49.071 Y12.449 A1252.41653
G1 X50.363 Y12.682 A1252.91605
G1 X51.206 Y12.878 A1253.24542
G1 X52.464 Y13.240 A1253.74391
G1 X53.653 Y13.662 A1254.22391
G1 X54.498 Y14.010 A1254.57178
G1 X55.683 Y14.574 A1255.07112
G1 X56.447 Y14.986 A1255.40159
G1 X57.194 Y15.430 A1255.73206
G1 X58.286 Y16.157 A1256.23157
G1 X58.982 Y16.672 A1256.56094
G1 X59.994 Y17.507 A1257.06045
G1 X60.635 Y18.093 A1257.39092
G1 X61.252 Y18.704 A1257.72139
G1 X62.135 Y19.675 A1258.22089
G1 X62.686 Y20.346 A1258.55136
G1 X63.209 Y21.039 A1258.88183
G1 X63.943 Y22.124 A1259.38032
G1 X64.586 Y23.209 A1259.86017
G1 X65.013 Y24.021 A1260.20927
G1 X65.384 Y24.805 A1260.53965
G1 X65.866 Y25.974 A1261.02059
G1 X66.173 Y26.838 A1261.36971
G1 X66.428 Y27.668 A1261.70000
G1 X66.750 Y28.940 A1262.19950
G1 X66.919 Y29.789 A1262.52887
G1 X67.109 Y31.088 A1263.02837
G1 X67.190 Y31.952 A1263.35884
G1 X67.236 Y32.819 A1263.68931
G1 X67.239 Y34.132 A1264.18881
G1 X67.197 Y34.996 A1264.51818
G1 X67.065 Y36.302 A1265.01768
G1 X66.935 Y37.157 A1265.34704
G1 X66.671 Y38.443 A1265.84655
G1 X66.453 Y39.284 A1266.17701
G1 X66.200 Y40.117 A1266.50858
G1 X65.914 Y40.937 A1266.83905
G1 X65.419 Y42.153 A1267.33855
G1 X65.051 Y42.939 A1267.66902
G1 X64.650 Y43.713 A1268.00059
G1 X64.219 Y44.467 A1268.33105
G1 X63.512 Y45.569 A1268.82946
G1 X62.738 Y46.625 A1269.32786
G1 X62.190 Y47.299 A1269.65833
G1 X61.615 Y47.950 A1269.98891
G1 X60.727 Y48.857 A1270.47184
G1 X60.157 Y49.387 A1270.76806
G1 X59.258 Y50.148 A1271.21664
G1 X58.320 Y50.858 A1271.66423
G1 X57.344 Y51.514 A1272.11182
G1 X56.333 Y52.116 A1272.55949
G1 X55.327 Y52.642 A1272.99148
G1 X54.582 Y52.990 A1273.30459
G1 X53.492 Y53.438 A1273.75302
G1 X52.381 Y53.824 A1274.20069
G1 X51.290 Y54.138 A1274.63273
G1 X50.490 Y54.329 A1274.94579
G1 X49.330 Y54.549 A1275.39521
G1 X48.556 Y54.659 A1275.69264
G1 X47.776 Y54.740 A1275.99106
G1 X47.080 Y54.787 A1276.25657
G1 X46.209 Y54.817 A1276.58828
G1 X45.426 Y54.813 A1276.88631
G1 X44.642 Y54.779 A1277.18473
G1 X43.861 Y54.716 A1277.48315
G1 X43.082 Y54.625 A1277.78158
G1 X42.307 Y54.505 A1278.08000
G1 X41.540 Y54.358 A1278.37743
G1 X40.394 Y54.082 A1278.82602
G1 X39.267 Y53.744 A1279.27370
G1 X38.199 Y53.359 A1279.70589
G1 X37.436 Y53.044 A1280.01980
G1 X36.726 Y52.719 A1280.31708
G1 X35.678 Y52.179 A1280.76568
G1 X34.664 Y51.584 A1281.21328
G1 X33.681 Y50.932 A1281.66188
G1 X33.053 Y50.472 A1281.95832
G1 X32.135 Y49.733 A1282.40692
G1 X31.261 Y48.946 A1282.85453
G1 X30.432 Y48.111 A1283.30221
G1 X29.676 Y47.263 A1283.73450
G1 X29.158 Y46.625 A1284.04733
G1 X28.459 Y45.677 A1284.49577
G1 X27.814 Y44.693 A1284.94346
G1 X27.245 Y43.710 A1285.37578
G1 X26.864 Y42.979 A1285.68957
G1 X26.530 Y42.272 A1285.98686
G1 X26.075 Y41.185 A1286.43546
G1 X25.682 Y40.076 A1286.88314
G1 X25.362 Y38.986 A1287.31548
G1 X25.166 Y38.188 A1287.62826
G1 X24.940 Y37.032 A1288.07671
G1 X24.777 Y35.864 A1288.52531
G1 X24.706 Y35.086 A1288.82275
G1 X24.663 Y34.306 A1289.12008
G1 X24.653 Y33.081 A1289.58625
G1 X24.688 Y32.216 A1289.91585
G1 X24.809 Y30.909 A1290.41538
G1 X24.932 Y30.049 A1290.74586
G1 X25.091 Y29.195 A1291.07643
G1 X25.385 Y27.965 A1291.55789
G1 X25.643 Y27.086 A1291.90652
G1 X25.922 Y26.264 A1292.23684
G1 X26.406 Y25.047 A1292.73535
G1 X26.942 Y23.904 A1293.21569
G1 X27.373 Y23.095 A1293.56434
G1 X27.813 Y22.347 A1293.89466
G1 X28.534 Y21.254 A1294.39316
G1 X29.291 Y20.244 A1294.87348
G1 X29.877 Y19.540 A1295.22215
G1 X30.462 Y18.895 A1295.55357
G1 X31.073 Y18.274 A1295.88515
G1 X31.707 Y17.680 A1296.21563
G1 X32.709 Y16.833 A1296.71515
G1 X33.400 Y16.307 A1297.04564
G1 X34.112 Y15.810 A1297.37611
G1 X35.226 Y15.115 A1297.87564
G1 X36.202 Y14.586 A1298.29841
G1 X37.094 Y14.548 F7800.000
G1 X37.014 Y14.892
G1 F1200
G1 X37.384 Y14.715 A1298.35951
G1 X37.798 Y14.530 A1298.42711
G1 X37.806 Y14.526 A1298.42841
G1 X38.198 Y14.363 A1298.49106
G1 X38.629 Y14.194 A1298.55952
G1 X38.638 Y14.190 A1298.56077
G1 X38.981 Y14.066 A1298.61521
G1 X39.780 Y13.798 A1298.74051
G1 X39.789 Y13.796 A1298.74177
G1 X40.193 Y13.672 A1298.80417
G1 X40.641 Y13.550 A1298.87273
G1 X40.650 Y13.548 A1298.87395
G1 X41.427 Y13.357 A1298.99318
G1 X41.829 Y13.269 A1299.05449
G1 X41.840 Y13.266 A1299.05600
G1 X42.249 Y13.190 A1299.11817
G1 X43.073 Y13.053 A1299.24263
G1 X43.077 Y13.052 A1299.24327
G1 X43.082 Y13.052 A1299.24393
G1 X43.920 Y12.956 A1299.36666
G1 X43.927 Y12.956 A1299.36765
G1 X44.350 Y12.916 A1299.43032
G1 X44.763 Y12.888 A1299.49131
G1 X44.770 Y12.888 A1299.49236
G1 X45.182 Y12.869 A1299.55324
G1 X45.653 Y12.859 A1299.62272
G1 X45.661 Y12.859 A1299.62394
G1 X46.415 Y12.862 A1299.73608
G1 X46.866 Y12.875 A1299.80329
G1 X46.874 Y12.875 A1299.80454
G1 X47.301 Y12.898 A1299.86752
G1 X47.718 Y12.930 A1299.92918
G1 X47.725 Y12.931 A1299.93019
G1 X48.142 Y12.971 A1299.99198
G1 X48.564 Y13.020 A1300.05456
G1 X48.572 Y13.021 A1300.05583
G1 X48.974 Y13.079 A1300.11632
G1 X49.803 Y13.219 A1300.24164
G1 X49.812 Y13.221 A1300.24287
G1 X50.234 Y13.304 A1300.30632
G1 X50.643 Y13.394 A1300.36796
G1 X50.651 Y13.396 A1300.36924
G1 X51.045 Y13.495 A1300.42972
G1 X51.861 Y13.720 A1300.55582
G1 X51.871 Y13.723 A1300.55731
G1 X52.270 Y13.847 A1300.61955
G1 X53.059 Y14.118 A1300.74385
G1 X53.067 Y14.121 A1300.74509
G1 X53.426 Y14.255 A1300.80146
G1 X53.853 Y14.426 A1300.86924
G1 X53.860 Y14.429 A1300.87025
G1 X54.241 Y14.591 A1300.93125
G1 X54.631 Y14.770 A1300.99456
G1 X54.639 Y14.773 A1300.99580
G1 X55.395 Y15.142 A1301.12110
G1 X55.755 Y15.329 A1301.18161
G1 X55.763 Y15.334 A1301.18288
G1 X56.134 Y15.539 A1301.24544
G1 X56.497 Y15.749 A1301.30725
G1 X56.503 Y15.753 A1301.30827
G1 X56.856 Y15.967 A1301.36912
G1 X57.214 Y16.198 A1301.43192
G1 X57.220 Y16.202 A1301.43295
G1 X57.922 Y16.675 A1301.55662
G1 X57.952 Y16.696 A1301.56201
G1 X57.959 Y16.702 A1301.56329
G1 X58.589 Y17.174 A1301.68057
G1 X58.918 Y17.434 A1301.74296
G1 X58.924 Y17.439 A1301.74419
G1 X59.576 Y17.982 A1301.86763
G1 X59.580 Y17.985 A1301.86828
G1 X59.583 Y17.988 A1301.86894
G1 X60.196 Y18.554 A1301.99339
G1 X60.493 Y18.840 A1302.05484
G1 X60.499 Y18.846 A1302.05611
G1 X60.793 Y19.144 A1302.11775
G1 X61.084 Y19.454 A1302.18043
G1 X61.089 Y19.459 A1302.18143
G1 X61.654 Y20.086 A1302.30416
G1 X61.656 Y20.089 A1302.30481
G1 X61.659 Y20.092 A1302.30547
G1 X62.185 Y20.740 A1302.42992
G1 X62.439 Y21.065 A1302.49137
G1 X62.444 Y21.072 A1302.49264
G1 X62.692 Y21.409 A1302.55428
G1 X62.936 Y21.757 A1302.61697
G1 X62.940 Y21.763 A1302.61796
G1 X63.409 Y22.463 A1302.74051
G1 X63.409 Y22.464 A1302.74069
G1 X63.414 Y22.472 A1302.74199
G1 X64.033 Y23.518 A1302.91923
G1 X64.048 Y23.545 A1302.92376
G1 X64.052 Y23.553 A1302.92506
G1 X64.447 Y24.303 A1303.04854
G1 X64.447 Y24.304 A1303.04864
G1 X64.451 Y24.312 A1303.04995
G1 X64.801 Y25.063 A1303.17353
G1 X64.968 Y25.446 A1303.23583
G1 X64.972 Y25.454 A1303.23707
G1 X65.275 Y26.200 A1303.35444
G1 X65.290 Y26.241 A1303.36076
G1 X65.293 Y26.249 A1303.36206
G1 X65.568 Y27.038 A1303.48665
G1 X65.695 Y27.429 A1303.54795
G1 X65.698 Y27.438 A1303.54922
G1 X65.817 Y27.839 A1303.61086
G1 X65.927 Y28.250 A1303.67355
G1 X65.929 Y28.256 A1303.67454
G1 X66.130 Y29.071 A1303.79661
G1 X66.132 Y29.078 A1303.79769
G1 X66.132 Y29.079 A1303.79791
G1 X66.294 Y29.897 A1303.91966
G1 X66.303 Y29.945 A1303.92692
G1 X66.304 Y29.954 A1303.92819
G1 X66.478 Y31.147 A1304.10347
G1 X66.479 Y31.156 A1304.10475
G1 X66.480 Y31.163 A1304.10583
G1 X66.559 Y31.999 A1304.22806
G1 X66.559 Y32.000 A1304.22830
G1 X66.560 Y32.009 A1304.22961
G1 X66.599 Y32.837 A1304.35313
G1 X66.609 Y33.260 A1304.41627
G1 X66.609 Y33.271 A1304.41775
G1 X66.602 Y34.117 A1304.54385
G1 X66.588 Y34.522 A1304.60435
G1 X66.588 Y34.531 A1304.60562
G1 X66.563 Y34.949 A1304.66726
G1 X66.527 Y35.373 A1304.73005
G1 X66.526 Y35.380 A1304.73108
G1 X66.437 Y36.222 A1304.85477
G1 X66.432 Y36.259 A1304.86022
G1 X66.431 Y36.268 A1304.86151
G1 X66.308 Y37.045 A1304.97872
G1 X66.232 Y37.457 A1305.04111
G1 X66.230 Y37.466 A1305.04233
G1 X66.056 Y38.291 A1305.16499
G1 X66.055 Y38.298 A1305.16604
G1 X66.054 Y38.300 A1305.16641
G1 X65.844 Y39.112 A1305.28864
G1 X65.843 Y39.114 A1305.28888
G1 X65.841 Y39.123 A1305.29018
G1 X65.594 Y39.920 A1305.41464
G1 X65.465 Y40.311 A1305.47609
G1 X65.462 Y40.319 A1305.47736
G1 X65.320 Y40.713 A1305.53900
G1 X65.164 Y41.114 A1305.60245
G1 X65.161 Y41.122 A1305.60369
G1 X64.836 Y41.898 A1305.72901
G1 X64.669 Y42.268 A1305.78950
G1 X64.666 Y42.276 A1305.79078
G1 X64.482 Y42.659 A1305.85335
G1 X64.292 Y43.033 A1305.91525
G1 X64.289 Y43.040 A1305.91631
G1 X64.092 Y43.409 A1305.97806
G1 X63.865 Y43.815 A1306.04688
G1 X63.860 Y43.823 A1306.04813
G1 X63.675 Y44.136 A1306.10236
G1 X63.227 Y44.849 A1306.22765
G1 X63.222 Y44.857 A1306.22890
G1 X62.988 Y45.209 A1306.29133
G1 X62.718 Y45.589 A1306.36007
G1 X62.713 Y45.596 A1306.36129
G1 X62.234 Y46.236 A1306.48035
G1 X61.982 Y46.555 A1306.54087
G1 X61.977 Y46.562 A1306.54212
G1 X61.706 Y46.888 A1306.60464
G1 X61.431 Y47.205 A1306.66643
G1 X61.427 Y47.210 A1306.66744
G1 X61.149 Y47.517 A1306.72841
G1 X60.858 Y47.825 A1306.79092
G1 X60.853 Y47.829 A1306.79189
G1 X60.290 Y48.399 A1306.90847
G1 X60.286 Y48.404 A1306.90934
G1 X60.284 Y48.405 A1306.90967
G1 X59.735 Y48.910 A1307.02047
G1 X59.452 Y49.159 A1307.07645
G1 X59.446 Y49.165 A1307.07761
G1 X58.862 Y49.654 A1307.18877
G1 X58.832 Y49.678 A1307.19441
G1 X58.825 Y49.683 A1307.19556
G1 X57.956 Y50.340 A1307.35416
G1 X57.952 Y50.342 A1307.35480
G1 X57.948 Y50.345 A1307.35554
G1 X57.013 Y50.974 A1307.51951
G1 X57.006 Y50.979 A1307.52072
G1 X57.005 Y50.979 A1307.52081
G1 X56.320 Y51.391 A1307.63717
G1 X56.313 Y51.395 A1307.63828
G1 X56.023 Y51.560 A1307.68784
G1 X55.356 Y51.917 A1307.79987
G1 X55.348 Y51.921 A1307.80121
G1 X55.045 Y52.072 A1307.85130
G1 X54.328 Y52.411 A1307.96879
G1 X54.328 Y52.411 A1307.96883
G1 X54.319 Y52.414 A1307.97020
G1 X53.272 Y52.844 A1308.13480
G1 X53.268 Y52.846 A1308.13551
G1 X53.263 Y52.848 A1308.13621
G1 X52.197 Y53.218 A1308.30037
G1 X52.190 Y53.221 A1308.30158
G1 X52.189 Y53.221 A1308.30163
G1 X51.392 Y53.452 A1308.42247
G1 X51.386 Y53.454 A1308.42331
G1 X51.128 Y53.524 A1308.46258
G1 X50.726 Y53.624 A1308.52344
G1 X50.720 Y53.625 A1308.52436
G1 X50.357 Y53.708 A1308.57916
G1 X49.983 Y53.784 A1308.63532
G1 X49.977 Y53.786 A1308.63623
G1 X49.235 Y53.923 A1308.74604
G1 X49.228 Y53.924 A1308.74697
G1 X49.226 Y53.924 A1308.74732
G1 X48.482 Y54.030 A1308.85687
G1 X48.478 Y54.030 A1308.85735
G1 X48.475 Y54.031 A1308.85781
G1 X47.725 Y54.109 A1308.96771
G1 X47.722 Y54.110 A1308.96819
G1 X47.719 Y54.110 A1308.96865
G1 X47.048 Y54.155 A1309.06660
G1 X46.966 Y54.159 A1309.07855
G1 X46.959 Y54.160 A1309.07948
G1 X46.205 Y54.184 A1309.18934
G1 X46.200 Y54.184 A1309.19014
G1 X46.199 Y54.184 A1309.19028
G1 X45.445 Y54.180 A1309.30018
G1 X45.441 Y54.180 A1309.30066
G1 X45.438 Y54.180 A1309.30112
G1 X44.684 Y54.147 A1309.41102
G1 X44.681 Y54.147 A1309.41150
G1 X44.678 Y54.147 A1309.41196
G1 X43.926 Y54.087 A1309.52185
G1 X43.923 Y54.086 A1309.52233
G1 X43.920 Y54.086 A1309.52279
G1 X43.170 Y53.998 A1309.63269
G1 X43.167 Y53.998 A1309.63317
G1 X43.164 Y53.997 A1309.63363
G1 X42.417 Y53.882 A1309.74377
G1 X42.415 Y53.882 A1309.74401
G1 X42.410 Y53.881 A1309.74480
G1 X41.674 Y53.738 A1309.85478
G1 X41.601 Y53.722 A1309.86573
G1 X41.595 Y53.721 A1309.86659
G1 X40.931 Y53.564 A1309.96575
G1 X40.925 Y53.562 A1309.96665
G1 X40.559 Y53.469 A1310.02212
G1 X40.192 Y53.364 A1310.07826
G1 X40.184 Y53.362 A1310.07939
G1 X39.466 Y53.140 A1310.19093
G1 X39.111 Y53.019 A1310.24660
G1 X39.102 Y53.016 A1310.24795
G1 X38.428 Y52.765 A1310.35471
G1 X38.045 Y52.613 A1310.41590
G1 X38.036 Y52.609 A1310.41727
G1 X37.690 Y52.461 A1310.47318
G1 X37.006 Y52.151 A1310.58458
G1 X37.003 Y52.150 A1310.58518
G1 X36.999 Y52.148 A1310.58576
G1 X36.318 Y51.801 A1310.69695
G1 X36.311 Y51.798 A1310.69808
G1 X35.985 Y51.622 A1310.75312
G1 X35.333 Y51.247 A1310.86468
G1 X35.326 Y51.243 A1310.86583
G1 X35.000 Y51.045 A1310.92194
G1 X34.649 Y50.819 A1310.98344
G1 X34.642 Y50.815 A1310.98455
G1 X34.045 Y50.410 A1311.09150
G1 X33.744 Y50.196 A1311.14645
G1 X33.736 Y50.190 A1311.14782
G1 X33.441 Y49.967 A1311.20270
G1 X32.843 Y49.495 A1311.31571
G1 X32.836 Y49.489 A1311.31706
G1 X32.548 Y49.248 A1311.37280
G1 X31.985 Y48.751 A1311.48426
G1 X31.979 Y48.745 A1311.48539
G1 X31.699 Y48.486 A1311.54155
G1 X31.426 Y48.219 A1311.59770
G1 X31.420 Y48.213 A1311.59882
G1 X30.895 Y47.675 A1311.71036
G1 X30.643 Y47.403 A1311.76542
G1 X30.638 Y47.397 A1311.76658
G1 X30.159 Y46.853 A1311.87252
G1 X30.111 Y46.796 A1311.88327
G1 X30.106 Y46.790 A1311.88442
G1 X29.661 Y46.236 A1311.98991
G1 X29.430 Y45.933 A1312.04639
G1 X29.424 Y45.926 A1312.04772
G1 X28.981 Y45.314 A1312.15985
G1 X28.770 Y45.003 A1312.21558
G1 X28.764 Y44.995 A1312.21693
G1 X28.356 Y44.359 A1312.32916
G1 X28.162 Y44.038 A1312.38483
G1 X28.157 Y44.029 A1312.38618
G1 X27.802 Y43.403 A1312.49298
G1 X27.609 Y43.044 A1312.55352
G1 X27.605 Y43.037 A1312.55470
G1 X27.433 Y42.696 A1312.61096
G1 X27.251 Y42.321 A1312.67232
G1 X27.248 Y42.314 A1312.67346
G1 X27.111 Y42.014 A1312.72237
G1 X26.811 Y41.313 A1312.83531
G1 X26.807 Y41.305 A1312.83664
G1 X26.669 Y40.956 A1312.89233
G1 X26.412 Y40.250 A1313.00380
G1 X26.409 Y40.243 A1313.00492
G1 X26.286 Y39.880 A1313.06114
G1 X26.175 Y39.519 A1313.11678
G1 X26.173 Y39.512 A1313.11776
G1 X25.974 Y38.821 A1313.22324
G1 X25.948 Y38.721 A1313.23847
G1 X25.947 Y38.715 A1313.23932
G1 X25.784 Y38.052 A1313.33877
G1 X25.784 Y38.050 A1313.33898
G1 X25.783 Y38.044 A1313.33992
G1 X25.634 Y37.304 A1313.44972
G1 X25.633 Y37.298 A1313.45062
G1 X25.566 Y36.927 A1313.50608
G1 X25.509 Y36.554 A1313.56154
G1 X25.508 Y36.548 A1313.56244
G1 X25.407 Y35.800 A1313.67225
G1 X25.407 Y35.794 A1313.67319
G1 X25.406 Y35.791 A1313.67352
G1 X25.337 Y35.043 A1313.78308
G1 X25.337 Y35.039 A1313.78355
G1 X25.337 Y35.036 A1313.78402
G1 X25.295 Y34.286 A1313.89349
G1 X25.295 Y34.283 A1313.89390
G1 X25.295 Y34.276 A1313.89484
G1 X25.285 Y33.521 A1314.00479
G1 X25.285 Y33.514 A1314.00574
G1 X25.288 Y33.091 A1314.06809
G1 X25.300 Y32.672 A1314.12991
G1 X25.301 Y32.663 A1314.13118
G1 X25.324 Y32.258 A1314.19167
G1 X25.392 Y31.420 A1314.31697
G1 X25.393 Y31.411 A1314.31821
G1 X25.439 Y30.983 A1314.38166
G1 X25.494 Y30.574 A1314.44252
G1 X25.495 Y30.567 A1314.44354
G1 X25.559 Y30.153 A1314.50533
G1 X25.633 Y29.735 A1314.56789
G1 X25.634 Y29.726 A1314.56917
G1 X25.715 Y29.328 A1314.62973
G1 X25.902 Y28.508 A1314.75497
G1 X25.904 Y28.500 A1314.75621
G1 X25.999 Y28.128 A1314.81273
G1 X26.124 Y27.685 A1314.88046
G1 X26.126 Y27.678 A1314.88151
G1 X26.249 Y27.277 A1314.94339
G1 X26.393 Y26.837 A1315.01173
G1 X26.396 Y26.829 A1315.01299
G1 X26.519 Y26.484 A1315.06754
G1 X26.822 Y25.699 A1315.19272
G1 X26.826 Y25.691 A1315.19394
G1 X26.988 Y25.299 A1315.25647
G1 X27.163 Y24.913 A1315.31892
G1 X27.167 Y24.905 A1315.32016
G1 X27.512 Y24.189 A1315.43852
G1 X27.719 Y23.787 A1315.50596
G1 X27.723 Y23.779 A1315.50723
G1 X27.927 Y23.406 A1315.56992
G1 X28.136 Y23.043 A1315.63168
G1 X28.139 Y23.036 A1315.63273
G1 X28.352 Y22.684 A1315.69354
G1 X28.605 Y22.287 A1315.76293
G1 X28.610 Y22.280 A1315.76415
G1 X29.055 Y21.620 A1315.88260
G1 X29.296 Y21.286 A1315.94396
G1 X29.301 Y21.279 A1315.94519
G1 X29.788 Y20.637 A1316.06266
G1 X29.814 Y20.604 A1316.06881
G1 X29.820 Y20.597 A1316.07011
G1 X30.358 Y19.958 A1316.19468
G1 X30.630 Y19.649 A1316.25599
G1 X30.635 Y19.642 A1316.25726
G1 X30.924 Y19.331 A1316.31981
G1 X31.214 Y19.029 A1316.38161
G1 X31.219 Y19.024 A1316.38263
G1 X31.516 Y18.728 A1316.44441
G1 X31.823 Y18.435 A1316.50698
G1 X31.830 Y18.429 A1316.50825
G1 X32.130 Y18.156 A1316.56874
G1 X32.767 Y17.607 A1316.69405
G1 X32.774 Y17.601 A1316.69529
G1 X33.107 Y17.328 A1316.75873
G1 X33.433 Y17.074 A1316.81971
G1 X33.439 Y17.070 A1316.82077
G1 X33.775 Y16.821 A1316.88250
G1 X34.153 Y16.551 A1316.95106
G1 X34.160 Y16.546 A1316.95232
G1 X34.463 Y16.341 A1317.00680
G1 X35.173 Y15.889 A1317.13199
G1 X35.180 Y15.884 A1317.13321
G1 X35.548 Y15.662 A1317.19660
G1 X35.907 Y15.457 A1317.25747
G1 X35.913 Y15.454 A1317.25849
G1 X36.277 Y15.257 A1317.31941
G1 X36.475 Y15.156 A1317.35225
M106 P196.35
G1 Z4.000 F7800.000
G1 X36.997 Y14.859
G1 F900
G1 X37.796 Y14.495 A1317.68647
G1 X38.875 Y14.069 A1318.12812
G1 X39.780 Y13.762 A1318.49173
G1 X40.999 Y13.422 A1318.97314
G1 X41.831 Y13.236 A1319.29753
G1 X43.076 Y13.022 A1319.77857
G1 X43.920 Y12.922 A1320.10186
G1 X44.766 Y12.856 A1320.42495
G1 X45.927 Y12.823 A1320.86672
G1 X46.876 Y12.843 A1321.22827
G1 X47.727 Y12.899 A1321.55275
G1 X48.982 Y13.046 A1322.03379
G1 X49.820 Y13.187 A1322.35708
G1 X50.651 Y13.363 A1322.68036
G1 X51.875 Y13.689 A1323.16230
G1 X52.980 Y14.054 A1323.60532
G1 X53.870 Y14.398 A1323.96845
G1 X54.931 Y14.874 A1324.41077
G1 X55.781 Y15.307 A1324.77406
G1 X56.875 Y15.942 A1325.25546
G1 X57.587 Y16.405 A1325.57874
G1 X58.277 Y16.895 A1325.90092
G1 X58.949 Y17.415 A1326.22401
G1 X59.831 Y18.170 A1326.66606
G1 X60.522 Y18.824 A1327.02815
G1 X61.114 Y19.435 A1327.35179
G1 X61.945 Y20.387 A1327.83282
G1 X62.472 Y21.056 A1328.15701
G1 X63.145 Y22.004 A1328.59912
G1 X63.656 Y22.805 A1328.96114
G1 X64.081 Y23.542 A1329.28478
G1 X64.657 Y24.667 A1329.76582
G1 X65.005 Y25.445 A1330.09019
G1 X65.463 Y26.624 A1330.57122
G1 X65.730 Y27.432 A1330.89541
G1 X66.039 Y28.552 A1331.33758
G1 X66.248 Y29.483 A1331.70064
G1 X66.456 Y30.731 A1332.18203
G1 X66.553 Y31.575 A1332.50531
G1 X66.616 Y32.419 A1332.82749
G1 X66.643 Y33.265 A1333.14967
G1 X66.636 Y34.111 A1333.47184
G1 X66.595 Y34.959 A1333.79493
G1 X66.481 Y36.116 A1334.23711
G1 X66.340 Y37.056 A1334.59906
G1 X66.178 Y37.891 A1334.92270
G1 X65.873 Y39.120 A1335.40463
G1 X65.525 Y40.232 A1335.84790
G1 X65.197 Y41.124 A1336.20987
G1 X64.868 Y41.909 A1336.53351
G1 X64.321 Y43.048 A1337.01454
G1 X63.913 Y43.796 A1337.33892
G1 X63.252 Y44.874 A1337.81995
G1 X62.770 Y45.576 A1338.14413
G1 X62.067 Y46.500 A1338.58623
G1 X61.454 Y47.228 A1338.94827
G1 X60.880 Y47.851 A1339.27070
G1 X60.310 Y48.422 A1339.57777
G1 X59.467 Y49.191 A1340.01181
G1 X58.583 Y49.911 A1340.44574
G1 X57.968 Y50.368 A1340.73751
G1 X57.101 Y50.953 A1341.13532
G1 X56.369 Y51.401 A1341.46224
G1 X55.367 Y51.948 A1341.89650
G1 X54.336 Y52.440 A1342.33143
G1 X53.279 Y52.874 A1342.76635
G1 X52.202 Y53.248 A1343.20029
G1 X51.464 Y53.467 A1343.49295
G1 X50.173 Y53.777 A1343.99819
G1 X49.238 Y53.953 A1344.36025
G1 X48.482 Y54.060 A1344.65101
G1 X47.724 Y54.139 A1344.94098
G1 X46.964 Y54.191 A1345.23095
G1 X46.202 Y54.214 A1345.52092
G1 X45.441 Y54.210 A1345.81089
G1 X44.679 Y54.177 A1346.10087
G1 X43.920 Y54.116 A1346.39084
G1 X43.163 Y54.028 A1346.68081
G1 X42.410 Y53.911 A1346.97078
G1 X41.662 Y53.767 A1347.26075
G1 X40.920 Y53.596 A1347.55073
G1 X40.181 Y53.396 A1347.84169
G1 X39.096 Y53.049 A1348.27545
G1 X38.117 Y52.677 A1348.67392
G1 X37.328 Y52.335 A1349.00120
G1 X36.304 Y51.832 A1349.43547
G1 X35.310 Y51.273 A1349.86941
G1 X34.660 Y50.867 A1350.16119
G1 X33.800 Y50.275 A1350.55859
G1 X33.114 Y49.756 A1350.88594
G1 X32.238 Y49.024 A1351.32022
G1 X31.403 Y48.244 A1351.75516
G1 X30.613 Y47.418 A1352.19009
G1 X29.871 Y46.553 A1352.62404
G1 X29.399 Y45.948 A1352.91600
G1 X28.741 Y45.020 A1353.34895
G1 X28.326 Y44.374 A1353.64091
G1 X27.755 Y43.387 A1354.07486
G1 X27.238 Y42.369 A1354.50962
G1 X26.816 Y41.411 A1354.90789
G1 X26.504 Y40.609 A1355.23537
G1 X26.142 Y39.525 A1355.67036
G1 X25.800 Y38.242 A1356.17572
G1 X25.601 Y37.309 A1356.53868
G1 X25.474 Y36.551 A1356.83114
G1 X25.325 Y35.235 A1357.33550
G1 X25.265 Y34.283 A1357.69838
G1 X25.251 Y33.518 A1357.98947
G1 X25.268 Y32.672 A1358.31144
G1 X25.320 Y31.827 A1358.63364
G1 X25.407 Y30.982 A1358.95693
G1 X25.600 Y29.733 A1359.43798
G1 X25.773 Y28.899 A1359.76238
G1 X26.093 Y27.676 A1360.24343
G1 X26.350 Y26.863 A1360.56783
G1 X26.793 Y25.679 A1361.04888
G1 X27.131 Y24.900 A1361.37217
G1 X27.500 Y24.135 A1361.69527
G1 X28.056 Y23.117 A1362.13670
G1 X28.554 Y22.302 A1362.50034
G1 X29.211 Y21.345 A1362.94216
G1 X29.790 Y20.584 A1363.30597
G1 X30.611 Y19.622 A1363.78739
G1 X31.194 Y19.004 A1364.11068
G1 X31.802 Y18.411 A1364.43398
G1 X32.751 Y17.575 A1364.91502
G1 X33.418 Y17.046 A1365.23921
G1 X34.361 Y16.370 A1365.68077
G1 X35.162 Y15.854 A1366.04338
G1 X35.897 Y15.426 A1366.36704
G1 X36.464 Y15.134 A1366.60969
G1 X37.061 Y13.983 F7800.000
G1 X36.479 Y13.814
G1 F900
G1 X37.745 Y13.248 A1367.13730
G1 X39.007 Y12.782 A1367.64941
G1 X39.858 Y12.516 A1367.98872
G1 X40.719 Y12.286 A1368.32804
G1 X42.035 Y12.004 A1368.84017
G1 X43.133 Y11.834 A1369.26293
G1 X44.252 Y11.717 A1369.69137
G1 X45.142 Y11.666 A1370.03047
G1 X46.255 Y11.654 A1370.45429
G1 X47.380 Y11.698 A1370.88277
G1 X48.270 Y11.775 A1371.22251
G1 X49.154 Y11.887 A1371.56182
G1 X50.477 Y12.125 A1372.07349
G1 X51.784 Y12.444 A1372.58516
G1 X52.636 Y12.699 A1372.92383
G1 X53.687 Y13.068 A1373.34756
G1 X54.730 Y13.492 A1373.77612
G1 X55.537 Y13.866 A1374.11476
G1 X56.728 Y14.493 A1374.62688
G1 X57.679 Y15.066 A1375.04947
G1 X58.612 Y15.691 A1375.47697
G1 X59.685 Y16.504 A1375.98906
G1 X60.367 Y17.078 A1376.32837
G1 X61.027 Y17.681 A1376.66878
G1 X61.662 Y18.311 A1377.00919
G1 X62.269 Y18.965 A1377.34850
G1 X63.134 Y19.997 A1377.86126
G1 X63.669 Y20.707 A1378.19947
G1 X64.423 Y21.820 A1378.71114
G1 X65.107 Y22.977 A1379.22280
G1 X65.521 Y23.767 A1379.56211
G1 X65.902 Y24.573 A1379.90142
G1 X66.415 Y25.819 A1380.41418
G1 X66.712 Y26.658 A1380.75284
G1 X67.033 Y27.724 A1381.17642
G1 X67.304 Y28.817 A1381.60512
G1 X67.478 Y29.692 A1381.94485
G1 X67.616 Y30.573 A1382.28416
G1 X67.757 Y31.913 A1382.79692
G1 X67.804 Y32.801 A1383.13513
G1 X67.807 Y34.148 A1383.64789
G1 X67.763 Y35.038 A1383.98720
G1 X67.683 Y35.929 A1384.32761
G1 X67.566 Y36.813 A1384.66692
G1 X67.323 Y38.135 A1385.17858
G1 X66.999 Y39.440 A1385.69024
G1 X66.740 Y40.293 A1386.02955
G1 X66.447 Y41.135 A1386.36886
G1 X65.939 Y42.383 A1386.88162
G1 X65.561 Y43.189 A1387.22028
G1 X65.043 Y44.174 A1387.64388
G1 X64.470 Y45.144 A1388.07256
G1 X63.982 Y45.888 A1388.41120
G1 X63.186 Y46.975 A1388.92396
G1 X62.623 Y47.666 A1389.26327
G1 X62.032 Y48.334 A1389.60269
G1 X61.123 Y49.264 A1390.09745
G1 X60.231 Y50.078 A1390.55717
G1 X59.459 Y50.712 A1390.93748
G1 X58.650 Y51.319 A1391.32226
G1 X57.645 Y51.995 A1391.78316
G1 X56.962 Y52.411 A1392.08756
G1 X55.900 Y52.991 A1392.54807
G1 X54.809 Y53.511 A1393.00801
G1 X53.886 Y53.894 A1393.38839
G1 X52.936 Y54.240 A1393.77311
G1 X51.778 Y54.595 A1394.23401
G1 X51.004 Y54.794 A1394.53841
G1 X49.819 Y55.041 A1394.99893
G1 X48.623 Y55.223 A1395.45945
G1 X47.828 Y55.306 A1395.76354
G1 X46.630 Y55.372 A1396.22016
G1 X45.408 Y55.380 A1396.68516
G1 X44.608 Y55.346 A1396.99020
G1 X43.805 Y55.282 A1397.29658
G1 X43.005 Y55.188 A1397.60296
G1 X42.212 Y55.065 A1397.90835
G1 X41.026 Y54.826 A1398.36887
G1 X39.855 Y54.521 A1398.82939
G1 X39.091 Y54.284 A1399.13379
G1 X37.951 Y53.872 A1399.59531
G1 X37.212 Y53.566 A1399.89971
G1 X36.115 Y53.051 A1400.36064
G1 X35.233 Y52.581 A1400.74122
G1 X34.364 Y52.066 A1401.12576
G1 X33.357 Y51.398 A1401.58568
G1 X32.389 Y50.676 A1402.04522
G1 X31.461 Y49.899 A1402.50575
G1 X30.871 Y49.359 A1402.81015
G1 X30.018 Y48.500 A1403.27068
G1 X29.214 Y47.596 A1403.73121
G1 X28.710 Y46.975 A1404.03561
G1 X27.992 Y46.000 A1404.49655
G1 X27.441 Y45.165 A1404.87721
G1 X26.922 Y44.299 A1405.26167
G1 X26.355 Y43.230 A1405.72200
G1 X25.932 Y42.324 A1406.10268
G1 X25.546 Y41.390 A1406.48713
G1 X25.141 Y40.249 A1406.94804
G1 X24.909 Y39.483 A1407.25245
G1 X24.612 Y38.310 A1407.71298
G1 X24.380 Y37.125 A1408.17252
G1 X24.213 Y35.927 A1408.63305
G1 X24.139 Y35.128 A1408.93845
G1 X24.095 Y34.327 A1409.24373
G1 X24.085 Y33.069 A1409.72227
G1 X24.121 Y32.178 A1410.06181
G1 X24.194 Y31.289 A1410.40113
G1 X24.373 Y29.954 A1410.91392
G1 X24.536 Y29.077 A1411.25324
G1 X24.735 Y28.208 A1411.59256
G1 X25.101 Y26.915 A1412.10425
G1 X25.547 Y25.646 A1412.61593
G1 X25.884 Y24.821 A1412.95525
G1 X26.257 Y24.008 A1413.29568
G1 X26.662 Y23.210 A1413.63610
G1 X27.099 Y22.433 A1413.97542
G1 X27.816 Y21.294 A1414.48756
G1 X28.462 Y20.390 A1414.91049
G1 X29.159 Y19.507 A1415.33877
G1 X29.743 Y18.835 A1415.67742
G1 X30.678 Y17.865 A1416.19020
G1 X31.329 Y17.256 A1416.52952
G1 X32.006 Y16.672 A1416.86994
G1 X32.705 Y16.117 A1417.20926
G1 X33.799 Y15.336 A1417.72094
G1 X34.940 Y14.624 A1418.23262
G1 X35.941 Y14.081 A1418.66636
G1 X37.627 Y14.591 F7800.000
G1 X36.742 Y14.334
G1 F1200
G1 X36.763 Y14.323 A1418.66898
G1 X36.769 Y14.321 A1418.66964
G1 X36.963 Y14.229 A1418.69259
G1 X37.566 Y13.960 A1418.76323
G1 X37.572 Y13.958 A1418.76386
G1 X37.965 Y13.795 A1418.81032
G1 X38.673 Y13.524 A1418.89319
G1 X38.678 Y13.522 A1418.89381
G1 X39.196 Y13.339 A1418.95344
G1 X39.605 Y13.206 A1419.00008
G1 X39.612 Y13.204 A1419.00080
G1 X40.022 Y13.083 A1419.04774
G1 X40.853 Y12.856 A1419.14224
G1 X40.856 Y12.855 A1419.14258
G1 X40.859 Y12.854 A1419.14293
G1 X41.715 Y12.666 A1419.23579
G1 X41.721 Y12.665 A1419.23643
G1 X42.142 Y12.584 A1419.28342
G1 X42.989 Y12.446 A1419.37759
G1 X42.996 Y12.445 A1419.37825
G1 X43.208 Y12.416 A1419.40118
G1 X43.860 Y12.343 A1419.47138
G1 X43.865 Y12.342 A1419.47190
G1 X44.300 Y12.303 A1419.51900
G1 X44.732 Y12.274 A1419.56579
G1 X44.738 Y12.273 A1419.56644
G1 X45.162 Y12.255 A1419.61279
G1 X45.921 Y12.240 A1419.69587
G1 X45.928 Y12.240 A1419.69651
G1 X46.247 Y12.242 A1419.73098
G1 X46.899 Y12.262 A1419.80130
G1 X46.904 Y12.262 A1419.80187
G1 X47.344 Y12.285 A1419.84939
G1 X47.777 Y12.317 A1419.89629
G1 X47.783 Y12.318 A1419.89696
G1 X48.207 Y12.361 A1419.94371
G1 X49.062 Y12.466 A1420.03822
G1 X49.065 Y12.466 A1420.03856
G1 X49.069 Y12.467 A1420.03891
G1 X49.926 Y12.616 A1420.13121
G1 X49.931 Y12.617 A1420.13172
G1 X50.356 Y12.700 A1420.17839
G1 X50.783 Y12.798 A1420.22564
G1 X50.789 Y12.799 A1420.22628
G1 X51.629 Y13.013 A1420.32136
G1 X52.038 Y13.129 A1420.36791
G1 X52.045 Y13.131 A1420.36869
G1 X52.454 Y13.260 A1420.41561
G1 X53.174 Y13.505 A1420.49875
G1 X53.180 Y13.507 A1420.49939
G1 X53.479 Y13.617 A1420.53379
G1 X54.091 Y13.860 A1420.60484
G1 X54.097 Y13.862 A1420.60551
G1 X54.495 Y14.033 A1420.65284
G1 X55.180 Y14.345 A1420.73522
G1 X55.186 Y14.348 A1420.73589
G1 X55.277 Y14.392 A1420.74677
G1 X56.056 Y14.795 A1420.84081
G1 X56.062 Y14.798 A1420.84150
G1 X56.438 Y15.007 A1420.88867
G1 X57.178 Y15.444 A1420.98284
G1 X57.183 Y15.447 A1420.98350
G1 X57.365 Y15.561 A1421.00638
G1 X57.912 Y15.922 A1421.07663
G1 X57.917 Y15.925 A1421.07715
G1 X58.271 Y16.170 A1421.12359
G1 X58.621 Y16.427 A1421.17052
G1 X58.625 Y16.430 A1421.17104
G1 X59.316 Y16.959 A1421.26324
G1 X59.319 Y16.961 A1421.26368
G1 X59.321 Y16.963 A1421.26391
G1 X59.978 Y17.521 A1421.35798
G1 X60.219 Y17.734 A1421.39308
G1 X60.224 Y17.738 A1421.39374
G1 X60.621 Y18.108 A1421.45263
G1 X60.931 Y18.407 A1421.49937
G1 X60.934 Y18.411 A1421.49995
G1 X61.240 Y18.720 A1421.54686
G1 X61.541 Y19.038 A1421.59415
G1 X61.545 Y19.043 A1421.59482
G1 X61.827 Y19.355 A1421.64089
G1 X62.390 Y20.014 A1421.73598
G1 X62.394 Y20.019 A1421.73663
G1 X62.674 Y20.363 A1421.78453
G1 X62.937 Y20.705 A1421.83106
G1 X62.941 Y20.710 A1421.83171
G1 X63.190 Y21.050 A1421.87778
G1 X63.625 Y21.677 A1421.96122
G1 X63.628 Y21.682 A1421.96184
G1 X63.926 Y22.135 A1422.02065
G1 X64.151 Y22.502 A1422.06734
G1 X64.154 Y22.506 A1422.06790
G1 X64.594 Y23.259 A1422.16038
G1 X64.596 Y23.262 A1422.16073
G1 X64.597 Y23.265 A1422.16107
G1 X64.993 Y24.030 A1422.25557
G1 X65.181 Y24.412 A1422.30233
G1 X65.184 Y24.418 A1422.30300
G1 X65.365 Y24.811 A1422.34963
G1 X65.540 Y25.218 A1422.39754
G1 X65.542 Y25.224 A1422.39818
G1 X65.864 Y26.029 A1422.49327
G1 X66.010 Y26.423 A1422.53934
G1 X66.013 Y26.430 A1422.54001
G1 X66.153 Y26.841 A1422.58691
G1 X66.286 Y27.261 A1422.63447
G1 X66.287 Y27.266 A1422.63510
G1 X66.464 Y27.880 A1422.70479
G1 X66.603 Y28.408 A1422.76444
G1 X66.605 Y28.414 A1422.76507
G1 X66.730 Y28.945 A1422.82430
G1 X66.819 Y29.368 A1422.87120
G1 X66.821 Y29.375 A1422.87191
G1 X66.898 Y29.796 A1422.91886
G1 X67.035 Y30.646 A1423.01336
G1 X67.036 Y30.649 A1423.01370
G1 X67.036 Y30.652 A1423.01405
G1 X67.131 Y31.518 A1423.10635
G1 X67.132 Y31.523 A1423.10686
G1 X67.171 Y31.959 A1423.15421
G1 X67.198 Y32.385 A1423.20028
G1 X67.198 Y32.390 A1423.20081
G1 X67.216 Y32.817 A1423.24688
G1 X67.224 Y33.255 A1423.29422
G1 X67.224 Y33.260 A1423.29474
G1 X67.221 Y34.126 A1423.38646
G1 X67.221 Y34.131 A1423.38702
G1 X67.221 Y34.134 A1423.38737
G1 X67.179 Y34.998 A1423.47914
G1 X67.179 Y34.999 A1423.47932
G1 X67.178 Y35.006 A1423.47999
G1 X67.097 Y35.864 A1423.57407
G1 X67.060 Y36.184 A1423.60921
G1 X67.060 Y36.190 A1423.60986
G1 X66.985 Y36.721 A1423.66805
G1 X66.913 Y37.152 A1423.71541
G1 X66.912 Y37.157 A1423.71597
G1 X66.751 Y38.012 A1423.80817
G1 X66.750 Y38.014 A1423.80845
G1 X66.748 Y38.021 A1423.80914
G1 X66.437 Y39.274 A1423.94592
G1 X66.435 Y39.282 A1423.94672
G1 X66.434 Y39.285 A1423.94706
G1 X66.180 Y40.111 A1424.04137
G1 X66.079 Y40.417 A1424.07649
G1 X66.077 Y40.423 A1424.07715
G1 X65.896 Y40.927 A1424.13535
G1 X65.738 Y41.334 A1424.18271
G1 X65.736 Y41.339 A1424.18327
G1 X65.403 Y42.146 A1424.27575
G1 X65.402 Y42.149 A1424.27610
G1 X65.401 Y42.152 A1424.27644
G1 X65.033 Y42.927 A1424.37055
G1 X64.840 Y43.310 A1424.41768
G1 X64.837 Y43.316 A1424.41833
G1 X64.531 Y43.888 A1424.48779
G1 X64.419 Y44.085 A1424.51207
G1 X64.416 Y44.091 A1424.51273
G1 X63.969 Y44.832 A1424.60759
G1 X63.743 Y45.189 A1424.65393
G1 X63.740 Y45.194 A1424.65460
G1 X63.499 Y45.553 A1424.70123
G1 X63.243 Y45.914 A1424.74904
G1 X63.239 Y45.919 A1424.74966
G1 X62.720 Y46.615 A1424.84432
G1 X62.524 Y46.863 A1424.87876
G1 X62.520 Y46.868 A1424.87941
G1 X62.174 Y47.286 A1424.93829
G1 X61.893 Y47.611 A1424.98503
G1 X61.889 Y47.616 A1424.98561
G1 X61.602 Y47.934 A1425.03193
G1 X61.301 Y48.251 A1425.07915
G1 X61.297 Y48.255 A1425.07966
G1 X60.717 Y48.843 A1425.16728
G1 X60.716 Y48.843 A1425.16733
G1 X60.712 Y48.847 A1425.16797
G1 X59.852 Y49.631 A1425.29132
G1 X59.848 Y49.635 A1425.29193
G1 X59.847 Y49.636 A1425.29206
G1 X59.096 Y50.251 A1425.39641
G1 X58.944 Y50.370 A1425.41721
G1 X58.939 Y50.373 A1425.41781
G1 X58.311 Y50.842 A1425.50099
G1 X58.308 Y50.844 A1425.50136
G1 X58.303 Y50.847 A1425.50196
G1 X57.420 Y51.443 A1425.61491
G1 X57.415 Y51.446 A1425.61551
G1 X57.329 Y51.501 A1425.62643
G1 X56.669 Y51.903 A1425.70923
G1 X56.664 Y51.906 A1425.70983
G1 X56.659 Y51.909 A1425.71050
G1 X55.637 Y52.468 A1425.83396
G1 X55.634 Y52.470 A1425.83433
G1 X55.630 Y52.471 A1425.83470
G1 X54.576 Y52.974 A1425.95850
G1 X54.571 Y52.976 A1425.95911
G1 X54.570 Y52.977 A1425.95924
G1 X53.673 Y53.347 A1426.06360
G1 X53.488 Y53.418 A1426.08489
G1 X53.482 Y53.421 A1426.08561
G1 X52.749 Y53.682 A1426.17041
G1 X52.382 Y53.801 A1426.21244
G1 X52.377 Y53.803 A1426.21303
G1 X51.620 Y54.032 A1426.29697
G1 X51.619 Y54.032 A1426.29701
G1 X51.613 Y54.033 A1426.29773
G1 X50.870 Y54.218 A1426.38279
G1 X50.298 Y54.346 A1426.44784
G1 X50.292 Y54.348 A1426.44850
G1 X49.715 Y54.462 A1426.51245
G1 X49.336 Y54.526 A1426.55427
G1 X49.330 Y54.527 A1426.55483
G1 X48.556 Y54.641 A1426.63783
G1 X48.551 Y54.641 A1426.63833
G1 X48.548 Y54.642 A1426.63865
G1 X47.781 Y54.722 A1426.72054
G1 X47.777 Y54.722 A1426.72102
G1 X47.772 Y54.723 A1426.72152
G1 X46.995 Y54.771 A1426.80409
G1 X46.990 Y54.771 A1426.80456
G1 X46.612 Y54.787 A1426.84470
G1 X46.212 Y54.795 A1426.88714
G1 X46.207 Y54.795 A1426.88760
G1 X45.429 Y54.795 A1426.97017
G1 X45.424 Y54.795 A1426.97067
G1 X45.419 Y54.795 A1426.97119
G1 X44.646 Y54.761 A1427.05336
G1 X44.643 Y54.761 A1427.05361
G1 X44.641 Y54.761 A1427.05386
G1 X43.865 Y54.699 A1427.13655
G1 X43.862 Y54.699 A1427.13680
G1 X43.860 Y54.699 A1427.13705
G1 X43.087 Y54.608 A1427.21974
G1 X43.084 Y54.608 A1427.21999
G1 X43.082 Y54.607 A1427.22024
G1 X42.315 Y54.489 A1427.30262
G1 X42.312 Y54.488 A1427.30293
G1 X42.308 Y54.487 A1427.30343
G1 X41.544 Y54.337 A1427.38604
G1 X41.539 Y54.336 A1427.38651
G1 X41.159 Y54.253 A1427.42841
G1 X40.780 Y54.161 A1427.47029
G1 X40.776 Y54.159 A1427.47077
G1 X40.019 Y53.959 A1427.55388
G1 X40.016 Y53.958 A1427.55420
G1 X40.013 Y53.957 A1427.55451
G1 X39.279 Y53.726 A1427.63847
G1 X38.907 Y53.599 A1427.68130
G1 X38.901 Y53.597 A1427.68198
G1 X38.163 Y53.323 A1427.76729
G1 X37.900 Y53.219 A1427.79801
G1 X37.895 Y53.217 A1427.79861
G1 X37.449 Y53.028 A1427.85093
G1 X37.087 Y52.865 A1427.89390
G1 X37.081 Y52.862 A1427.89453
G1 X36.379 Y52.525 A1427.97944
G1 X36.036 Y52.349 A1428.02151
G1 X36.030 Y52.346 A1428.02222
G1 X35.522 Y52.067 A1428.08535
G1 X35.016 Y51.775 A1428.14906
G1 X35.011 Y51.772 A1428.14966
G1 X34.676 Y51.569 A1428.19185
G1 X34.343 Y51.355 A1428.23438
G1 X34.339 Y51.352 A1428.23495
G1 X33.695 Y50.917 A1428.31915
G1 X33.461 Y50.749 A1428.35041
G1 X33.457 Y50.746 A1428.35099
G1 X32.752 Y50.216 A1428.44445
G1 X32.752 Y50.216 A1428.44448
G1 X32.747 Y50.212 A1428.44515
G1 X31.853 Y49.465 A1428.56861
G1 X31.848 Y49.460 A1428.56935
G1 X31.846 Y49.459 A1428.56955
G1 X31.279 Y48.934 A1428.65383
G1 X30.997 Y48.660 A1428.69674
G1 X30.992 Y48.655 A1428.69745
G1 X30.447 Y48.097 A1428.78245
G1 X30.184 Y47.812 A1428.82475
G1 X30.179 Y47.807 A1428.82546
G1 X29.663 Y47.215 A1428.91107
G1 X29.421 Y46.925 A1428.95229
G1 X29.417 Y46.920 A1428.95290
G1 X29.175 Y46.616 A1428.99475
G1 X28.934 Y46.298 A1429.03775
G1 X28.930 Y46.293 A1429.03833
G1 X28.475 Y45.663 A1429.12307
G1 X28.259 Y45.348 A1429.16463
G1 X28.256 Y45.343 A1429.16522
G1 X27.937 Y44.853 A1429.22777
G1 X27.830 Y44.680 A1429.24948
G1 X27.827 Y44.675 A1429.25008
G1 X27.435 Y44.009 A1429.33436
G1 X27.245 Y43.668 A1429.37691
G1 X27.242 Y43.662 A1429.37761
G1 X26.882 Y42.968 A1429.46286
G1 X26.713 Y42.621 A1429.50484
G1 X26.711 Y42.615 A1429.50553
G1 X26.471 Y42.087 A1429.56858
G1 X26.279 Y41.637 A1429.62167
G1 X26.276 Y41.632 A1429.62224
G1 X26.095 Y41.180 A1429.67496
G1 X25.957 Y40.810 A1429.71757
G1 X25.955 Y40.804 A1429.71819
G1 X25.701 Y40.065 A1429.80346
G1 X25.584 Y39.697 A1429.84557
G1 X25.581 Y39.689 A1429.84638
G1 X25.478 Y39.325 A1429.88803
G1 X25.232 Y38.381 A1429.99524
G1 X25.231 Y38.375 A1429.99591
G1 X25.186 Y38.181 A1430.01749
G1 X25.030 Y37.421 A1430.10165
G1 X25.029 Y37.415 A1430.10222
G1 X24.959 Y37.028 A1430.14452
G1 X24.899 Y36.635 A1430.18728
G1 X24.898 Y36.629 A1430.18795
G1 X24.801 Y35.859 A1430.27418
G1 X24.742 Y35.289 A1430.33777
G1 X24.741 Y35.283 A1430.33845
G1 X24.726 Y35.084 A1430.36005
G1 X24.680 Y34.310 A1430.44427
G1 X24.680 Y34.308 A1430.44442
G1 X24.680 Y34.304 A1430.44487
G1 X24.670 Y33.520 A1430.52801
G1 X24.670 Y33.515 A1430.52851
G1 X24.672 Y33.079 A1430.57561
G1 X24.686 Y32.651 A1430.62181
G1 X24.686 Y32.646 A1430.62235
G1 X24.708 Y32.214 A1430.66907
G1 X24.739 Y31.782 A1430.71580
G1 X24.739 Y31.777 A1430.71633
G1 X24.778 Y31.352 A1430.76240
G1 X24.831 Y30.912 A1430.81031
G1 X24.831 Y30.905 A1430.81095
G1 X24.955 Y30.047 A1430.90604
G1 X25.026 Y29.633 A1430.95212
G1 X25.027 Y29.626 A1430.95278
G1 X25.111 Y29.197 A1431.00007
G1 X25.205 Y28.769 A1431.04736
G1 X25.206 Y28.763 A1431.04803
G1 X25.306 Y28.354 A1431.09411
G1 X25.534 Y27.518 A1431.18920
G1 X25.536 Y27.512 A1431.18984
G1 X25.662 Y27.092 A1431.23708
G1 X25.800 Y26.677 A1431.28432
G1 X25.802 Y26.671 A1431.28496
G1 X26.098 Y25.855 A1431.38004
G1 X26.251 Y25.464 A1431.42612
G1 X26.254 Y25.458 A1431.42679
G1 X26.424 Y25.055 A1431.47408
G1 X26.600 Y24.659 A1431.52081
G1 X26.602 Y24.655 A1431.52134
G1 X26.786 Y24.263 A1431.56807
G1 X26.980 Y23.872 A1431.61526
G1 X26.983 Y23.866 A1431.61590
G1 X27.182 Y23.488 A1431.66265
G1 X27.548 Y22.827 A1431.74528
G1 X27.551 Y22.822 A1431.74595
G1 X27.603 Y22.733 A1431.75699
G1 X28.065 Y21.989 A1431.85094
G1 X28.069 Y21.983 A1431.85160
G1 X28.306 Y21.623 A1431.89877
G1 X28.737 Y21.006 A1431.98108
G1 X28.741 Y21.001 A1431.98172
G1 X28.932 Y20.743 A1432.01635
G1 X29.335 Y20.222 A1432.08742
G1 X29.340 Y20.217 A1432.08812
G1 X29.613 Y19.883 A1432.13545
G1 X30.173 Y19.233 A1432.22955
G1 X30.175 Y19.231 A1432.22989
G1 X30.177 Y19.228 A1432.23024
G1 X30.778 Y18.598 A1432.32254
G1 X30.782 Y18.595 A1432.32306
G1 X31.091 Y18.284 A1432.37039
G1 X31.403 Y17.985 A1432.41703
G1 X31.408 Y17.981 A1432.41770
G1 X31.723 Y17.694 A1432.46445
G1 X32.373 Y17.128 A1432.55896
G1 X32.378 Y17.124 A1432.55965
G1 X32.380 Y17.123 A1432.55992
G1 X33.057 Y16.585 A1432.65170
G1 X33.063 Y16.580 A1432.65250
G1 X33.068 Y16.577 A1432.65317
G1 X34.030 Y15.889 A1432.77844
G1 X34.035 Y15.885 A1432.77910
G1 X34.125 Y15.824 A1432.79074
G1 X34.856 Y15.361 A1432.88356
G1 X34.861 Y15.358 A1432.88412
G1 X35.238 Y15.130 A1432.93165
G1 X35.614 Y14.917 A1432.97828
G1 X35.619 Y14.914 A1432.97895
G1 X35.992 Y14.714 A1433.02530
G1 X36.207 Y14.605 A1433.05173
M106 P193.8
G1 Z5.000 F7800.000
G1 X36.751 Y14.354
G1 F900
G1 X37.567 Y13.974 A1433.39424
G1 X38.379 Y13.645 A1433.72749
G1 X39.606 Y13.220 A1434.22182
G1 X40.447 Y12.977 A1434.55507
G1 X41.714 Y12.678 A1435.05037
G1 X42.927 Y12.469 A1435.51878
G1 X43.863 Y12.355 A1435.87782
G1 X44.734 Y12.288 A1436.21009
G1 X45.961 Y12.253 A1436.67745
G1 X46.902 Y12.274 A1437.03562
G1 X47.776 Y12.332 A1437.36870
G1 X48.996 Y12.473 A1437.83612
G1 X49.926 Y12.628 A1438.19505
G1 X50.780 Y12.809 A1438.52745
G1 X52.038 Y13.143 A1439.02275
G1 X53.207 Y13.531 A1439.49134
G1 X54.086 Y13.872 A1439.85019
G1 X54.886 Y14.222 A1440.18245
G1 X55.985 Y14.771 A1440.64999
G1 X56.806 Y15.234 A1441.00884
G1 X57.548 Y15.695 A1441.34119
G1 X58.614 Y16.436 A1441.83551
G1 X59.306 Y16.972 A1442.16862
G1 X60.239 Y17.772 A1442.63624
G1 X60.923 Y18.420 A1442.99496
G1 X61.531 Y19.048 A1443.32735
G1 X62.385 Y20.026 A1443.82167
G1 X62.927 Y20.714 A1444.15478
G1 X63.637 Y21.716 A1444.62246
G1 X64.143 Y22.511 A1444.98112
G1 X64.580 Y23.267 A1445.31338
G1 X65.140 Y24.361 A1445.78108
G1 X65.528 Y25.220 A1446.13971
G1 X65.852 Y26.031 A1446.47210
G1 X66.272 Y27.260 A1446.96642
G1 X66.512 Y28.102 A1447.29953
G1 X66.790 Y29.299 A1447.76726
G1 X66.958 Y30.226 A1448.12586
G1 X67.075 Y31.091 A1448.45825
G1 X67.184 Y32.386 A1448.95257
G1 X67.212 Y33.261 A1449.28568
G1 X67.191 Y34.489 A1449.75342
G1 X67.128 Y35.429 A1450.11201
G1 X67.032 Y36.297 A1450.44427
G1 X66.836 Y37.510 A1450.91200
G1 X66.639 Y38.432 A1451.27060
G1 X66.420 Y39.277 A1451.60299
G1 X66.030 Y40.516 A1452.09731
G1 X65.726 Y41.334 A1452.42945
G1 X65.389 Y42.139 A1452.76146
G1 X64.858 Y43.247 A1453.22916
G1 X64.409 Y44.076 A1453.58779
G1 X63.961 Y44.822 A1453.91908
G1 X63.482 Y45.552 A1454.25122
G1 X62.713 Y46.602 A1454.74664
G1 X61.881 Y47.604 A1455.24206
G1 X61.290 Y48.245 A1455.57409
G1 X60.705 Y48.832 A1455.88958
G1 X59.839 Y49.622 A1456.33558
G1 X58.931 Y50.362 A1456.78147
G1 X58.300 Y50.830 A1457.08040
G1 X57.652 Y51.274 A1457.37934
G1 X56.657 Y51.892 A1457.82523
G1 X55.626 Y52.455 A1458.27211
G1 X54.569 Y52.959 A1458.71801
G1 X53.842 Y53.265 A1459.01793
G1 X52.743 Y53.670 A1459.46383
G1 X51.623 Y54.014 A1459.90972
G1 X50.862 Y54.209 A1460.20866
G1 X50.097 Y54.376 A1460.50660
G1 X48.553 Y54.625 A1461.10183
G1 X47.773 Y54.706 A1461.40033
G1 X46.211 Y54.783 A1461.99556
G1 X45.427 Y54.779 A1462.29407
G1 X44.644 Y54.745 A1462.59202
G1 X43.864 Y54.683 A1462.88996
G1 X42.314 Y54.472 A1463.48519
G1 X41.544 Y54.324 A1463.78370
G1 X40.781 Y54.148 A1464.08165
G1 X40.023 Y53.943 A1464.38058
G1 X38.907 Y53.586 A1464.82637
G1 X37.872 Y53.191 A1465.24787
G1 X37.091 Y52.853 A1465.57208
G1 X36.041 Y52.336 A1466.01723
G1 X35.351 Y51.956 A1466.31715
G1 X34.354 Y51.346 A1466.76207
G1 X33.701 Y50.904 A1467.06200
G1 X32.762 Y50.204 A1467.50790
G1 X31.861 Y49.450 A1467.95480
G1 X31.003 Y48.649 A1468.40169
G1 X30.191 Y47.801 A1468.84847
G1 X29.470 Y46.961 A1469.26983
G1 X28.944 Y46.290 A1469.59419
G1 X28.266 Y45.334 A1470.04033
G1 X27.641 Y44.340 A1470.48711
G1 X27.103 Y43.373 A1470.90843
G1 X26.723 Y42.610 A1471.23283
G1 X26.252 Y41.539 A1471.67798
G1 X25.969 Y40.804 A1471.97791
G1 X25.598 Y39.695 A1472.42283
G1 X25.384 Y38.939 A1472.72177
G1 X25.199 Y38.178 A1473.01972
G1 X25.041 Y37.412 A1473.31768
G1 X24.912 Y36.639 A1473.61563
G1 X24.812 Y35.863 A1473.91358
G1 X24.740 Y35.083 A1474.21153
G1 X24.696 Y34.302 A1474.50933
G1 X24.682 Y33.516 A1474.80862
G1 X24.718 Y32.290 A1475.27539
G1 X24.793 Y31.349 A1475.63477
G1 X24.900 Y30.482 A1475.96705
G1 X25.111 Y29.273 A1476.43404
G1 X25.319 Y28.352 A1476.79341
G1 X25.549 Y27.509 A1477.12582
G1 X25.954 Y26.275 A1477.62016
G1 X26.269 Y25.458 A1477.95341
G1 X26.798 Y24.272 A1478.44775
G1 X27.193 Y23.494 A1478.77990
G1 X27.620 Y22.733 A1479.11193
G1 X28.273 Y21.694 A1479.57897
G1 X28.815 Y20.921 A1479.93829
G1 X29.347 Y20.228 A1480.27069
G1 X30.189 Y19.239 A1480.76503
G1 X30.790 Y18.603 A1481.09815
G1 X31.676 Y17.754 A1481.56526
G1 X32.390 Y17.136 A1481.92451
G1 X33.073 Y16.593 A1482.25679
G1 X34.072 Y15.879 A1482.72394
G1 X34.866 Y15.369 A1483.08314
G1 X35.618 Y14.930 A1483.41445
G1 X36.212 Y14.616 A1483.67007
G1 X36.813 Y13.456 F7800.000
G1 X36.263 Y13.358
G1 F900
G1 X36.716 Y13.136 A1483.86226
G1 X37.552 Y12.778 A1484.20839
G1 X38.845 Y12.300 A1484.73304
G1 X39.716 Y12.028 A1485.08027
G1 X40.597 Y11.792 A1485.42750
G1 X41.946 Y11.504 A1485.95215
G1 X42.843 Y11.359 A1486.29828
G1 X44.214 Y11.210 A1486.82292
G1 X45.122 Y11.158 A1487.16909
G1 X46.480 Y11.149 A1487.68581
G1 X47.412 Y11.191 A1488.04100
G1 X48.324 Y11.269 A1488.38925
G1 X49.229 Y11.385 A1488.73648
G1 X50.583 Y11.628 A1489.26002
G1 X51.919 Y11.954 A1489.78357
G1 X52.791 Y12.215 A1490.12969
G1 X54.089 Y12.676 A1490.65433
G1 X54.932 Y13.026 A1491.00156
G1 X55.760 Y13.409 A1491.34878
G1 X56.980 Y14.051 A1491.87342
G1 X57.762 Y14.516 A1492.21958
G1 X58.892 Y15.267 A1492.73616
G1 X59.643 Y15.823 A1493.09148
G1 X60.355 Y16.398 A1493.43973
G1 X61.041 Y16.999 A1493.78696
G1 X62.027 Y17.958 A1494.31049
G1 X62.953 Y18.975 A1494.83403
G1 X63.532 Y19.681 A1495.18125
G1 X64.081 Y20.409 A1495.52851
G1 X64.843 Y21.533 A1496.04502
G1 X65.327 Y22.331 A1496.40041
G1 X65.768 Y23.133 A1496.74866
G1 X66.175 Y23.949 A1497.09588
G1 X66.724 Y25.211 A1497.61945
G1 X67.189 Y26.483 A1498.13483
G1 X67.463 Y27.372 A1498.48917
G1 X67.796 Y28.688 A1499.00558
G1 X67.979 Y29.604 A1499.36099
G1 X68.120 Y30.505 A1499.70814
G1 X68.264 Y31.876 A1500.23278
G1 X68.312 Y32.784 A1500.57890
G1 X68.315 Y34.162 A1501.10353
G1 X68.270 Y35.074 A1501.45075
G1 X68.188 Y35.985 A1501.79907
G1 X68.069 Y36.890 A1502.14629
G1 X67.819 Y38.246 A1502.67093
G1 X67.609 Y39.130 A1503.01705
G1 X67.222 Y40.454 A1503.54169
G1 X66.923 Y41.312 A1503.88781
G1 X66.403 Y42.589 A1504.41244
G1 X66.017 Y43.415 A1504.75966
G1 X65.597 Y44.225 A1505.10689
G1 X64.900 Y45.415 A1505.63152
G1 X64.401 Y46.175 A1505.97768
G1 X63.599 Y47.271 A1506.49421
G1 X63.011 Y47.995 A1506.84957
G1 X62.406 Y48.679 A1507.19683
G1 X61.476 Y49.630 A1507.70307
G1 X60.564 Y50.462 A1508.17309
G1 X59.619 Y51.233 A1508.63703
G1 X58.947 Y51.732 A1508.95584
G1 X57.919 Y52.423 A1509.42697
G1 X56.856 Y53.057 A1509.89817
G1 X56.134 Y53.442 A1510.20969
G1 X55.016 Y53.975 A1510.68089
G1 X53.871 Y54.446 A1511.15209
G1 X53.100 Y54.721 A1511.46361
G1 X51.916 Y55.084 A1511.93481
G1 X50.717 Y55.381 A1512.40502
G1 X49.500 Y55.611 A1512.87623
G1 X48.688 Y55.727 A1513.18874
G1 X47.905 Y55.809 A1513.48799
G1 X47.046 Y55.868 A1513.81590
G1 X46.223 Y55.893 A1514.12923
G1 X45.399 Y55.888 A1514.44273
G1 X44.576 Y55.853 A1514.75623
G1 X43.755 Y55.787 A1515.06973
G1 X42.940 Y55.692 A1515.38227
G1 X41.733 Y55.494 A1515.84739
G1 X40.914 Y55.322 A1516.16605
G1 X39.731 Y55.014 A1516.63112
G1 X38.932 Y54.767 A1516.94974
G1 X37.767 Y54.346 A1517.42091
G1 X36.645 Y53.869 A1517.88509
G1 X35.890 Y53.507 A1518.20368
G1 X34.800 Y52.920 A1518.67486
G1 X33.759 Y52.284 A1519.13906
G1 X33.066 Y51.815 A1519.45765
G1 X32.086 Y51.084 A1519.92280
G1 X31.439 Y50.554 A1520.24135
G1 X30.519 Y49.725 A1520.71250
G1 X29.648 Y48.849 A1521.18272
G1 X28.827 Y47.926 A1521.65294
G1 X28.056 Y46.957 A1522.12415
G1 X27.576 Y46.293 A1522.43568
G1 X26.897 Y45.255 A1522.90788
G1 X26.480 Y44.551 A1523.21941
G1 X25.900 Y43.457 A1523.69062
G1 X25.381 Y42.333 A1524.16183
G1 X25.072 Y41.575 A1524.47339
G1 X24.663 Y40.422 A1524.93868
G1 X24.420 Y39.622 A1525.25715
G1 X24.116 Y38.422 A1525.72831
G1 X23.878 Y37.209 A1526.19853
G1 X23.708 Y35.983 A1526.66974
G1 X23.632 Y35.165 A1526.98226
G1 X23.587 Y34.345 A1527.29467
G1 X23.576 Y33.059 A1527.78429
G1 X23.614 Y32.147 A1528.13174
G1 X23.688 Y31.237 A1528.47901
G1 X23.868 Y29.891 A1528.99599
G1 X24.038 Y28.977 A1529.34987
G1 X24.354 Y27.656 A1529.86678
G1 X24.617 Y26.761 A1530.22173
G1 X24.910 Y25.897 A1530.56889
G1 X25.418 Y24.619 A1531.09245
G1 X26.004 Y23.374 A1531.61600
G1 X26.434 Y22.569 A1531.96324
G1 X26.896 Y21.783 A1532.31047
G1 X27.655 Y20.632 A1532.83512
G1 X28.196 Y19.897 A1533.18236
G1 X28.766 Y19.185 A1533.52963
G1 X29.668 Y18.169 A1534.04654
G1 X30.321 Y17.503 A1534.40155
G1 X30.987 Y16.880 A1534.74871
G1 X32.040 Y15.990 A1535.27336
G1 X32.764 Y15.439 A1535.61953
G1 X33.885 Y14.673 A1536.13640
G1 X34.681 Y14.186 A1536.49145
G1 X35.724 Y13.623 A1536.94262
G1 X36.687 Y13.633 F7800.000
G1 X36.502 Y13.858
G1 F1200
G1 X36.950 Y13.644 A1536.98456
G1 X37.344 Y13.468 A1537.02110
G1 X37.349 Y13.466 A1537.02148
G1 X37.759 Y13.295 A1537.05820
G1 X38.183 Y13.131 A1537.09588
G1 X38.188 Y13.129 A1537.09624
G1 X39.026 Y12.830 A1537.17144
G1 X39.436 Y12.694 A1537.20798
G1 X39.441 Y12.693 A1537.20836
G1 X39.871 Y12.563 A1537.24558
G1 X40.304 Y12.443 A1537.28280
G1 X40.309 Y12.441 A1537.28318
G1 X40.728 Y12.336 A1537.31971
G1 X41.601 Y12.140 A1537.39530
G1 X41.607 Y12.139 A1537.39573
G1 X42.048 Y12.053 A1537.43366
G1 X42.844 Y11.921 A1537.50166
G1 X42.849 Y11.920 A1537.50205
G1 X42.918 Y11.910 A1537.50775
G1 X43.807 Y11.808 A1537.58082
G1 X43.811 Y11.807 A1537.58113
G1 X44.260 Y11.766 A1537.61847
G1 X44.702 Y11.736 A1537.65514
G1 X44.707 Y11.735 A1537.65551
G1 X45.140 Y11.717 A1537.69203
G1 X45.957 Y11.703 A1537.76096
G1 X45.962 Y11.703 A1537.76131
G1 X46.469 Y11.707 A1537.80344
G1 X46.924 Y11.722 A1537.84127
G1 X46.928 Y11.722 A1537.84160
G1 X47.376 Y11.747 A1537.87869
G1 X47.823 Y11.781 A1537.91583
G1 X47.828 Y11.781 A1537.91620
G1 X48.264 Y11.825 A1537.95322
G1 X49.071 Y11.923 A1538.02174
G1 X49.076 Y11.924 A1538.02213
G1 X49.144 Y11.934 A1538.02781
G1 X50.026 Y12.087 A1538.10088
G1 X50.030 Y12.088 A1538.10118
G1 X50.467 Y12.173 A1538.13801
G1 X50.906 Y12.273 A1538.17518
G1 X50.910 Y12.274 A1538.17554
G1 X51.773 Y12.494 A1538.25074
G1 X52.193 Y12.613 A1538.28766
G1 X52.199 Y12.615 A1538.28811
G1 X52.617 Y12.746 A1538.32505
G1 X53.391 Y13.012 A1538.39402
G1 X53.395 Y13.014 A1538.39437
G1 X53.889 Y13.197 A1538.43820
G1 X54.295 Y13.360 A1538.47455
G1 X54.299 Y13.361 A1538.47487
G1 X54.709 Y13.536 A1538.51175
G1 X55.118 Y13.721 A1538.54892
G1 X55.122 Y13.723 A1538.54929
G1 X55.512 Y13.910 A1538.58579
G1 X56.241 Y14.284 A1538.65477
G1 X56.245 Y14.286 A1538.65513
G1 X56.707 Y14.538 A1538.69894
G1 X57.086 Y14.757 A1538.73530
G1 X57.090 Y14.759 A1538.73562
G1 X57.465 Y14.988 A1538.77201
G1 X57.848 Y15.234 A1538.80967
G1 X57.852 Y15.236 A1538.81003
G1 X58.571 Y15.725 A1538.88347
G1 X58.939 Y15.989 A1538.92175
G1 X58.943 Y15.992 A1538.92214
G1 X59.302 Y16.264 A1538.95938
G1 X59.654 Y16.542 A1538.99651
G1 X59.657 Y16.545 A1538.99688
G1 X59.995 Y16.826 A1539.03390
G1 X60.609 Y17.358 A1539.10246
G1 X60.612 Y17.361 A1539.10285
G1 X60.663 Y17.408 A1539.10849
G1 X61.309 Y18.027 A1539.18154
G1 X61.312 Y18.030 A1539.18185
G1 X61.627 Y18.345 A1539.21867
G1 X61.934 Y18.673 A1539.25584
G1 X61.938 Y18.677 A1539.25620
G1 X62.530 Y19.341 A1539.33139
G1 X62.809 Y19.671 A1539.36792
G1 X62.812 Y19.675 A1539.36830
G1 X63.094 Y20.025 A1539.40551
G1 X63.368 Y20.381 A1539.44267
G1 X63.371 Y20.385 A1539.44305
G1 X63.627 Y20.734 A1539.47956
G1 X64.093 Y21.407 A1539.54856
G1 X64.096 Y21.411 A1539.54891
G1 X64.373 Y21.834 A1539.59092
G1 X64.615 Y22.223 A1539.62897
G1 X64.617 Y22.226 A1539.62930
G1 X64.844 Y22.610 A1539.66620
G1 X65.064 Y23.001 A1539.70333
G1 X65.067 Y23.005 A1539.70371
G1 X65.272 Y23.392 A1539.74072
G1 X65.639 Y24.118 A1539.80931
G1 X65.641 Y24.122 A1539.80970
G1 X65.671 Y24.185 A1539.81531
G1 X66.033 Y25.003 A1539.88836
G1 X66.035 Y25.006 A1539.88867
G1 X66.207 Y25.418 A1539.92551
G1 X66.367 Y25.837 A1539.96265
G1 X66.369 Y25.842 A1539.96302
G1 X66.659 Y26.661 A1540.03643
G1 X66.799 Y27.092 A1540.07474
G1 X66.800 Y27.097 A1540.07512
G1 X66.927 Y27.523 A1540.11188
G1 X67.045 Y27.961 A1540.14945
G1 X67.046 Y27.966 A1540.14980
G1 X67.251 Y28.811 A1540.22292
G1 X67.332 Y29.185 A1540.25505
G1 X67.333 Y29.189 A1540.25543
G1 X67.430 Y29.701 A1540.29878
G1 X67.503 Y30.138 A1540.33559
G1 X67.504 Y30.142 A1540.33591
G1 X67.567 Y30.577 A1540.37229
G1 X67.622 Y31.029 A1540.40996
G1 X67.622 Y31.034 A1540.41032
G1 X67.706 Y31.920 A1540.48551
G1 X67.736 Y32.351 A1540.52204
G1 X67.736 Y32.356 A1540.52242
G1 X67.755 Y32.799 A1540.55914
G1 X67.763 Y33.254 A1540.59675
G1 X67.763 Y33.259 A1540.59711
G1 X67.756 Y34.149 A1540.67198
G1 X67.744 Y34.510 A1540.70235
G1 X67.744 Y34.515 A1540.70272
G1 X67.714 Y35.035 A1540.74604
G1 X67.679 Y35.476 A1540.78288
G1 X67.678 Y35.481 A1540.78321
G1 X67.634 Y35.924 A1540.82009
G1 X67.580 Y36.369 A1540.85725
G1 X67.579 Y36.374 A1540.85762
G1 X67.516 Y36.803 A1540.89412
G1 X67.377 Y37.610 A1540.96314
G1 X67.376 Y37.614 A1540.96350
G1 X67.273 Y38.131 A1541.00727
G1 X67.177 Y38.557 A1541.04361
G1 X67.176 Y38.561 A1541.04393
G1 X67.070 Y38.988 A1541.08031
G1 X66.949 Y39.427 A1541.11798
G1 X66.948 Y39.431 A1541.11834
G1 X66.690 Y40.283 A1541.19354
G1 X66.554 Y40.693 A1541.23006
G1 X66.552 Y40.698 A1541.23044
G1 X66.402 Y41.115 A1541.26716
G1 X66.238 Y41.535 A1541.30439
G1 X66.237 Y41.538 A1541.30468
G1 X65.896 Y42.364 A1541.37683
G1 X65.895 Y42.367 A1541.37708
G1 X65.894 Y42.368 A1541.37722
G1 X65.515 Y43.168 A1541.45168
G1 X65.352 Y43.497 A1541.48254
G1 X65.349 Y43.501 A1541.48292
G1 X65.108 Y43.956 A1541.52575
G1 X64.888 Y44.347 A1541.56305
G1 X64.886 Y44.350 A1541.56336
G1 X64.432 Y45.116 A1541.63521
G1 X64.430 Y45.119 A1541.63553
G1 X64.428 Y45.122 A1541.63583
G1 X63.945 Y45.859 A1541.70711
G1 X63.940 Y45.866 A1541.70782
G1 X63.937 Y45.870 A1541.70822
G1 X63.160 Y46.932 A1541.81452
G1 X63.152 Y46.941 A1541.81550
G1 X63.149 Y46.946 A1541.81598
G1 X62.584 Y47.633 A1541.89122
G1 X62.299 Y47.966 A1541.92823
G1 X62.296 Y47.969 A1541.92861
G1 X61.998 Y48.299 A1541.96538
G1 X61.689 Y48.625 A1542.00252
G1 X61.686 Y48.628 A1542.00281
G1 X61.091 Y49.231 A1542.07130
G1 X61.090 Y49.231 A1542.07139
G1 X61.086 Y49.235 A1542.07176
G1 X60.203 Y50.040 A1542.16825
G1 X60.201 Y50.042 A1542.16848
G1 X60.199 Y50.044 A1542.16868
G1 X59.278 Y50.795 A1542.26480
G1 X59.273 Y50.799 A1542.26530
G1 X59.270 Y50.801 A1542.26566
G1 X58.626 Y51.279 A1542.33051
G1 X58.624 Y51.281 A1542.33075
G1 X58.621 Y51.283 A1542.33104
G1 X57.955 Y51.735 A1542.39606
G1 X57.952 Y51.737 A1542.39639
G1 X57.621 Y51.951 A1542.42944
G1 X56.936 Y52.367 A1542.49652
G1 X56.932 Y52.370 A1542.49692
G1 X56.581 Y52.570 A1542.53083
G1 X55.883 Y52.947 A1542.59734
G1 X55.881 Y52.948 A1542.59753
G1 X55.876 Y52.950 A1542.59797
G1 X54.798 Y53.465 A1542.69442
G1 X54.794 Y53.467 A1542.69478
G1 X54.791 Y53.468 A1542.69502
G1 X54.047 Y53.777 A1542.76018
G1 X54.043 Y53.779 A1542.76051
G1 X53.670 Y53.924 A1542.79403
G1 X52.925 Y54.195 A1542.86054
G1 X52.923 Y54.195 A1542.86073
G1 X52.918 Y54.197 A1542.86117
G1 X51.775 Y54.547 A1542.95762
G1 X51.771 Y54.549 A1542.95798
G1 X51.768 Y54.549 A1542.95822
G1 X50.991 Y54.745 A1543.02300
G1 X50.988 Y54.746 A1543.02327
G1 X50.598 Y54.837 A1543.05621
G1 X50.206 Y54.917 A1543.08914
G1 X50.203 Y54.917 A1543.08941
G1 X49.543 Y55.039 A1543.14331
G1 X49.540 Y55.040 A1543.14355
G1 X49.409 Y55.062 A1543.15451
G1 X48.625 Y55.175 A1543.22003
G1 X48.620 Y55.176 A1543.22036
G1 X48.620 Y55.176 A1543.22044
G1 X47.857 Y55.256 A1543.28245
G1 X47.822 Y55.259 A1543.28530
G1 X47.819 Y55.259 A1543.28558
G1 X47.150 Y55.305 A1543.33980
G1 X47.147 Y55.305 A1543.34004
G1 X47.018 Y55.312 A1543.35067
G1 X46.221 Y55.338 A1543.41655
G1 X46.217 Y55.338 A1543.41688
G1 X46.216 Y55.338 A1543.41695
G1 X45.415 Y55.333 A1543.48181
G1 X45.413 Y55.333 A1543.48196
G1 X45.411 Y55.333 A1543.48210
G1 X44.612 Y55.299 A1543.54683
G1 X44.610 Y55.299 A1543.54697
G1 X44.609 Y55.299 A1543.54712
G1 X43.811 Y55.235 A1543.61184
G1 X43.810 Y55.235 A1543.61199
G1 X43.808 Y55.235 A1543.61213
G1 X43.142 Y55.157 A1543.66638
G1 X43.139 Y55.156 A1543.66663
G1 X43.017 Y55.140 A1543.67679
G1 X42.223 Y55.016 A1543.74311
G1 X42.219 Y55.015 A1543.74342
G1 X41.836 Y54.947 A1543.77550
G1 X41.431 Y54.865 A1543.80951
G1 X41.428 Y54.865 A1543.80979
G1 X41.042 Y54.779 A1543.84237
G1 X40.649 Y54.683 A1543.87571
G1 X40.646 Y54.682 A1543.87598
G1 X39.883 Y54.480 A1543.93978
G1 X39.868 Y54.476 A1543.94108
G1 X39.864 Y54.474 A1543.94144
G1 X39.109 Y54.237 A1544.00779
G1 X38.727 Y54.107 A1544.04161
G1 X38.723 Y54.105 A1544.04201
G1 X37.971 Y53.826 A1544.10890
G1 X37.666 Y53.704 A1544.13634
G1 X37.662 Y53.702 A1544.13667
G1 X36.873 Y53.363 A1544.20615
G1 X36.860 Y53.357 A1544.20733
G1 X36.856 Y53.355 A1544.20771
G1 X36.143 Y53.009 A1544.27415
G1 X35.788 Y52.826 A1544.30763
G1 X35.785 Y52.824 A1544.30797
G1 X35.076 Y52.439 A1544.37315
G1 X35.074 Y52.437 A1544.37337
G1 X35.070 Y52.435 A1544.37374
G1 X34.060 Y51.817 A1544.46954
G1 X34.055 Y51.814 A1544.46999
G1 X34.051 Y51.812 A1544.47035
G1 X33.387 Y51.362 A1544.53522
G1 X33.381 Y51.358 A1544.53583
G1 X33.378 Y51.355 A1544.53619
G1 X32.428 Y50.647 A1544.63200
G1 X32.420 Y50.641 A1544.63282
G1 X32.416 Y50.637 A1544.63325
G1 X31.803 Y50.130 A1544.70000
G1 X31.498 Y49.865 A1544.73388
G1 X31.494 Y49.862 A1544.73428
G1 X30.904 Y49.320 A1544.80138
G1 X30.618 Y49.043 A1544.83482
G1 X30.614 Y49.039 A1544.83522
G1 X30.055 Y48.466 A1544.90232
G1 X29.785 Y48.173 A1544.93572
G1 X29.781 Y48.169 A1544.93611
G1 X29.254 Y47.566 A1545.00299
G1 X29.044 Y47.313 A1545.03041
G1 X29.042 Y47.310 A1545.03074
G1 X28.500 Y46.624 A1545.10135
G1 X28.498 Y46.621 A1545.10164
G1 X28.498 Y46.620 A1545.10173
G1 X28.037 Y45.976 A1545.16816
G1 X27.809 Y45.642 A1545.20206
G1 X27.806 Y45.638 A1545.20246
G1 X27.371 Y44.960 A1545.27003
G1 X27.166 Y44.624 A1545.30301
G1 X27.164 Y44.620 A1545.30341
G1 X26.967 Y44.278 A1545.33643
G1 X26.616 Y43.631 A1545.39797
G1 X26.614 Y43.628 A1545.39829
G1 X26.399 Y43.209 A1545.43721
G1 X26.225 Y42.846 A1545.47056
G1 X26.223 Y42.842 A1545.47091
G1 X25.893 Y42.110 A1545.53818
G1 X25.742 Y41.752 A1545.57080
G1 X25.740 Y41.748 A1545.57115
G1 X25.593 Y41.376 A1545.60409
G1 X25.450 Y40.992 A1545.63786
G1 X25.449 Y40.988 A1545.63819
G1 X25.194 Y40.248 A1545.70387
G1 X25.070 Y39.860 A1545.73800
G1 X25.069 Y39.856 A1545.73834
G1 X24.957 Y39.472 A1545.77130
G1 X24.852 Y39.081 A1545.80466
G1 X24.851 Y39.078 A1545.80493
G1 X24.658 Y38.302 A1545.86957
G1 X24.657 Y38.300 A1545.86972
G1 X24.657 Y38.298 A1545.86986
G1 X24.500 Y37.514 A1545.93450
G1 X24.499 Y37.511 A1545.93477
G1 X24.428 Y37.117 A1545.96772
G1 X24.367 Y36.722 A1546.00066
G1 X24.367 Y36.719 A1546.00093
G1 X24.260 Y35.926 A1546.06557
G1 X24.260 Y35.922 A1546.06586
G1 X24.259 Y35.919 A1546.06613
G1 X24.186 Y35.126 A1546.13059
G1 X24.186 Y35.124 A1546.13073
G1 X24.186 Y35.122 A1546.13088
G1 X24.142 Y34.328 A1546.19529
G1 X24.142 Y34.324 A1546.19558
G1 X24.142 Y34.321 A1546.19587
G1 X24.131 Y33.515 A1546.26099
G1 X24.131 Y33.511 A1546.26134
G1 X24.136 Y33.068 A1546.29865
G1 X24.164 Y32.262 A1546.36668
G1 X24.164 Y32.257 A1546.36707
G1 X24.169 Y32.181 A1546.37332
G1 X24.240 Y31.297 A1546.44584
G1 X24.241 Y31.295 A1546.44601
G1 X24.241 Y31.290 A1546.44635
G1 X24.355 Y30.403 A1546.51861
G1 X24.356 Y30.399 A1546.51896
G1 X24.420 Y29.979 A1546.55472
G1 X24.566 Y29.167 A1546.62419
G1 X24.567 Y29.162 A1546.62458
G1 X24.582 Y29.092 A1546.63040
G1 X24.784 Y28.221 A1546.70344
G1 X24.785 Y28.217 A1546.70375
G1 X24.892 Y27.799 A1546.73942
G1 X25.019 Y27.353 A1546.77774
G1 X25.020 Y27.348 A1546.77813
G1 X25.150 Y26.930 A1546.81521
G1 X25.430 Y26.091 A1546.88996
G1 X25.431 Y26.089 A1546.89016
G1 X25.432 Y26.087 A1546.89036
G1 X25.760 Y25.249 A1546.96300
G1 X25.761 Y25.245 A1546.96336
G1 X25.931 Y24.841 A1547.00036
G1 X26.300 Y24.037 A1547.07504
G1 X26.302 Y24.033 A1547.07541
G1 X26.502 Y23.624 A1547.11308
G1 X26.705 Y23.235 A1547.14938
G1 X26.706 Y23.232 A1547.14968
G1 X26.920 Y22.842 A1547.18647
G1 X27.144 Y22.453 A1547.22364
G1 X27.146 Y22.449 A1547.22401
G1 X27.371 Y22.079 A1547.26052
G1 X27.813 Y21.392 A1547.32939
G1 X27.816 Y21.388 A1547.32975
G1 X28.113 Y20.951 A1547.37369
G1 X28.368 Y20.596 A1547.41004
G1 X28.370 Y20.592 A1547.41037
G1 X28.638 Y20.236 A1547.44725
G1 X28.915 Y19.882 A1547.48448
G1 X28.918 Y19.879 A1547.48486
G1 X29.194 Y19.545 A1547.52141
G1 X29.778 Y18.874 A1547.59660
G1 X29.781 Y18.870 A1547.59697
G1 X30.075 Y18.549 A1547.63295
G1 X30.396 Y18.215 A1547.67124
G1 X30.400 Y18.212 A1547.67161
G1 X30.712 Y17.903 A1547.70866
G1 X31.301 Y17.346 A1547.77709
G1 X31.304 Y17.342 A1547.77748
G1 X31.357 Y17.295 A1547.78323
G1 X32.037 Y16.713 A1547.85631
G1 X32.040 Y16.711 A1547.85662
G1 X32.389 Y16.425 A1547.89396
G1 X32.739 Y16.153 A1547.93063
G1 X32.743 Y16.150 A1547.93101
G1 X33.091 Y15.893 A1547.96752
G1 X33.761 Y15.424 A1548.03641
G1 X33.765 Y15.422 A1548.03677
G1 X34.188 Y15.141 A1548.07897
G1 X34.576 Y14.898 A1548.11697
G1 X34.579 Y14.896 A1548.11729
G1 X34.962 Y14.668 A1548.15420
G1 X35.348 Y14.448 A1548.19096
G1 X35.351 Y14.446 A1548.19127
G1 X35.737 Y14.237 A1548.22755
G1 X35.963 Y14.122 A1548.24855
M106 P191.25
G1 Z6.000 F7800.000
G1 X36.523 Y13.900
G1 F900
G1 X37.375 Y13.512 A1548.60501
G1 X38.613 Y13.026 A1549.11101
G1 X39.463 Y12.742 A1549.45204
G1 X40.743 Y12.384 A1549.95805
G1 X41.618 Y12.188 A1550.29908
G1 X42.928 Y11.963 A1550.80508
G1 X43.815 Y11.858 A1551.14501
G1 X44.703 Y11.789 A1551.48416
G1 X45.692 Y11.755 A1551.86057
G1 X46.923 Y11.775 A1552.32914
G1 X47.819 Y11.834 A1552.67078
G1 X49.139 Y11.988 A1553.17678
G1 X50.023 Y12.138 A1553.51781
G1 X51.321 Y12.426 A1554.02380
G1 X52.181 Y12.665 A1554.36373
G1 X53.032 Y12.938 A1554.70366
G1 X54.278 Y13.410 A1555.21075
G1 X55.493 Y13.957 A1555.71785
G1 X56.287 Y14.365 A1556.05777
G1 X57.063 Y14.805 A1556.39699
G1 X57.901 Y15.330 A1556.77354
G1 X58.912 Y16.035 A1557.24268
G1 X59.619 Y16.582 A1557.58276
G1 X60.374 Y17.222 A1557.95942
G1 X61.274 Y18.064 A1558.42852
G1 X61.897 Y18.707 A1558.76936
G1 X62.774 Y19.711 A1559.27646
G1 X63.587 Y20.766 A1559.78355
G1 X64.095 Y21.501 A1560.12347
G1 X64.571 Y22.253 A1560.46229
G1 X65.017 Y23.024 A1560.80111
G1 X65.431 Y23.815 A1561.14104
G1 X65.987 Y25.023 A1561.64703
G1 X66.319 Y25.852 A1561.98695
G1 X66.616 Y26.692 A1562.32610
G1 X66.904 Y27.639 A1562.70286
G1 X67.205 Y28.837 A1563.17295
G1 X67.451 Y30.146 A1563.67986
G1 X67.572 Y31.034 A1564.02088
G1 X67.683 Y32.359 A1564.52687
G1 X67.712 Y33.252 A1564.86679
G1 X67.705 Y34.142 A1565.20561
G1 X67.661 Y35.034 A1565.54554
G1 X67.528 Y36.357 A1566.05153
G1 X67.393 Y37.243 A1566.39255
G1 X67.126 Y38.545 A1566.89854
G1 X66.902 Y39.410 A1567.23846
G1 X66.642 Y40.265 A1567.57838
G1 X66.191 Y41.516 A1568.08470
G1 X65.805 Y42.431 A1568.46255
G1 X65.269 Y43.541 A1568.93188
G1 X64.792 Y44.411 A1569.30953
G1 X64.145 Y45.461 A1569.77856
G1 X63.640 Y46.198 A1570.11863
G1 X63.045 Y46.988 A1570.49533
G1 X62.255 Y47.935 A1570.96438
G1 X61.651 Y48.591 A1571.30402
G1 X61.051 Y49.192 A1571.62689
G1 X60.165 Y50.000 A1572.08340
G1 X59.236 Y50.758 A1572.53980
G1 X58.590 Y51.237 A1572.84603
G1 X57.854 Y51.739 A1573.18499
G1 X56.908 Y52.324 A1573.60822
G1 X55.854 Y52.900 A1574.06545
G1 X54.769 Y53.417 A1574.52284
G1 X53.657 Y53.874 A1574.98023
G1 X52.524 Y54.268 A1575.43663
G1 X51.754 Y54.496 A1575.74256
G1 X50.978 Y54.696 A1576.04751
G1 X50.195 Y54.866 A1576.35246
G1 X49.406 Y55.008 A1576.65741
G1 X48.613 Y55.121 A1576.96235
G1 X47.816 Y55.204 A1577.26730
G1 X47.016 Y55.259 A1577.57225
G1 X46.216 Y55.283 A1577.87720
G1 X45.414 Y55.278 A1578.18215
G1 X44.614 Y55.244 A1578.48709
G1 X43.815 Y55.180 A1578.79204
G1 X43.019 Y55.087 A1579.09699
G1 X42.227 Y54.964 A1579.40194
G1 X41.440 Y54.813 A1579.70689
G1 X40.660 Y54.633 A1580.01184
G1 X39.884 Y54.423 A1580.31778
G1 X38.744 Y54.058 A1580.77320
G1 X37.988 Y53.777 A1581.08013
G1 X36.887 Y53.309 A1581.53555
G1 X36.160 Y52.960 A1581.84248
G1 X35.104 Y52.391 A1582.29888
G1 X34.079 Y51.764 A1582.75628
G1 X33.091 Y51.082 A1583.21298
G1 X32.383 Y50.540 A1583.55255
G1 X31.530 Y49.825 A1583.97618
G1 X30.653 Y49.005 A1584.43273
G1 X30.032 Y48.365 A1584.77226
G1 X29.294 Y47.534 A1585.19523
G1 X28.735 Y46.840 A1585.53458
G1 X28.076 Y45.942 A1585.95828
G1 X27.418 Y44.937 A1586.41552
G1 X26.816 Y43.899 A1586.87222
G1 X26.408 Y43.106 A1587.21170
G1 X25.942 Y42.094 A1587.63543
G1 X25.500 Y40.977 A1588.09267
G1 X25.119 Y39.838 A1588.54979
G1 X24.860 Y38.899 A1588.92044
G1 X24.711 Y38.288 A1589.15995
G1 X24.550 Y37.503 A1589.46490
G1 X24.418 Y36.713 A1589.76986
G1 X24.315 Y35.918 A1590.07481
G1 X24.241 Y35.120 A1590.37977
G1 X24.197 Y34.321 A1590.68452
G1 X24.182 Y33.517 A1590.99022
G1 X24.205 Y32.530 A1591.36605
G1 X24.295 Y31.299 A1591.83579
G1 X24.405 Y30.412 A1592.17587
G1 X24.569 Y29.438 A1592.55193
G1 X24.834 Y28.232 A1593.02166
G1 X25.069 Y27.368 A1593.36252
G1 X25.484 Y26.105 A1593.86853
G1 X25.806 Y25.269 A1594.20956
G1 X26.347 Y24.055 A1594.71557
G1 X26.754 Y23.256 A1595.05661
G1 X27.416 Y22.103 A1595.56262
G1 X27.900 Y21.352 A1595.90255
G1 X28.413 Y20.624 A1596.24171
G1 X29.017 Y19.841 A1596.61784
G1 X29.819 Y18.903 A1597.08749
G1 X30.432 Y18.254 A1597.42725
G1 X31.071 Y17.631 A1597.76718
G1 X32.071 Y16.750 A1598.27429
G1 X33.123 Y15.932 A1598.78139
G1 X33.858 Y15.419 A1599.12243
G1 X34.986 Y14.715 A1599.62843
G1 X35.987 Y14.170 A1600.06224
G1 X36.585 Y12.966 F7800.000
G1 X36.058 Y12.953
G1 F900
G1 X36.529 Y12.722 A1600.26168
G1 X37.382 Y12.357 A1600.61488
G1 X38.701 Y11.870 A1601.15012
G1 X39.590 Y11.592 A1601.50442
G1 X40.489 Y11.351 A1601.85872
G1 X41.861 Y11.058 A1602.39286
G1 X43.249 Y10.849 A1602.92701
G1 X44.176 Y10.758 A1603.28130
G1 X45.106 Y10.704 A1603.63590
G1 X46.338 Y10.693 A1604.10477
G1 X47.443 Y10.738 A1604.52564
G1 X48.372 Y10.818 A1604.88052
G1 X49.295 Y10.936 A1605.23481
G1 X50.680 Y11.185 A1605.77005
G1 X51.583 Y11.395 A1606.12325
G1 X52.932 Y11.783 A1606.65739
G1 X54.255 Y12.254 A1607.19153
G1 X55.113 Y12.609 A1607.54503
G1 X56.226 Y13.135 A1608.01369
G1 X57.200 Y13.654 A1608.43365
G1 X58.400 Y14.384 A1608.96837
G1 X59.170 Y14.907 A1609.32267
G1 X59.920 Y15.464 A1609.67806
G1 X60.645 Y16.048 A1610.03235
G1 X61.693 Y16.986 A1610.56758
G1 X62.351 Y17.640 A1610.92077
G1 X63.298 Y18.680 A1611.45601
G1 X63.887 Y19.398 A1611.80920
G1 X64.722 Y20.529 A1612.34443
G1 X65.236 Y21.305 A1612.69872
G1 X65.718 Y22.102 A1613.05301
G1 X66.382 Y23.338 A1613.58715
G1 X66.969 Y24.613 A1614.12128
G1 X67.315 Y25.477 A1614.47557
G1 X67.625 Y26.356 A1614.83017
G1 X67.979 Y27.535 A1615.29858
G1 X68.244 Y28.609 A1615.71988
G1 X68.425 Y29.521 A1616.07366
G1 X68.629 Y30.913 A1616.60889
G1 X68.716 Y31.837 A1616.96208
G1 X68.776 Y33.242 A1617.49731
G1 X68.769 Y34.173 A1617.85160
G1 X68.723 Y35.102 A1618.20589
G1 X68.583 Y36.500 A1618.74033
G1 X68.389 Y37.712 A1619.20764
G1 X68.160 Y38.793 A1619.62816
G1 X67.843 Y39.981 A1620.09606
G1 X67.505 Y41.035 A1620.51736
G1 X67.180 Y41.909 A1620.87223
G1 X66.820 Y42.770 A1621.22762
G1 X66.424 Y43.616 A1621.58301
G1 X65.994 Y44.445 A1621.93840
G1 X65.532 Y45.253 A1622.29269
G1 X64.773 Y46.434 A1622.82682
G1 X63.944 Y47.567 A1623.36096
G1 X63.357 Y48.289 A1623.71525
G1 X62.740 Y48.986 A1624.06965
G1 X61.789 Y49.959 A1624.58712
G1 X61.178 Y50.527 A1624.90478
G1 X60.214 Y51.343 A1625.38552
