; generated by PrusaSlicer 2.0.0+win64 on 2019-05-28 at 21:05:07

; 

; external perimeters extrusion width = 1.13mm
; perimeters extrusion width = 1.13mm
; infill extrusion width = 1.13mm
; solid infill extrusion width = 1.13mm
; top infill extrusion width = 1.00mm
; first layer extrusion width = 1.05mm

M107
G28 ; home all axes
G1 Z5 F5000 ; lift nozzle
; Filament gcode
G21 ; set units to millimeters
G90 ; use absolute coordinates
G1 Z0.500 F7800.000
G1 A-2.00000 F2400.00000
G1 X124.419 Y130.710 F7800.000
G1 A0.00000 F2400.00000
G1 F1800
G1 X125.399 Y129.906 A0.24838
G1 X126.523 Y129.306 A0.49799
G1 X127.736 Y128.940 A0.74637
G1 X128.997 Y128.816 A0.99475
G1 X129.849 Y128.873 A1.16213
G1 X131.396 Y129.135 A1.46947
G1 X133.674 Y129.703 A1.92966
G1 X135.945 Y130.491 A2.40059
G1 X138.040 Y131.434 A2.85086
G1 X140.141 Y132.616 A3.32330
G1 X142.058 Y133.933 A3.77908
G1 X143.832 Y135.395 A4.22952
G1 X145.634 Y137.183 A4.72706
G1 X147.220 Y139.087 A5.21256
G1 X148.776 Y141.382 A5.75599
G1 X149.984 Y143.618 A6.25399
G1 X150.867 Y145.680 A6.69361
G1 X151.660 Y148.127 A7.19766
G1 X152.162 Y150.360 A7.64622
G1 X152.470 Y152.633 A8.09569
G1 X152.580 Y155.134 A8.58617
G1 X152.470 Y157.450 A9.04056
G1 X152.119 Y159.949 A9.53517
G1 X151.596 Y162.180 A9.98415
G1 X150.794 Y164.583 A10.48057
G1 X149.681 Y167.070 A11.01458
G1 X148.542 Y169.075 A11.46638
G1 X147.100 Y171.151 A11.96174
G1 X145.644 Y172.884 A12.40532
G1 X143.874 Y174.645 A12.89462
G1 X142.048 Y176.152 A13.35863
G1 X140.083 Y177.498 A13.82531
G1 X138.033 Y178.647 A14.28594
G1 X135.959 Y179.581 A14.73160
G1 X133.674 Y180.375 A15.20563
G1 X131.429 Y180.936 A15.65917
G1 X129.853 Y181.204 A15.97232
G1 X128.995 Y181.262 A16.14092
G1 X127.839 Y181.158 A16.36846
G1 X126.725 Y180.851 A16.59477
G1 X125.684 Y180.351 A16.82108
G1 X124.748 Y179.675 A17.04739
G1 X123.948 Y178.842 A17.27370
G1 X123.305 Y177.875 A17.50124
G1 X122.847 Y176.815 A17.72755
G1 X122.585 Y175.690 A17.95386
G1 X122.522 Y174.801 A18.12860
G1 X122.522 Y135.287 A25.87183
G1 X122.646 Y134.026 A26.12021
G1 X123.014 Y132.813 A26.36859
G1 X123.615 Y131.690 A26.61820
G1 X124.324 Y130.826 A26.83719
G1 A24.83719 F2400.00000
G1 X131.404 Y171.779 F7800.000
G1 A26.83719 F2400.00000
G1 F1800
G1 X131.404 Y138.299 A33.39799
G1 X131.947 Y138.476 A33.51001
G1 X132.662 Y138.744 A33.65959
G1 X133.363 Y139.042 A33.80873
G1 X134.045 Y139.368 A33.95683
G1 X134.792 Y139.767 A34.12299
G1 X135.447 Y140.157 A34.27225
G1 X136.084 Y140.574 A34.42151
G1 X136.701 Y141.018 A34.57036
G1 X137.296 Y141.486 A34.71883
G1 X137.869 Y141.979 A34.86693
G1 X138.420 Y142.494 A35.01468
G1 X138.942 Y143.028 A35.16109
G1 X139.549 Y143.710 A35.33996
G1 X140.022 Y144.294 A35.48722
G1 X140.471 Y144.900 A35.63504
G1 X140.893 Y145.523 A35.78258
G1 X141.287 Y146.163 A35.92985
G1 X141.653 Y146.818 A36.07689
G1 X141.990 Y147.488 A36.22373
G1 X142.294 Y148.164 A36.36909
G1 X142.645 Y149.054 A36.55643
G1 X142.884 Y149.758 A36.70224
G1 X143.094 Y150.477 A36.84911
G1 X143.274 Y151.204 A36.99584
G1 X143.421 Y151.938 A37.14247
G1 X143.538 Y152.677 A37.28902
G1 X143.623 Y153.419 A37.43552
G1 X143.675 Y154.158 A37.58065
G1 X143.697 Y155.130 A37.77120
G1 X143.678 Y155.871 A37.91633
G1 X143.627 Y156.617 A38.06285
G1 X143.543 Y157.360 A38.20940
G1 X143.429 Y158.099 A38.35601
G1 X143.282 Y158.833 A38.50272
G1 X143.106 Y159.555 A38.64823
G1 X142.833 Y160.478 A38.83685
G1 X142.589 Y161.177 A38.98207
G1 X142.312 Y161.873 A39.12872
G1 X142.006 Y162.556 A39.27554
G1 X141.670 Y163.227 A39.42255
G1 X141.305 Y163.884 A39.56979
G1 X140.912 Y164.526 A39.71727
G1 X140.493 Y165.147 A39.86402
G1 X139.941 Y165.889 A40.04537
G1 X139.468 Y166.465 A40.19141
G1 X138.966 Y167.025 A40.33882
G1 X138.439 Y167.565 A40.48668
G1 X137.911 Y168.062 A40.62876
G1 X137.265 Y168.617 A40.79563
G1 X136.694 Y169.065 A40.93777
G1 X136.013 Y169.552 A41.10195
G1 X135.401 Y169.950 A41.24495
G1 X134.691 Y170.367 A41.40626
G1 X134.040 Y170.712 A41.55067
G1 X133.369 Y171.033 A41.69655
G1 X132.679 Y171.327 A41.84338
G1 X131.547 Y171.732 A42.07915
G1 X130.461 Y173.027 F7800.000
G1 F1800
G1 X130.461 Y137.050 A49.12954
G1 X131.492 Y137.336 A49.33921
G1 X132.259 Y137.586 A49.49730
G1 X133.012 Y137.869 A49.65492
G1 X133.750 Y138.182 A49.81207
G1 X134.470 Y138.526 A49.96841
G1 X135.256 Y138.946 A50.14299
G1 X135.946 Y139.357 A50.30046
G1 X136.618 Y139.797 A50.45774
G1 X137.268 Y140.264 A50.61460
G1 X137.895 Y140.758 A50.77105
G1 X138.499 Y141.277 A50.92711
G1 X139.079 Y141.820 A51.08281
G1 X139.631 Y142.384 A51.23755
G1 X140.268 Y143.099 A51.42513
G1 X140.768 Y143.716 A51.58069
G1 X141.241 Y144.355 A51.73647
G1 X141.685 Y145.012 A51.89194
G1 X142.101 Y145.686 A52.04714
G1 X142.486 Y146.377 A52.20209
G1 X142.841 Y147.082 A52.35683
G1 X143.163 Y147.797 A52.51059
G1 X143.530 Y148.729 A52.70681
G1 X143.783 Y149.474 A52.86101
G1 X144.005 Y150.232 A53.01578
G1 X144.194 Y150.998 A53.17041
G1 X144.350 Y151.771 A53.32492
G1 X144.472 Y152.550 A53.47936
G1 X144.562 Y153.333 A53.63375
G1 X144.617 Y154.114 A53.78729
G1 X144.640 Y155.132 A53.98680
G1 X144.620 Y155.915 A54.14036
G1 X144.566 Y156.701 A54.29476
G1 X144.478 Y157.485 A54.44920
G1 X144.357 Y158.264 A54.60370
G1 X144.203 Y159.037 A54.75829
G1 X144.017 Y159.800 A54.91222
G1 X143.731 Y160.767 A55.10975
G1 X143.472 Y161.507 A55.26336
G1 X143.181 Y162.240 A55.41791
G1 X142.858 Y162.960 A55.57263
G1 X142.504 Y163.667 A55.72755
G1 X142.119 Y164.359 A55.88270
G1 X141.705 Y165.035 A56.03812
G1 X141.263 Y165.692 A56.19321
G1 X140.683 Y166.470 A56.38332
G1 X140.183 Y167.079 A56.53769
G1 X139.654 Y167.669 A56.69303
G1 X139.099 Y168.238 A56.84878
G1 X138.541 Y168.763 A56.99891
G1 X137.864 Y169.346 A57.17404
G1 X137.260 Y169.819 A57.32448
G1 X136.544 Y170.331 A57.49688
G1 X135.897 Y170.752 A57.64811
G1 X135.152 Y171.190 A57.81759
G1 X134.465 Y171.555 A57.96995
G1 X133.757 Y171.893 A58.12371
G1 X133.030 Y172.202 A58.27856
G1 X132.240 Y172.498 A58.44384
G1 X131.485 Y172.744 A58.59932
G1 X130.606 Y172.987 A58.77818
G1 X129.519 Y174.167 F7800.000
G1 F1800
G1 X129.519 Y135.903 A66.27669
G1 X130.098 Y136.010 A66.39209
G1 X130.945 Y136.206 A66.56258
G1 X131.765 Y136.434 A66.72922
G1 X132.571 Y136.696 A66.89538
G1 X133.362 Y136.993 A67.06103
G1 X134.138 Y137.323 A67.22620
G1 X134.896 Y137.685 A67.39077
G1 X135.719 Y138.125 A67.57378
G1 X136.446 Y138.557 A67.73946
G1 X137.152 Y139.020 A67.90477
G1 X137.835 Y139.511 A68.06963
G1 X138.494 Y140.030 A68.23406
G1 X139.129 Y140.575 A68.39809
G1 X139.738 Y141.146 A68.56173
G1 X140.320 Y141.741 A68.72481
G1 X140.987 Y142.489 A68.92108
G1 X141.513 Y143.138 A69.08496
G1 X142.010 Y143.810 A69.24869
G1 X142.478 Y144.500 A69.41210
G1 X142.914 Y145.209 A69.57522
G1 X143.319 Y145.935 A69.73808
G1 X143.692 Y146.676 A69.90071
G1 X144.032 Y147.431 A70.06287
G1 X144.416 Y148.405 A70.26798
G1 X144.682 Y149.190 A70.43057
G1 X144.915 Y149.987 A70.59325
G1 X145.114 Y150.792 A70.75577
G1 X145.278 Y151.605 A70.91817
G1 X145.407 Y152.423 A71.08049
G1 X145.500 Y153.246 A71.24277
G1 X145.559 Y154.070 A71.40472
G1 X145.583 Y155.134 A71.61319
G1 X145.562 Y155.960 A71.77517
G1 X145.505 Y156.786 A71.93746
G1 X145.413 Y157.609 A72.09978
G1 X145.286 Y158.428 A72.26217
G1 X145.124 Y159.241 A72.42466
G1 X144.927 Y160.046 A72.58700
G1 X144.628 Y161.056 A72.79345
G1 X144.356 Y161.837 A72.95545
G1 X144.049 Y162.607 A73.11789
G1 X143.710 Y163.364 A73.28050
G1 X143.338 Y164.107 A73.44333
G1 X142.934 Y164.835 A73.60641
G1 X142.498 Y165.545 A73.76976
G1 X142.032 Y166.237 A73.93320
G1 X141.426 Y167.051 A74.13205
G1 X140.899 Y167.693 A74.29477
G1 X140.343 Y168.313 A74.45803
G1 X139.760 Y168.911 A74.62167
G1 X139.172 Y169.464 A74.77984
G1 X138.462 Y170.074 A74.96325
G1 X137.825 Y170.574 A75.12197
G1 X137.075 Y171.110 A75.30260
G1 X136.393 Y171.554 A75.46206
G1 X135.612 Y172.013 A75.63971
G1 X134.889 Y172.397 A75.80003
G1 X134.145 Y172.752 A75.96167
G1 X133.380 Y173.078 A76.12454
G1 X132.551 Y173.388 A76.29798
G1 X131.757 Y173.646 A76.46159
G1 X130.921 Y173.878 A76.63174
G1 X130.106 Y174.066 A76.79555
G1 X129.666 Y174.142 A76.88295
G1 X129.959 Y173.269 F7800.000
G1 A74.88295 F2400.00000
G1 X133.071 Y170.853 F7800.000
G1 A76.88295 F2400.00000
G1 F1800
G1 X132.111 Y169.893 A77.15473
G1 X132.111 Y168.531 A77.42748
G1 X133.681 Y170.101 A77.87204
G1 X134.564 Y169.622 A78.07322
G1 X132.111 Y167.168 A78.76787
G1 X132.111 Y165.806 A79.04062
G1 X135.407 Y169.102 A79.97399
G1 X136.209 Y168.542 A80.16988
G1 X132.111 Y164.444 A81.33041
G1 X132.111 Y163.082 A81.60316
G1 X136.969 Y167.939 A82.97866
G1 X137.690 Y167.299 A83.17186
G1 X132.111 Y161.720 A84.75162
G1 X132.111 Y160.358 A85.02437
G1 X138.373 Y166.620 A86.79764
G1 X139.016 Y165.900 A86.99081
G1 X132.111 Y158.995 A88.94611
G1 X132.111 Y157.633 A89.21887
G1 X139.617 Y165.139 A91.34438
G1 X140.183 Y164.343 A91.54001
G1 X132.111 Y156.271 A93.82563
G1 X132.111 Y154.909 A94.09838
G1 X140.707 Y163.505 A96.53247
G1 X141.184 Y162.619 A96.73384
G1 X132.111 Y153.547 A99.30289
G1 X132.111 Y152.184 A99.57565
G1 X141.618 Y161.692 A102.26783
G1 X142.002 Y160.713 A102.47829
G1 X132.111 Y150.822 A105.27908
G1 X132.111 Y149.460 A105.55184
G1 X142.332 Y159.681 A108.44598
G1 X142.609 Y158.596 A108.67021
G1 X132.111 Y148.098 A111.64285
G1 X132.111 Y146.736 A111.91560
G1 X142.816 Y157.440 A114.94677
G1 X142.922 Y156.553 A115.12567
G1 X142.946 Y156.208 A115.19485
G1 X132.111 Y145.373 A118.26295
G1 X132.111 Y144.011 A118.53570
G1 X142.984 Y154.885 A121.61468
G1 X142.969 Y154.191 A121.75354
G1 X142.915 Y153.453 A121.90178
G1 X132.111 Y142.649 A124.96107
G1 X132.111 Y141.287 A125.23382
G1 X142.685 Y151.860 A128.22791
G1 X142.583 Y151.359 A128.33031
G1 X142.411 Y150.661 A128.47418
G1 X142.231 Y150.045 A128.60281
G1 X132.111 Y139.925 A131.46851
G1 X132.111 Y139.293 A131.59507
G1 X133.072 Y139.687 A131.80301
G1 X133.384 Y139.836 A131.87233
G1 X142.171 Y148.622 A134.36044
G1 A132.36044 F2400.00000
G1 X140.765 Y145.854 F7800.000
G1 A134.36044 F2400.00000
G1 F1800
G1 X135.327 Y140.416 A135.90018
G1 Z1.000 F7800.000
G1 X130.680 Y172.244
G1 F3600
G1 X129.709 Y172.472 A136.11228
G1 X129.087 Y172.588 A136.24678
G1 X128.494 Y172.671 A136.37421
G1 X127.447 Y172.786 A136.71804
G1 X126.150 Y172.835 A137.14199
G1 X125.256 Y172.810 A137.43382
G1 X124.169 Y172.724 A137.79000
G1 X123.546 Y172.643 A137.99497
G1 X122.593 Y172.475 A138.31113
G1 X121.669 Y172.260 A138.62078
G1 X120.924 Y172.048 A138.87382
G1 X120.015 Y171.742 A139.18695
G1 X119.136 Y171.393 A139.49573
G1 X118.531 Y171.120 A139.71258
G1 X117.700 Y170.699 A140.01660
G1 X116.913 Y170.247 A140.31297
G1 X116.161 Y169.762 A140.60532
G1 X115.368 Y169.192 A140.92420
G1 X114.664 Y168.629 A141.21840
G1 X113.994 Y168.033 A141.51134
G1 X113.500 Y167.553 A141.73627
G1 X112.888 Y166.902 A142.02794
G1 X112.436 Y166.377 A142.25413
G1 X111.896 Y165.689 A142.53969
G1 X111.404 Y164.995 A142.81749
G1 X110.793 Y164.022 A143.19270
G1 X110.377 Y163.273 A143.47237
G1 X109.999 Y162.506 A143.75169
G1 X109.659 Y161.721 A144.03093
G1 X109.406 Y161.059 A144.26226
G1 X109.138 Y160.254 A144.53950
G1 X108.908 Y159.432 A144.81810
G1 X108.771 Y158.860 A145.01015
G1 X108.655 Y158.277 A145.20425
G1 X108.518 Y157.430 A145.48448
G1 X108.438 Y156.723 A145.71666
G1 X108.371 Y155.748 A146.03582
G1 X108.354 Y155.040 A146.26728
G1 X108.372 Y154.299 A146.50911
G1 X108.432 Y153.410 A146.80023
G1 X108.514 Y152.676 A147.04141
G1 X108.658 Y151.787 A147.33528
G1 X108.778 Y151.190 A147.53410
G1 X108.919 Y150.603 A147.73139
G1 X109.121 Y149.883 A147.97552
G1 X109.402 Y149.031 A148.26851
G1 X109.666 Y148.339 A148.51044
G1 X109.959 Y147.659 A148.75219
G1 X110.355 Y146.846 A149.04731
G1 X110.793 Y146.056 A149.34245
G1 X111.423 Y145.055 A149.72837
G1 X111.953 Y144.313 A150.02625
G1 X112.409 Y143.734 A150.26677
G1 X112.887 Y143.177 A150.50670
G1 X113.543 Y142.482 A150.81854
G1 X114.068 Y141.976 A151.05679
G1 X114.799 Y141.339 A151.37333
G1 X115.627 Y140.691 A151.71654
G1 X116.209 Y140.282 A151.94884
G1 X117.047 Y139.750 A152.27305
G1 X117.669 Y139.396 A152.50669
G1 X118.581 Y138.935 A152.84040
G1 X119.248 Y138.637 A153.07905
G1 X119.923 Y138.369 A153.31612
G1 X120.929 Y138.028 A153.66288
G1 X121.631 Y137.827 A153.90123
G1 X122.427 Y137.638 A154.16871
G1 X123.481 Y137.444 A154.51841
G1 X124.174 Y137.353 A154.74687
G1 X125.260 Y137.265 A155.10263
G1 X125.989 Y137.244 A155.34077
G1 X127.096 Y137.269 A155.70235
G1 X127.797 Y137.321 A155.93168
G1 X128.494 Y137.409 A156.16099
G1 X128.909 Y137.461 A156.24989
G1 X129.601 Y137.584 A156.39933
G1 X130.693 Y137.837 A156.63782
G1 X131.383 Y138.035 A156.79028
G1 X132.077 Y138.264 A156.94566
G1 X132.748 Y138.518 A157.09826
G1 X133.778 Y138.968 A157.33724
G1 X134.409 Y139.284 A157.48716
G1 X135.388 Y139.838 A157.72640
G1 X135.984 Y140.217 A157.87648
G1 X136.902 Y140.870 A158.11596
G1 X137.467 Y141.317 A158.26904
G1 X138.023 Y141.795 A158.42504
G1 X138.549 Y142.288 A158.57823
G1 X139.332 Y143.100 A158.81811
G1 X139.796 Y143.634 A158.96856
G1 X140.492 Y144.523 A159.20862
G1 X140.907 Y145.114 A159.36206
G1 X141.297 Y145.721 A159.51553
G1 X141.858 Y146.702 A159.75581
G1 X142.184 Y147.347 A159.90937
G1 X142.488 Y148.017 A160.06584
G1 X142.760 Y148.687 A160.21946
G1 X143.125 Y149.743 A160.45708
G1 X143.425 Y150.820 A160.69476
G1 X143.582 Y151.526 A160.84847
G1 X143.710 Y152.238 A161.00219
G1 X143.853 Y153.360 A161.24282
G1 X143.907 Y154.082 A161.39656
G1 X143.931 Y154.808 A161.55103
G1 X143.915 Y155.805 A161.76309
G1 X143.858 Y156.663 A161.94593
G1 X143.777 Y157.390 A162.10131
G1 X143.666 Y158.104 A162.25504
G1 X143.436 Y159.212 A162.49563
G1 X143.255 Y159.902 A162.64725
G1 X142.959 Y160.840 A162.85629
G1 X142.655 Y161.658 A163.04194
G1 X142.370 Y162.330 A163.19708
G1 X142.055 Y162.995 A163.35353
G1 X141.718 Y163.634 A163.50708
G1 X141.141 Y164.606 A163.74735
G1 X140.749 Y165.196 A163.89793
G1 X140.075 Y166.102 A164.13804
G1 X139.624 Y166.647 A164.28852
G1 X138.860 Y167.480 A164.52873
G1 X138.381 Y167.951 A164.67158
G1 X137.626 Y168.628 A164.88706
G1 X137.133 Y169.030 A165.02227
G1 X136.318 Y169.633 A165.23786
G1 X135.791 Y169.987 A165.37296
G1 X134.935 Y170.506 A165.58579
G1 X134.062 Y170.971 A165.79592
G1 X133.155 Y171.391 A166.00849
G1 X132.568 Y171.631 A166.14331
G1 X131.627 Y171.966 A166.35567
G1 X130.824 Y172.201 A166.53345
G1 X130.969 Y173.225 F7800.000
G1 F3600
G1 X129.920 Y173.473 A166.76260
G1 X129.252 Y173.598 A166.90713
G1 X128.494 Y173.703 A167.06985
G1 X127.522 Y173.806 A167.38873
G1 X126.830 Y173.845 A167.61516
G1 X126.145 Y173.858 A167.83898
G1 X125.202 Y173.831 A168.14700
G1 X124.063 Y173.742 A168.52012
G1 X123.391 Y173.655 A168.74121
G1 X122.388 Y173.477 A169.07397
G1 X121.413 Y173.250 A169.40059
G1 X120.621 Y173.026 A169.66970
G1 X119.662 Y172.703 A169.99984
G1 X118.737 Y172.335 A170.32518
G1 X118.089 Y172.042 A170.55719
G1 X117.214 Y171.599 A170.87739
G1 X116.381 Y171.121 A171.19103
G1 X115.585 Y170.608 A171.50043
G1 X114.749 Y170.007 A171.83651
G1 X114.005 Y169.411 A172.14796
G1 X113.297 Y168.782 A172.45697
G1 X112.771 Y168.270 A172.69685
G1 X112.127 Y167.586 A173.00335
G1 X111.646 Y167.026 A173.24441
G1 X111.076 Y166.301 A173.54566
G1 X110.553 Y165.563 A173.84098
G1 X109.912 Y164.542 A174.23449
G1 X109.471 Y163.748 A174.53136
G1 X109.071 Y162.935 A174.82700
G1 X108.712 Y162.107 A175.12171
G1 X108.443 Y161.403 A175.36779
G1 X108.160 Y160.553 A175.66047
G1 X107.918 Y159.689 A175.95342
G1 X107.772 Y159.079 A176.15815
G1 X107.649 Y158.459 A176.36477
G1 X107.505 Y157.569 A176.65883
G1 X107.419 Y156.817 A176.90628
G1 X107.349 Y155.795 A177.24054
G1 X107.331 Y155.039 A177.48746
G1 X107.350 Y154.252 A177.74445
G1 X107.413 Y153.318 A178.05032
G1 X107.501 Y152.537 A178.30701
G1 X107.651 Y151.605 A178.61514
G1 X107.779 Y150.970 A178.82660
G1 X107.929 Y150.345 A179.03655
G1 X108.142 Y149.585 A179.29446
G1 X108.438 Y148.688 A179.60274
G1 X108.719 Y147.953 A179.85950
G1 X109.030 Y147.232 A180.11601
G1 X109.448 Y146.374 A180.42762
G1 X109.912 Y145.535 A180.74080
G1 X110.573 Y144.485 A181.14580
G1 X111.134 Y143.699 A181.46137
G1 X111.619 Y143.084 A181.71680
G1 X112.127 Y142.492 A181.97163
G1 X112.816 Y141.763 A182.29924
