; generated by PrusaSlicer 2.0.0+win64 on 2019-06-08 at 10:42:46

; 

; external perimeters extrusion width = 1.60mm
; perimeters extrusion width = 1.60mm
; infill extrusion width = 1.60mm
; solid infill extrusion width = 1.60mm
; top infill extrusion width = 1.60mm
; first layer extrusion width = 3.00mm

M107
M107
g92 z0
g1 f1000 z-310
g92 x0 y0 a0 z0
; Filament gcode
G21 ; set units to millimeters
G90 ; use absolute coordinates
G1 Z4.000 F7800.000
G1 A-2.00000 F2400.00000
G1 X14.694 Y13.904 F7800.000
G1 A0.00000 F2400.00000
G1 F1800
G1 X16.808 Y11.969 A1.25031
G1 X19.148 Y10.225 A2.52353
G1 X21.654 Y8.729 A3.79678
G1 X24.250 Y7.516 A5.04716
G1 X26.584 Y6.681 A6.12841
G1 X29.405 Y5.962 A7.39883
G1 X32.247 Y5.537 A8.65217
G1 X35.142 Y5.399 A9.91697
G1 X38.018 Y5.553 A11.17322
G1 X40.469 Y5.917 A12.25460
G1 X43.247 Y6.598 A13.50225
G1 X45.998 Y7.575 A14.77579
G1 X48.634 Y8.828 A16.04934
G1 X51.081 Y10.309 A17.29713
G1 X53.072 Y11.785 A18.37856
G1 X55.206 Y13.700 A19.62928
G1 X57.167 Y15.853 A20.90005
G1 X58.869 Y18.152 A22.14796
G1 X60.153 Y20.273 A23.22948
G1 X61.402 Y22.853 A24.48027
G1 X62.401 Y25.589 A25.75111
G1 X63.107 Y28.368 A27.00192
G1 X63.490 Y30.817 A28.08348
G1 X63.668 Y33.725 A29.35428
G1 X63.554 Y36.590 A30.60511
G1 X63.155 Y39.422 A31.85304
G1 X62.583 Y41.827 A32.93173
G1 X61.661 Y44.549 A34.18543
G1 X60.456 Y47.194 A35.45336
G1 X59.006 Y49.675 A36.70700
G1 X57.291 Y52.028 A37.97778
G1 X55.644 Y53.890 A39.06221
G1 X53.388 Y55.989 A40.40634
G1 X51.242 Y57.615 A41.58099
G1 X48.947 Y59.035 A42.75851
G1 X46.213 Y60.368 A44.08543
G1 X43.638 Y61.316 A45.28293
G1 X40.692 Y62.073 A46.60972
G1 X38.419 Y62.435 A47.61401
G1 X35.336 Y62.633 A48.96187
G1 X32.298 Y62.502 A50.28861
G1 X29.634 Y62.117 A51.46278
G1 X27.018 Y61.484 A52.63723
G1 X24.149 Y60.476 A53.96384
G1 X21.711 Y59.335 A55.13824
G1 X19.391 Y57.969 A56.31260
G1 X16.938 Y56.172 A57.63918
G1 X14.937 Y54.373 A58.81350
G1 X13.113 Y52.393 A59.98781
G1 X11.288 Y49.961 A61.31430
G1 X9.895 Y47.658 A62.48856
G1 X8.725 Y45.235 A63.66279
G1 X7.683 Y42.378 A64.98923
G1 X7.017 Y39.764 A66.16632
G1 X6.601 Y37.104 A67.34083
G1 X6.436 Y34.043 A68.67821
G1 X6.577 Y31.162 A69.93688
G1 X6.931 Y28.709 A71.01795
G1 X7.601 Y25.930 A72.26527
G1 X8.569 Y23.170 A73.54124
G1 X9.809 Y20.535 A74.81152
G1 X11.284 Y18.078 A76.06175
G1 X12.752 Y16.082 A77.14289
G1 X14.295 Y14.352 A78.15425
G1 A76.15425 F2400.00000
G1 X24.043 Y22.738 F7800.000
G1 A78.15425 F2400.00000
G1 F1800
G1 X24.777 Y22.064 A78.58904
G1 X25.228 Y21.691 A78.84448
G1 X26.051 Y21.078 A79.29209
G1 X26.537 Y20.753 A79.54753
G1 X27.418 Y20.227 A79.99516
G1 X27.962 Y19.939 A80.26351
G1 X28.543 Y19.661 A80.54477
G1 X29.135 Y19.407 A80.82573
G1 X29.716 Y19.185 A81.09705
G1 X30.686 Y18.872 A81.54157
G1 X31.259 Y18.718 A81.80039
G1 X32.226 Y18.511 A82.23210
G1 X33.212 Y18.363 A82.66700
G1 X33.824 Y18.302 A82.93538
G1 X34.467 Y18.265 A83.21626
G1 X35.091 Y18.255 A83.48852
G1 X36.108 Y18.290 A83.93255
G1 X36.720 Y18.343 A84.20068
G1 X37.340 Y18.422 A84.47332
G1 X38.341 Y18.602 A84.91701
G1 X38.941 Y18.742 A85.18561
G1 X39.561 Y18.913 A85.46642
G1 X40.157 Y19.105 A85.73956
G1 X41.080 Y19.454 A86.16990
G1 X41.989 Y19.863 A86.60493
G1 X42.536 Y20.144 A86.87335
G1 X43.072 Y20.448 A87.14177
G1 X43.938 Y20.998 A87.58951
G1 X44.439 Y21.354 A87.85793
G1 X44.949 Y21.749 A88.13926
G1 X45.420 Y22.145 A88.40768
G1 X46.149 Y22.825 A88.84253
G1 X46.835 Y23.548 A89.27737
G1 X47.235 Y24.015 A89.54580
G1 X47.633 Y24.521 A89.82652
G1 X48.002 Y25.031 A90.10101
G1 X48.552 Y25.881 A90.54306
G1 X48.845 Y26.389 A90.79888
G1 X49.313 Y27.303 A91.24666
G1 X49.564 Y27.865 A91.51511
G1 X49.803 Y28.462 A91.79580
G1 X50.013 Y29.056 A92.07062
G1 X50.301 Y30.027 A92.51238
G1 X50.439 Y30.597 A92.76822
G1 X50.628 Y31.605 A93.21600
G1 X50.707 Y32.186 A93.47154
G1 X50.793 Y33.209 A93.91933
G1 X50.813 Y33.824 A94.18778
G1 X50.808 Y34.439 A94.45623
G1 X50.749 Y35.434 A94.89110
G1 X50.629 Y36.423 A95.32598
G1 X50.524 Y37.030 A95.59442
G1 X50.388 Y37.658 A95.87511
G1 X50.230 Y38.268 A96.14999
G1 X49.926 Y39.234 A96.59170
G1 X49.711 Y39.811 A96.86045
G1 X49.473 Y40.379 A97.12890
G1 X49.029 Y41.304 A97.57667
G1 X48.735 Y41.843 A97.84448
G1 X48.411 Y42.382 A98.11904
G1 X47.846 Y43.223 A98.56103
G1 X47.478 Y43.715 A98.82915
G1 X47.081 Y44.203 A99.10347
G1 X46.399 Y44.957 A99.54696
G1 X46.006 Y45.351 A99.78999
G1 X45.325 Y45.972 A100.19170
G1 X44.920 Y46.309 A100.42167
G1 X44.204 Y46.849 A100.81304
G1 X43.482 Y47.335 A101.19279
G1 X42.734 Y47.780 A101.57254
G1 X41.939 Y48.195 A101.96389
G1 X41.461 Y48.418 A102.19385
G1 X40.607 Y48.768 A102.59639
G1 X40.102 Y48.949 A102.83058
G1 X39.253 Y49.209 A103.21792
G1 X38.407 Y49.417 A103.59785
G1 X37.526 Y49.584 A103.98918
G1 X36.978 Y49.662 A104.23073
G1 X35.822 Y49.761 A104.73700
G1 X35.242 Y49.779 A104.99015
G1 X34.082 Y49.750 A105.49642
G1 X33.503 Y49.704 A105.74957
G1 X32.354 Y49.547 A106.25550
G1 X31.804 Y49.441 A106.50003
G1 X30.938 Y49.232 A106.88851
G1 X30.104 Y48.982 A107.26831
G1 X29.286 Y48.686 A107.64798
G1 X28.485 Y48.346 A108.02765
G1 X27.704 Y47.961 A108.40730
G1 X26.923 Y47.521 A108.79857
G1 X26.453 Y47.228 A109.04009
G1 X25.995 Y46.918 A109.28161
G1 X25.276 Y46.381 A109.67286
G1 X24.609 Y45.823 A110.05250
G1 X23.973 Y45.228 A110.43214
G1 X23.372 Y44.600 A110.81177
G1 X22.805 Y43.939 A111.19140
G1 X22.260 Y43.227 A111.58263
G1 X21.960 Y42.794 A111.81253
G1 X21.482 Y42.035 A112.20376
G1 X21.048 Y41.251 A112.59485
G1 X20.812 Y40.776 A112.82605
G1 X20.453 Y39.958 A113.21605
G1 X20.147 Y39.143 A113.59572
G1 X19.879 Y38.288 A113.98694
G1 X19.745 Y37.778 A114.21682
G1 X19.551 Y36.875 A114.61966
G1 X19.385 Y35.754 A115.11418
G1 X19.332 Y35.176 A115.36729
G1 X19.290 Y34.023 A115.87061
G1 X19.303 Y33.368 A116.15655
G1 X19.342 Y32.729 A116.43584
G1 X19.405 Y32.117 A116.70415
G1 X19.557 Y31.133 A117.13882
G1 X19.769 Y30.159 A117.57348
G1 X19.931 Y29.566 A117.84180
G1 X20.116 Y28.980 A118.11013
G1 X20.465 Y28.046 A118.54480
G1 X20.871 Y27.136 A118.97947
G1 X21.150 Y26.588 A119.24779
G1 X21.451 Y26.052 A119.51612
G1 X21.982 Y25.209 A119.95080
G1 X22.564 Y24.400 A120.38548
G1 X22.948 Y23.920 A120.65362
G1 X23.626 Y23.170 A121.09485
G1 A119.09485 F2400.00000
G1 X22.546 Y21.205 F7800.000
G1 A121.09485 F2400.00000
G1 F1800
G1 X23.369 Y20.450 A121.58216
G1 X23.904 Y20.006 A121.88538
G1 X24.815 Y19.328 A122.38077
G1 X25.393 Y18.942 A122.68399
G1 X26.368 Y18.360 A123.17940
G1 X26.998 Y18.026 A123.49075
G1 X27.659 Y17.710 A123.81023
G1 X28.332 Y17.421 A124.12952
G1 X29.005 Y17.165 A124.44390
G1 X30.078 Y16.817 A124.93621
G1 X30.757 Y16.635 A125.24282
G1 X31.842 Y16.403 A125.72697
G1 X32.947 Y16.237 A126.21438
G1 X33.657 Y16.167 A126.52576
G1 X34.388 Y16.125 A126.84502
G1 X35.111 Y16.113 A127.16035
G1 X36.237 Y16.152 A127.65202
G1 X36.948 Y16.213 A127.96325
G1 X37.666 Y16.305 A128.27898
G1 X38.774 Y16.504 A128.77029
G1 X39.469 Y16.666 A129.08182
G1 X40.175 Y16.861 A129.40104
G1 X40.865 Y17.083 A129.71727
G1 X41.899 Y17.474 A130.20000
G1 X42.918 Y17.933 A130.68753
G1 X43.553 Y18.259 A130.99895
G1 X44.175 Y18.611 A131.31038
G1 X45.133 Y19.220 A131.80591
G1 X45.715 Y19.634 A132.11734
G1 X46.294 Y20.082 A132.43690
G1 X46.841 Y20.541 A132.74834
G1 X47.658 Y21.303 A133.23576
G1 X48.427 Y22.114 A133.72318
G1 X48.891 Y22.656 A134.03462
G1 X49.343 Y23.231 A134.35381
G1 X49.770 Y23.821 A134.67142
G1 X50.380 Y24.763 A135.16104
G1 X50.727 Y25.366 A135.46454
G1 X51.244 Y26.377 A135.96011
G1 X51.536 Y27.029 A136.27158
G1 X51.808 Y27.708 A136.59075
G1 X52.051 Y28.395 A136.90870
G1 X52.369 Y29.470 A137.39801
G1 X52.533 Y30.147 A137.70153
G1 X52.743 Y31.263 A138.19711
G1 X52.837 Y31.952 A138.50045
G1 X52.932 Y33.084 A138.99604
G1 X52.955 Y33.797 A139.30750
G1 X52.949 Y34.511 A139.61896
G1 X52.883 Y35.626 A140.10642
G1 X52.749 Y36.736 A140.59387
G1 X52.627 Y37.439 A140.90533
G1 X52.472 Y38.154 A141.22451
G1 X52.289 Y38.860 A141.54251
G1 X51.952 Y39.929 A142.03177
G1 X51.703 Y40.599 A142.34343
G1 X51.427 Y41.257 A142.65489
G1 X50.935 Y42.281 A143.15046
G1 X50.594 Y42.907 A143.46151
G1 X50.219 Y43.531 A143.77919
G1 X49.593 Y44.463 A144.26875
G1 X49.166 Y45.034 A144.58000
G1 X48.706 Y45.598 A144.89744
G1 X47.953 Y46.432 A145.38802
G1 X47.486 Y46.900 A145.67635
G1 X46.732 Y47.588 A146.12154
G1 X46.250 Y47.987 A146.39453
G1 X45.448 Y48.594 A146.83321
G1 X44.628 Y49.145 A147.26458
G1 X43.778 Y49.651 A147.69594
G1 X42.887 Y50.116 A148.13461
G1 X42.319 Y50.380 A148.40758
G1 X41.374 Y50.768 A148.85329
G1 X40.776 Y50.982 A149.13056
G1 X39.823 Y51.274 A149.56505
G1 X38.863 Y51.511 A149.99652
G1 X37.875 Y51.698 A150.43516
G1 X37.239 Y51.788 A150.71541
G1 X35.926 Y51.901 A151.29048
G1 X35.267 Y51.921 A151.57804
G1 X33.950 Y51.888 A152.15309
G1 X33.293 Y51.835 A152.44065
G1 X31.987 Y51.658 A153.01548
G1 X31.350 Y51.535 A153.29876
G1 X30.379 Y51.300 A153.73443
G1 X29.432 Y51.016 A154.16579
G1 X28.502 Y50.680 A154.59707
G1 X27.593 Y50.293 A155.02834
G1 X26.706 Y49.857 A155.45960
G1 X25.830 Y49.364 A155.89817
G1 X25.285 Y49.023 A156.17839
G1 X24.753 Y48.663 A156.45860
G1 X23.948 Y48.062 A156.89716
G1 X23.190 Y47.427 A157.32840
G1 X22.468 Y46.752 A157.75964
G1 X21.784 Y46.038 A158.19087
G1 X21.141 Y45.288 A158.62210
G1 X20.530 Y44.490 A159.06063
G1 X20.173 Y43.976 A159.33352
G1 X19.638 Y43.125 A159.77206
G1 X19.151 Y42.246 A160.21050
G1 X18.872 Y41.683 A160.48472
G1 X18.468 Y40.766 A160.92196
G1 X18.121 Y39.840 A161.35321
G1 X17.821 Y38.881 A161.79172
G1 X17.661 Y38.276 A162.06460
G1 X17.447 Y37.277 A162.51044
G1 X17.256 Y35.990 A163.07803
G1 X17.196 Y35.334 A163.36553
G1 X17.159 Y34.679 A163.65168
G1 X17.148 Y34.021 A163.93877
G1 X17.162 Y33.282 A164.26117
G1 X17.207 Y32.554 A164.57939
G1 X17.280 Y31.844 A164.89070
G1 X17.451 Y30.741 A165.37792
G1 X17.688 Y29.650 A165.86514
G1 X17.876 Y28.961 A166.17646
G1 X18.091 Y28.281 A166.48778
G1 X18.483 Y27.235 A166.97500
G1 X18.937 Y26.215 A167.46223
G1 X19.260 Y25.579 A167.77355
G1 X19.610 Y24.956 A168.08487
G1 X20.205 Y24.011 A168.57211
G1 X20.857 Y23.105 A169.05935
G1 X21.303 Y22.548 A169.37056
G1 X21.774 Y22.006 A169.68381
G1 X22.130 Y21.637 A169.90744
G1 A167.90744 F2400.00000
G1 X21.050 Y19.672 F7800.000
G1 A169.90744 F2400.00000
G1 F1800
G1 X21.961 Y18.835 A170.44728
G1 X22.581 Y18.322 A170.79827
G1 X23.579 Y17.578 A171.34144
G1 X24.248 Y17.131 A171.69244
G1 X25.317 Y16.493 A172.23563
G1 X26.035 Y16.113 A172.58998
G1 X26.774 Y15.759 A172.94768
G1 X27.528 Y15.436 A173.30531
G1 X28.293 Y15.144 A173.66275
G1 X29.471 Y14.763 A174.20284
G1 X30.256 Y14.553 A174.55724
G1 X31.459 Y14.295 A175.09383
G1 X32.682 Y14.111 A175.63375
G1 X33.491 Y14.031 A175.98814
G1 X34.309 Y13.984 A176.34577
G1 X35.130 Y13.971 A176.70417
G1 X36.366 Y14.013 A177.24347
G1 X37.175 Y14.083 A177.59781
G1 X37.991 Y14.187 A177.95662
G1 X39.207 Y14.406 A178.49555
G1 X39.998 Y14.590 A178.85002
G1 X40.788 Y14.808 A179.20765
G1 X41.572 Y15.060 A179.56697
G1 X42.719 Y15.495 A180.10209
G1 X43.848 Y16.003 A180.64211
G1 X44.570 Y16.374 A180.99654
G1 X45.277 Y16.774 A181.35097
G1 X46.328 Y17.443 A181.89430
G1 X46.991 Y17.913 A182.24874
G1 X47.639 Y18.415 A182.60654
G1 X48.261 Y18.938 A182.96099
G1 X49.166 Y19.782 A183.50098
G1 X50.018 Y20.680 A184.04098
G1 X50.546 Y21.297 A184.39544
G1 X51.053 Y21.941 A184.75308
G1 X51.538 Y22.611 A185.11381
G1 X52.207 Y23.645 A185.65100
G1 X52.609 Y24.342 A186.00219
G1 X53.176 Y25.451 A186.54556
G1 X53.509 Y26.192 A186.90003
G1 X53.813 Y26.954 A187.25768
G1 X54.088 Y27.734 A187.61877
G1 X54.438 Y28.914 A188.15563
G1 X54.627 Y29.696 A188.50683
G1 X54.858 Y30.920 A189.05022
G1 X54.966 Y31.718 A189.40135
G1 X55.071 Y32.959 A189.94473
G1 X55.097 Y33.771 A190.29921
G1 X55.091 Y34.583 A190.65369
G1 X55.017 Y35.819 A191.19372
G1 X54.868 Y37.048 A191.73376
G1 X54.729 Y37.848 A192.08823
G1 X54.556 Y38.650 A192.44589
G1 X54.348 Y39.451 A192.80702
G1 X53.978 Y40.624 A193.34384
G1 X53.695 Y41.386 A193.69839
G1 X53.381 Y42.135 A194.05286
G1 X52.842 Y43.258 A194.59623
G1 X52.453 Y43.971 A194.95054
G1 X52.027 Y44.680 A195.31134
G1 X51.341 Y45.702 A195.84846
G1 X50.854 Y46.352 A196.20283
G1 X50.332 Y46.993 A196.56339
G1 X49.506 Y47.908 A197.10106
G1 X48.966 Y48.449 A197.43469
G1 X48.138 Y49.203 A197.92338
G1 X47.581 Y49.666 A198.23938
G1 X46.692 Y50.338 A198.72538
G1 X45.773 Y50.956 A199.20836
G1 X44.822 Y51.522 A199.69134
G1 X43.835 Y52.037 A200.17732
G1 X43.178 Y52.343 A200.49330
G1 X42.141 Y52.768 A200.98218
G1 X41.450 Y53.015 A201.30254
G1 X40.394 Y53.339 A201.78417
G1 X39.319 Y53.604 A202.26717
G1 X38.225 Y53.811 A202.75313
G1 X37.501 Y53.914 A203.07209
G1 X36.767 Y53.990 A203.39408
G1 X36.031 Y54.040 A203.71605
G1 X35.293 Y54.062 A204.03803
G1 X34.555 Y54.058 A204.36000
G1 X33.818 Y54.026 A204.68197
G1 X33.082 Y53.967 A205.00394
G1 X32.349 Y53.881 A205.32590
G1 X31.620 Y53.768 A205.64778
G1 X30.895 Y53.628 A205.96981
G1 X29.820 Y53.369 A206.45267
G1 X28.759 Y53.050 A206.93559
G1 X27.718 Y52.674 A207.41847
G1 X26.700 Y52.241 A207.90134
G1 X25.707 Y51.752 A208.38421
G1 X24.736 Y51.206 A208.87008
G1 X24.117 Y50.819 A209.18900
G1 X23.511 Y50.409 A209.50792
G1 X22.619 Y49.742 A209.99377
G1 X21.770 Y49.032 A210.47662
G1 X20.962 Y48.276 A210.95946
G1 X20.196 Y47.477 A211.44229
G1 X19.476 Y46.637 A211.92512
G1 X18.799 Y45.752 A212.41095
G1 X18.386 Y45.158 A212.72684
G1 X17.793 Y44.215 A213.21267
G1 X17.254 Y43.241 A213.69846
G1 X16.931 Y42.590 A214.01570
G1 X16.484 Y41.573 A214.50018
G1 X16.095 Y40.537 A214.98301
G1 X15.762 Y39.474 A215.46882
G1 X15.578 Y38.774 A215.78470
G1 X15.343 Y37.679 A216.27353
G1 X15.222 Y36.958 A216.59241
G1 X15.127 Y36.226 A216.91430
G1 X15.059 Y35.491 A217.23620
G1 X15.019 Y34.756 A217.55753
G1 X15.006 Y34.019 A217.87925
G1 X15.022 Y33.196 A218.23812
G1 X15.072 Y32.379 A218.59528
G1 X15.155 Y31.571 A218.94958
G1 X15.344 Y30.349 A219.48936
G1 X15.608 Y29.140 A220.02913
G1 X15.821 Y28.356 A220.38344
G1 X16.066 Y27.582 A220.73776
G1 X16.500 Y26.423 A221.27754
G1 X17.003 Y25.293 A221.81732
G1 X17.371 Y24.569 A222.17164
G1 X17.769 Y23.861 A222.52596
G1 X18.428 Y22.814 A223.06575
G1 X19.151 Y21.810 A223.60555
G1 X19.658 Y21.176 A223.95982
G1 X20.194 Y20.559 A224.31611
G1 X20.633 Y20.104 A224.59222
G1 X22.240 Y20.010 F7800.000
G1 A222.59222 F2400.00000
G1 X21.277 Y40.237 F7800.000
G1 A224.59222 F2400.00000
G1 F1800
G1 X28.838 Y47.797 A229.33010
G1 A227.33010 F2400.00000
G1 X33.119 Y49.003 F7800.000
G1 A229.33010 F2400.00000
G1 F1800
G1 X21.249 Y37.133 A236.76868
G1 X21.132 Y36.589 A237.01511
G1 X20.983 Y35.577 A237.46825
G1 X20.905 Y34.529 A237.93379
G1 X20.903 Y33.710 A238.29674
G1 X35.361 Y48.168 A247.35672
G1 X35.728 Y48.157 A247.51974
G1 X36.796 Y48.065 A247.99461
G1 X37.264 Y47.999 A248.20390
G1 X38.106 Y47.837 A248.58384
G1 X21.237 Y30.968 A259.15480
G1 X21.472 Y30.020 A259.58789
G1 X21.635 Y29.504 A259.82766
G1 X21.967 Y28.623 A260.24485
G1 X40.444 Y47.099 A271.82301
G1 X41.228 Y46.755 A272.20245
G1 X41.951 Y46.377 A272.56388
G1 X42.482 Y46.061 A272.83770
G1 X23.010 Y26.590 A285.03941
G1 X23.314 Y26.107 A285.29225
G1 X23.843 Y25.371 A285.69370
G1 X24.304 Y24.808 A286.01632
G1 X44.263 Y44.766 A298.52318
G1 X44.896 Y44.190 A298.90245
G1 X45.234 Y43.851 A299.11478
G1 X45.799 Y43.226 A299.48787
G1 X25.841 Y23.268 A311.99413
G1 X26.220 Y22.954 A312.21234
G1 X26.977 Y22.390 A312.63056
G1 X27.623 Y21.975 A312.97102
G1 X47.098 Y41.449 A325.17447
G1 X47.599 Y40.571 A325.62241
G1 X48.008 Y39.720 A326.04078
G1 X48.137 Y39.412 A326.18874
G1 X29.656 Y20.931 A337.76965
G1 X30.250 Y20.701 A338.05197
G1 X31.141 Y20.413 A338.46703
G1 X32.002 Y20.202 A338.85988
G1 X48.872 Y37.071 A349.43108
G1 X49.040 Y36.189 A349.82891
G1 X49.149 Y35.289 A350.23053
G1 X49.203 Y34.326 A350.65793
G1 X34.744 Y19.867 A359.71876
G1 X36.012 Y19.894 A360.28060
G1 X36.550 Y19.940 A360.52009
G1 X37.096 Y20.010 A360.76419
G1 X38.162 Y20.209 A361.24459
G1 X50.046 Y32.094 A368.69181
G1 A366.69181 F2400.00000
G1 X48.833 Y27.805 F7800.000
G1 A368.69181 F2400.00000
G1 F1800
G1 X41.276 Y20.247 A373.42781
G1 Z8.000 F7800.000
G1 A371.42781 F2400.00000
G1 X19.530 Y18.113 F7800.000
G1 A373.42781 F2400.00000
G1 F300
G1 X19.868 Y17.784 A373.49916
