; generated by PrusaSlicer 2.0.0+win64 on 2019-06-05 at 06:55:24

; 

; external perimeters extrusion width = 1.13mm
; perimeters extrusion width = 1.13mm
; infill extrusion width = 1.13mm
; solid infill extrusion width = 1.13mm
; top infill extrusion width = 1.00mm
; first layer extrusion width = 1.05mm

M107
g92 z0
g1 f1000 z-310
g92 x0 y0 a0 z0
g1 f1000 z2 x2 
g1 f100 y50
g1 f1000 xo z0 y0
; Filament gcode
G21 ; set units to millimeters
G90 ; use absolute coordinates
G1 Z4.000 F7800.000
G1 A-2.00000 F2400.00000
G1 X23.431 Y17.524 F7800.000
G1 A0.00000 F2400.00000
G1 F1800
G1 X24.681 Y15.853 A0.66493
G1 X26.283 Y14.085 A1.42512
G1 X28.326 Y12.216 A2.30726
G1 X30.587 Y10.532 A3.20578
G1 X33.009 Y9.086 A4.10431
G1 X35.526 Y7.912 A4.98925
G1 X37.767 Y7.110 A5.74748
G1 X40.497 Y6.415 A6.64513
G1 X43.244 Y6.004 A7.53007
G1 X46.042 Y5.872 A8.42276
G1 X48.828 Y6.022 A9.31157
G1 X51.182 Y6.372 A10.06979
G1 X53.870 Y7.031 A10.95190
G1 X56.527 Y7.976 A11.85042
G1 X59.074 Y9.187 A12.74893
G1 X61.444 Y10.623 A13.63190
G1 X63.354 Y12.039 A14.38926
G1 X65.421 Y13.893 A15.27417
G1 X67.315 Y15.974 A16.17072
G1 X68.964 Y18.202 A17.05368
G1 X70.195 Y20.235 A17.81106
G1 X71.405 Y22.735 A18.69594
G1 X72.370 Y25.378 A19.59251
G1 X73.053 Y28.070 A20.47739
G1 X73.421 Y30.421 A21.23560
G1 X73.593 Y33.233 A22.13322
G1 X73.483 Y36.002 A23.01619
G1 X73.096 Y38.746 A23.89916
G1 X72.549 Y41.053 A24.65456
G1 X71.656 Y43.690 A25.54140
G1 X70.492 Y46.245 A26.43601
G1 X69.092 Y48.643 A27.32090
G1 X67.430 Y50.922 A28.21942
G1 X65.850 Y52.709 A28.97957
G1 X63.964 Y54.490 A29.80602
G1 X61.595 Y56.312 A30.75824
G1 X59.386 Y57.680 A31.58619
G1 X56.731 Y58.976 A32.52757
G1 X54.253 Y59.889 A33.36908
G1 X51.397 Y60.624 A34.30849
G1 X49.221 Y60.971 A35.01055
G1 X46.235 Y61.164 A35.96395
G1 X43.290 Y61.038 A36.90338
G1 X40.723 Y60.668 A37.72976
G1 X38.203 Y60.059 A38.55577
G1 X35.415 Y59.081 A39.49713
G1 X33.067 Y57.982 A40.32316
G1 X30.832 Y56.668 A41.14916
G1 X28.448 Y54.922 A42.09057
G1 X26.516 Y53.185 A42.91854
G1 X24.763 Y51.283 A43.74262
G1 X22.988 Y48.921 A44.68401
G1 X21.646 Y46.702 A45.51003
G1 X20.515 Y44.360 A46.33876
G1 X19.506 Y41.592 A47.27744
G1 X18.865 Y39.074 A48.10541
G1 X18.464 Y36.514 A48.93106
G1 X18.302 Y33.541 A49.87984
G1 X18.440 Y30.752 A50.76936
G1 X18.780 Y28.397 A51.52760
G1 X19.428 Y25.705 A52.40974
G1 X20.364 Y23.039 A53.31022
G1 X21.562 Y20.492 A54.20682
G1 X22.992 Y18.112 A55.09176
G1 X23.072 Y18.005 A55.13419
G1 A53.13419 F2400.00000
G1 X36.292 Y15.274 F7800.000
G1 A55.13419 F2400.00000
G1 F1800
G1 X37.042 Y14.896 A55.40174
G1 X38.205 Y14.383 A55.80674
G1 X39.397 Y13.943 A56.21173
G1 X40.195 Y13.694 A56.47780
G1 X41.430 Y13.376 A56.88428
G1 X42.248 Y13.210 A57.15035
G1 X43.510 Y13.020 A57.55682
G1 X44.346 Y12.938 A57.82437
G1 X45.188 Y12.890 A58.09333
G1 X46.043 Y12.876 A58.36549
G1 X47.303 Y12.921 A58.76739
G1 X48.140 Y12.993 A59.03498
G1 X48.973 Y13.099 A59.30253
G1 X50.228 Y13.325 A59.70900
G1 X51.046 Y13.515 A59.97655
G1 X51.860 Y13.741 A60.24551
G1 X52.673 Y14.002 A60.51759
G1 X53.852 Y14.449 A60.91956
G1 X54.621 Y14.786 A61.18714
G1 X55.380 Y15.157 A61.45617
G1 X56.119 Y15.556 A61.72372
G1 X57.205 Y16.216 A62.12870
G1 X58.249 Y16.941 A62.53368
G1 X58.909 Y17.452 A62.79975
G1 X59.877 Y18.284 A63.20621
G1 X60.485 Y18.863 A63.47376
G1 X61.069 Y19.466 A63.74131
G1 X61.905 Y20.424 A64.14629
G1 X62.681 Y21.430 A64.55127
G1 X63.156 Y22.117 A64.81733
G1 X63.828 Y23.202 A65.22379
G1 X64.233 Y23.937 A65.49134
G1 X64.609 Y24.693 A65.76037
G1 X64.954 Y25.463 A66.02932
G1 X65.271 Y26.256 A66.30126
G1 X65.679 Y27.450 A66.70329
G1 X65.911 Y28.267 A66.97378
G1 X66.195 Y29.496 A67.37589
G1 X66.342 Y30.323 A67.64339
G1 X66.457 Y31.169 A67.91532
G1 X66.562 Y32.426 A68.31743
G1 X66.589 Y33.266 A68.58501
G1 X66.583 Y34.110 A68.85404
G1 X66.541 Y34.949 A69.12158
G1 X66.414 Y36.218 A69.52804
G1 X66.288 Y37.043 A69.79411
G1 X66.031 Y38.293 A70.20056
G1 X65.821 Y39.106 A70.46811
G1 X65.577 Y39.909 A70.73565
G1 X65.146 Y41.105 A71.14063
G1 X64.643 Y42.272 A71.54561
G1 X64.272 Y43.026 A71.81316
G1 X63.870 Y43.763 A72.08070
G1 X63.203 Y44.850 A72.48716
G1 X62.728 Y45.543 A72.75471
G1 X62.225 Y46.215 A73.02225
G1 X61.409 Y47.196 A73.42872
G1 X60.840 Y47.814 A73.69641
G1 X60.277 Y48.379 A73.95066
G1 X59.429 Y49.152 A74.31634
G1 X58.851 Y49.633 A74.55580
G1 X57.938 Y50.323 A74.92030
G1 X56.992 Y50.959 A75.28346
G1 X56.013 Y51.542 A75.64663
G1 X54.999 Y52.072 A76.01112
G1 X54.314 Y52.391 A76.25192
G1 X53.617 Y52.684 A76.49272
G1 X52.544 Y53.080 A76.85722
G1 X51.454 Y53.414 A77.22039
G1 X50.348 Y53.687 A77.58355
G1 X49.224 Y53.900 A77.94805
G1 X48.475 Y54.007 A78.18885
G1 X47.720 Y54.086 A78.43098
G1 X46.961 Y54.137 A78.67312
G1 X46.202 Y54.160 A78.91525
G1 X45.442 Y54.156 A79.15738
G1 X44.683 Y54.123 A79.39952
G1 X43.925 Y54.063 A79.64158
G1 X43.162 Y53.973 A79.88656
G1 X42.046 Y53.790 A80.24692
G1 X40.929 Y53.542 A80.61139
G1 X40.191 Y53.343 A80.85506
G1 X39.114 Y52.998 A81.21540
G1 X38.045 Y52.589 A81.57987
G1 X37.344 Y52.283 A81.82357
G1 X36.329 Y51.784 A82.18388
G1 X35.332 Y51.223 A82.54835
G1 X34.684 Y50.818 A82.79208
G1 X33.753 Y50.175 A83.15237
G1 X32.853 Y49.476 A83.51557
G1 X31.989 Y48.726 A83.88008
G1 X31.444 Y48.208 A84.11956
G1 X30.653 Y47.382 A84.48406
G1 X29.911 Y46.517 A84.84724
G1 X29.215 Y45.608 A85.21175
G1 X28.786 Y44.991 A85.45123
G1 X28.177 Y44.023 A85.81574
G1 X27.623 Y43.023 A86.18018
G1 X27.283 Y42.337 A86.42398
G1 X26.828 Y41.302 A86.78420
G1 X26.428 Y40.234 A87.14741
G1 X26.086 Y39.143 A87.51185
G1 X25.891 Y38.403 A87.75567
G1 X25.653 Y37.293 A88.11721
G1 X25.528 Y36.548 A88.35804
G1 X25.431 Y35.794 A88.60018
G1 X25.361 Y35.038 A88.84232
G1 X25.319 Y34.279 A89.08428
G1 X25.306 Y33.520 A89.32628
G1 X25.322 Y32.674 A89.59579
G1 X25.374 Y31.837 A89.86319
G1 X25.517 Y30.569 A90.26967
G1 X25.653 Y29.745 A90.53575
G1 X25.925 Y28.498 A90.94223
G1 X26.146 Y27.688 A91.20979
G1 X26.399 Y26.888 A91.47734
G1 X26.844 Y25.697 A91.88234
G1 X27.362 Y24.536 A92.28734
G1 X27.742 Y23.788 A92.55483
G1 X28.161 Y23.043 A92.82718
G1 X28.831 Y21.980 A93.22742
G1 X29.574 Y20.948 A93.63245
G1 X30.099 Y20.293 A93.90001
G1 X30.650 Y19.659 A94.16757
G1 X31.535 Y18.741 A94.57397
G1 X32.156 Y18.160 A94.84480
G1 X33.119 Y17.347 A95.24656
G1 X33.787 Y16.838 A95.51415
G1 X34.476 Y16.357 A95.78171
G1 X35.767 Y15.565 A96.26448
G1 X36.199 Y15.106 F7800.000
G1 F1800
G1 X36.960 Y14.723 A96.53610
G1 X38.133 Y14.206 A96.94452
G1 X39.336 Y13.761 A97.35295
G1 X40.142 Y13.510 A97.62215
G1 X41.387 Y13.190 A98.03174
G1 X42.215 Y13.021 A98.30094
G1 X43.486 Y12.830 A98.71053
G1 X44.331 Y12.747 A98.98089
G1 X45.181 Y12.698 A99.25237
G1 X46.044 Y12.685 A99.52734
G1 X47.315 Y12.729 A99.93235
G1 X48.160 Y12.802 A100.20274
G1 X49.002 Y12.909 A100.47310
G1 X50.267 Y13.137 A100.88269
G1 X51.094 Y13.330 A101.15305
G1 X51.915 Y13.557 A101.42452
G1 X52.736 Y13.821 A101.69942
G1 X53.925 Y14.272 A102.10450
G1 X54.702 Y14.613 A102.37488
G1 X55.468 Y14.986 A102.64641
G1 X56.215 Y15.389 A102.91677
G1 X57.310 Y16.055 A103.32518
G1 X58.362 Y16.787 A103.73360
G1 X59.031 Y17.304 A104.00279
G1 X60.006 Y18.142 A104.41237
G1 X60.620 Y18.727 A104.68273
G1 X61.210 Y19.336 A104.95309
G1 X62.053 Y20.302 A105.36150
G1 X62.836 Y21.317 A105.76992
G1 X63.317 Y22.012 A106.03911
G1 X63.993 Y23.105 A106.44869
G1 X64.402 Y23.848 A106.71904
G1 X64.782 Y24.611 A106.99057
G1 X65.131 Y25.389 A107.26204
G1 X65.451 Y26.190 A107.53679
G1 X65.862 Y27.393 A107.94195
G1 X66.097 Y28.219 A108.21555
G1 X66.383 Y29.458 A108.62077
G1 X66.531 Y30.293 A108.89109
G1 X66.647 Y31.148 A109.16584
G1 X66.753 Y32.415 A109.57106
G1 X66.781 Y33.263 A109.84144
G1 X66.774 Y34.115 A110.11296
G1 X66.732 Y34.963 A110.38331
G1 X66.604 Y36.242 A110.79289
G1 X66.476 Y37.077 A111.06208
G1 X66.218 Y38.336 A111.47166
G1 X66.005 Y39.158 A111.74202
G1 X65.759 Y39.970 A112.01237
G1 X65.324 Y41.176 A112.42078
G1 X64.817 Y42.353 A112.82920
G1 X64.442 Y43.114 A113.09955
G1 X64.036 Y43.859 A113.36991
G1 X63.364 Y44.955 A113.77949
G1 X62.884 Y45.654 A114.04985
G1 X62.375 Y46.334 A114.32020
G1 X61.554 Y47.323 A114.72979
G1 X60.979 Y47.947 A115.00026
G1 X60.409 Y48.518 A115.25716
G1 X59.554 Y49.297 A115.62568
G1 X58.970 Y49.783 A115.86795
G1 X58.049 Y50.479 A116.23554
G1 X57.095 Y51.121 A116.60208
G1 X56.106 Y51.709 A116.96861
G1 X55.084 Y52.244 A117.33620
G1 X54.392 Y52.566 A117.57953
G1 X53.688 Y52.863 A117.82285
G1 X52.605 Y53.261 A118.19044
G1 X51.505 Y53.599 A118.55698
G1 X50.389 Y53.875 A118.92352
G1 X49.255 Y54.089 A119.29111
G1 X48.499 Y54.197 A119.53444
G1 X47.736 Y54.277 A119.77882
G1 X46.971 Y54.328 A120.02320
G1 X46.204 Y54.352 A120.26758
G1 X45.437 Y54.347 A120.51196
G1 X44.671 Y54.314 A120.75634
G1 X43.907 Y54.253 A121.00067
G1 X43.135 Y54.163 A121.24818
G1 X42.009 Y53.978 A121.61162
G1 X40.883 Y53.729 A121.97919
G1 X40.136 Y53.526 A122.22568
G1 X39.050 Y53.178 A122.58909
G1 X37.972 Y52.767 A122.95666
G1 X37.263 Y52.457 A123.20318
G1 X36.240 Y51.954 A123.56657
G1 X35.235 Y51.388 A123.93414
G1 X34.578 Y50.978 A124.18068
G1 X33.640 Y50.330 A124.54404
G1 X32.731 Y49.624 A124.91061
G1 X31.860 Y48.868 A125.27821
G1 X31.309 Y48.344 A125.52050
G1 X30.511 Y47.511 A125.88810
G1 X29.762 Y46.637 A126.25465
G1 X29.061 Y45.721 A126.62225
G1 X28.627 Y45.097 A126.86453
G1 X28.012 Y44.120 A127.23213
G1 X27.453 Y43.112 A127.59968
G1 X27.110 Y42.418 A127.84630
G1 X26.651 Y41.374 A128.20959
G1 X26.247 Y40.297 A128.57617
G1 X25.902 Y39.196 A128.94372
G1 X25.705 Y38.447 A129.19035
G1 X25.465 Y37.329 A129.55468
G1 X25.339 Y36.576 A129.79804
G1 X25.240 Y35.815 A130.04243
G1 X25.170 Y35.052 A130.28682
G1 X25.127 Y34.286 A130.53106
G1 X25.114 Y33.520 A130.77534
G1 X25.131 Y32.666 A131.04724
G1 X25.183 Y31.820 A131.31749
G1 X25.327 Y30.542 A131.72709
G1 X25.465 Y29.709 A131.99629
G1 X25.739 Y28.453 A132.40589
G1 X25.962 Y27.634 A132.67626
G1 X26.218 Y26.825 A132.94663
G1 X26.667 Y25.625 A133.35506
G1 X27.189 Y24.454 A133.76349
G1 X27.573 Y23.697 A134.03380
G1 X27.996 Y22.945 A134.30897
G1 X28.672 Y21.873 A134.71264
G1 X29.421 Y20.832 A135.12109
G1 X29.951 Y20.170 A135.39146
G1 X30.508 Y19.530 A135.66183
G1 X31.400 Y18.604 A136.07137
G1 X32.028 Y18.017 A136.34533
G1 X32.999 Y17.197 A136.75020
G1 X33.674 Y16.683 A137.02059
G1 X34.370 Y16.197 A137.29096
G1 X35.674 Y15.397 A137.77841
G1 X36.106 Y14.939 F7800.000
G1 F1800
G1 X36.878 Y14.549 A138.05408
G1 X38.061 Y14.028 A138.46594
G1 X39.274 Y13.580 A138.87781
G1 X40.090 Y13.325 A139.15012
G1 X41.344 Y13.003 A139.56284
G1 X42.182 Y12.833 A139.83516
G1 X43.463 Y12.640 A140.24787
G1 X44.316 Y12.556 A140.52105
G1 X45.174 Y12.507 A140.79503
G1 X46.046 Y12.493 A141.07282
G1 X47.326 Y12.538 A141.48094
G1 X48.181 Y12.612 A141.75413
G1 X49.031 Y12.720 A142.02730
G1 X50.306 Y12.949 A142.44001
G1 X51.141 Y13.144 A142.71318
G1 X51.970 Y13.373 A142.98716
G1 X52.799 Y13.640 A143.26488
G1 X53.997 Y14.094 A143.67306
G1 X54.783 Y14.439 A143.94625
G1 X55.555 Y14.816 A144.22028
G1 X56.310 Y15.223 A144.49344
G1 X57.414 Y15.895 A144.90530
G1 X58.476 Y16.632 A145.31715
G1 X59.152 Y17.155 A145.58946
G1 X60.134 Y17.999 A146.00217
G1 X60.755 Y18.591 A146.27533
G1 X61.351 Y19.207 A146.54850
G1 X62.202 Y20.180 A146.96035
G1 X62.991 Y21.204 A147.37220
G1 X63.477 Y21.907 A147.64451
G1 X64.159 Y23.008 A148.05721
G1 X64.572 Y23.759 A148.33038
G1 X64.956 Y24.529 A148.60440
G1 X65.307 Y25.314 A148.87838
G1 X65.630 Y26.123 A149.15595
G1 X66.044 Y27.336 A149.56423
G1 X66.283 Y28.171 A149.84096
G1 X66.571 Y29.420 A150.24928
G1 X66.721 Y30.264 A150.52242
G1 X66.838 Y31.127 A150.79998
G1 X66.945 Y32.404 A151.20831
G1 X66.973 Y33.261 A151.48149
G1 X66.966 Y34.121 A151.75551
G1 X66.924 Y34.977 A152.02867
G1 X66.794 Y36.266 A152.44138
G1 X66.665 Y37.111 A152.71369
G1 X66.405 Y38.380 A153.12639
G1 X66.190 Y39.210 A153.39955
G1 X65.941 Y40.030 A153.67272
G1 X65.503 Y41.246 A154.08457
G1 X64.991 Y42.433 A154.49641
G1 X64.612 Y43.202 A154.76958
G1 X64.202 Y43.955 A155.04274
G1 X63.524 Y45.059 A155.45545
G1 X63.039 Y45.766 A155.72861
G1 X62.526 Y46.453 A156.00178
G1 X61.698 Y47.449 A156.41449
G1 X61.117 Y48.079 A156.68774
G1 X60.541 Y48.656 A156.94729
G1 X59.680 Y49.441 A157.31865
G1 X59.089 Y49.933 A157.56373
G1 X58.161 Y50.635 A157.93441
G1 X57.197 Y51.283 A158.30432
G1 X56.200 Y51.877 A158.67423
G1 X55.169 Y52.416 A159.04491
G1 X54.469 Y52.741 A159.29076
G1 X53.758 Y53.041 A159.53662
G1 X52.666 Y53.443 A159.90730
G1 X51.556 Y53.783 A160.27721
G1 X50.429 Y54.062 A160.64712
G1 X49.286 Y54.278 A161.01780
G1 X48.522 Y54.387 A161.26366
G1 X47.753 Y54.468 A161.51029
G1 X46.980 Y54.520 A161.75692
G1 X46.207 Y54.544 A162.00354
G1 X45.433 Y54.539 A162.25017
G1 X44.659 Y54.506 A162.49680
G1 X43.888 Y54.444 A162.74339
G1 X43.108 Y54.352 A162.99343
G1 X41.973 Y54.166 A163.35995
G1 X40.837 Y53.915 A163.73062
G1 X40.082 Y53.710 A163.97992
G1 X38.987 Y53.359 A164.34642
G1 X37.900 Y52.944 A164.71708
G1 X37.183 Y52.631 A164.96641
G1 X36.151 Y52.123 A165.33288
G1 X35.137 Y51.553 A165.70355
G1 X34.473 Y51.138 A165.95291
G1 X33.527 Y50.484 A166.31935
G1 X32.609 Y49.773 A166.68929
G1 X31.731 Y49.010 A167.05998
G1 X31.174 Y48.480 A167.30507
G1 X30.369 Y47.640 A167.67576
G1 X29.613 Y46.758 A168.04568
G1 X28.906 Y45.834 A168.41637
G1 X28.467 Y45.203 A168.66147
G1 X27.847 Y44.218 A169.03216
G1 X27.283 Y43.201 A169.40281
G1 X26.936 Y42.499 A169.65224
G1 X26.473 Y41.446 A170.01862
G1 X26.066 Y40.359 A170.38856
G1 X25.718 Y39.249 A170.75921
G1 X25.518 Y38.492 A171.00866
G1 X25.277 Y37.365 A171.37579
G1 X25.149 Y36.604 A171.62167
G1 X25.050 Y35.837 A171.86831
G1 X24.979 Y35.066 A172.11494
G1 X24.936 Y34.293 A172.36147
G1 X24.923 Y33.519 A172.60803
G1 X24.939 Y32.659 A172.88233
G1 X24.992 Y31.803 A173.15541
G1 X25.137 Y30.516 A173.56814
G1 X25.277 Y29.673 A173.84046
G1 X25.553 Y28.407 A174.25319
G1 X25.778 Y27.580 A174.52636
G1 X26.037 Y26.763 A174.79954
G1 X26.490 Y25.552 A175.21141
G1 X27.016 Y24.371 A175.62328
G1 X27.405 Y23.607 A175.89641
G1 X27.832 Y22.846 A176.17440
G1 X28.513 Y21.766 A176.58148
G1 X29.269 Y20.717 A176.99337
G1 X29.804 Y20.047 A177.26654
G1 X30.367 Y19.400 A177.53972
G1 X31.266 Y18.468 A177.95240
G1 X31.901 Y17.874 A178.22949
G1 X32.879 Y17.047 A178.63746
G1 X33.562 Y16.528 A178.91066
G1 X34.265 Y16.037 A179.18383
G1 X35.581 Y15.230 A179.67597
G1 X36.843 Y15.391 F7800.000
G1 A177.67597 F2400.00000
G1 X55.181 Y15.124 F7800.000
G1 A179.67597 F2400.00000
G1 F1800
G1 X64.341 Y24.283 A183.82223
G1 X64.601 Y24.816 F7800.000
G1 F1800
G1 X54.837 Y15.051 A188.24226
G1 X54.328 Y14.815 A188.42199
G1 X64.651 Y25.138 A193.09504
G1 X64.863 Y25.622 A193.26422
G1 X53.843 Y14.602 A198.25263
G1 X53.400 Y14.432 A198.40445
G1 X65.044 Y26.075 A203.67515
G1 X65.205 Y26.509 A203.82325
G1 X52.962 Y14.266 A209.36543
G1 X52.532 Y14.108 A209.51196
G1 X65.347 Y26.922 A215.31258
G1 X65.488 Y27.336 A215.45239
G1 X52.131 Y13.979 A221.49862
G1 X51.735 Y13.855 A221.63136
G1 X65.609 Y27.729 A227.91152
G1 X65.717 Y28.109 A228.03824
G1 X51.359 Y13.751 A234.53790
G1 X50.984 Y13.648 A234.66226
G1 X65.812 Y28.477 A241.37469
G1 X65.894 Y28.831 A241.49093
G1 X50.629 Y13.566 A248.40101
G1 X50.274 Y13.483 A248.51768
G1 X65.976 Y29.185 A255.62541
G1 X66.057 Y29.538 A255.74132
G1 X49.937 Y13.418 A263.03806
G1 X49.605 Y13.359 A263.14600
G1 X66.115 Y29.869 A270.61962
G1 X66.174 Y30.200 A270.72724
G1 X49.273 Y13.299 A278.37772
G1 X48.942 Y13.240 A278.48545
G1 X66.224 Y30.522 A286.30843
G1 X66.267 Y30.836 A286.41011
G1 X48.630 Y13.200 A294.39360
G1 X48.318 Y13.160 A294.49427
G1 X66.309 Y31.151 A302.63827
G1 X66.336 Y31.450 A302.73434
G1 X48.012 Y13.126 A311.02926
G1 X47.714 Y13.100 A311.12495
G1 X66.361 Y31.747 A319.56597
G1 X66.386 Y32.044 A319.66140
G1 X47.416 Y13.074 A328.24852
G1 X47.127 Y13.058 A328.34102
G1 X66.411 Y32.342 A337.07002
G1 X66.425 Y32.628 A337.16178
G1 X46.845 Y13.048 A346.02486
G1 X46.563 Y13.038 A346.11521
G1 X66.434 Y32.909 A355.11015
G1 X66.443 Y33.191 A355.20028
G1 X46.281 Y13.028 A364.32708
G1 X46.001 Y13.021 A364.41673
G1 X66.444 Y33.464 A373.67068
G1 X66.442 Y33.734 A373.75710
G1 X45.733 Y13.025 A383.13135
G1 X45.465 Y13.029 A383.21713
