; generated by PrusaSlicer 2.0.0+win64 on 2019-05-30 at 03:47:05

; 

; external perimeters extrusion width = 1.13mm
; perimeters extrusion width = 1.13mm
; infill extrusion width = 1.13mm
; solid infill extrusion width = 1.13mm
; top infill extrusion width = 1.00mm
; first layer extrusion width = 1.05mm

M107
g92 z0
g1 f1000 z-309
g92 x0 y0 a0 z0
g1 f1000 z0.5
; Filament gcode
G21 ; set units to millimeters
G90 ; use absolute coordinates
G1 Z1.000 F7800.000
G1 A-2.00000 F2400.00000
G1 X24.768 Y44.208 F7800.000
G1 A0.00000 F2400.00000
G1 F1800
G1 X27.247 Y43.063 A0.94833
G1 X29.792 Y42.186 A1.88335
G1 X32.038 Y41.641 A2.68602
G1 X34.703 Y41.253 A3.62146
G1 X37.387 Y41.134 A4.55445
G1 X40.082 Y41.286 A5.49209
G1 X42.434 Y41.644 A6.31845
G1 X45.027 Y42.293 A7.24674
G1 X47.565 Y43.207 A8.18379
G1 X49.981 Y44.362 A9.11390
G1 X52.241 Y45.734 A10.03195
G1 X54.205 Y47.197 A10.88257
G1 X56.193 Y48.998 A11.81440
G1 X57.965 Y50.957 A12.73180
G1 X59.631 Y53.227 A13.70979
G1 X60.988 Y55.537 A14.64007
G1 X62.081 Y57.909 A15.54735
G1 X62.953 Y60.427 A16.47288
G1 X63.541 Y62.862 A17.34285
G1 X63.912 Y65.467 A18.25659
G1 X64.025 Y68.134 A19.18386
G1 X63.854 Y70.954 A20.16492
G1 X63.434 Y73.527 A21.07040
G1 X62.847 Y75.790 A21.88241
G1 X61.946 Y78.280 A22.80237
G1 X60.810 Y80.657 A23.71717
G1 X59.339 Y83.068 A24.69820
G1 X57.723 Y85.193 A25.62546
G1 X55.932 Y87.119 A26.53878
G1 X53.977 Y88.847 A27.44505
G1 X51.966 Y90.309 A28.30852
G1 X49.555 Y91.723 A29.27949
G1 X47.245 Y92.783 A30.16207
G1 X44.504 Y93.719 A31.16808
G1 X42.065 Y94.286 A32.03769
G1 X39.571 Y94.623 A32.91205
G1 X36.739 Y94.721 A33.89619
G1 X34.584 Y94.594 A34.64598
G1 X31.721 Y94.154 A35.65212
G1 X28.955 Y93.416 A36.64607
G1 X26.599 Y92.527 A37.52074
G1 X24.331 Y91.416 A38.39777
G1 X21.904 Y89.909 A39.39004
G1 X19.907 Y88.372 A40.26539
G1 X18.076 Y86.666 A41.13440
G1 X16.416 Y84.802 A42.00144
G1 X14.737 Y82.488 A42.99461
G1 X13.467 Y80.308 A43.87063
G1 X12.414 Y78.030 A44.74245
G1 X11.475 Y75.314 A45.74039
G1 X10.897 Y72.871 A46.61235
G1 X10.517 Y69.994 A47.62027
G1 X10.438 Y67.649 A48.43534
G1 X10.582 Y65.151 A49.30419
G1 X11.005 Y62.442 A50.25639
G1 X11.695 Y59.815 A51.19984
G1 X12.648 Y57.272 A52.14319
G1 X13.853 Y54.838 A53.08641
G1 X15.074 Y52.862 A53.89313
G1 X16.696 Y50.716 A54.82740
G1 X18.534 Y48.736 A55.76580
G1 X20.576 Y46.939 A56.71051
G1 X22.455 Y45.576 A57.51660
G1 X24.639 Y44.285 A58.39791
G1 A56.39791 F2400.00000
G1 X30.885 Y84.963 F7800.000
G1 A58.39791 F2400.00000
G1 F1800
G1 X29.710 Y84.483 A58.83855
G1 X28.807 Y84.042 A59.18775
G1 X27.920 Y83.546 A59.54053
G1 X27.368 Y83.203 A59.76638
G1 X26.530 Y82.628 A60.11924
G1 X25.726 Y82.007 A60.47215
G1 X25.230 Y81.587 A60.69809
G1 X24.478 Y80.888 A61.05460
G1 X24.023 Y80.423 A61.28059
G1 X23.345 Y79.665 A61.63364
G1 X22.717 Y78.878 A61.98322
G1 X22.128 Y78.050 A62.33635
G1 X21.771 Y77.495 A62.56542
G1 X21.414 Y76.893 A62.80841
G1 X20.955 Y76.029 A63.14851
G1 X20.527 Y75.105 A63.50200
G1 X20.281 Y74.502 A63.72813
G1 X19.940 Y73.544 A64.08141
G1 X19.653 Y72.570 A64.43409
G1 X19.489 Y71.893 A64.67589
G1 X19.302 Y70.938 A65.01388
G1 X19.162 Y69.930 A65.36750
G1 X19.064 Y68.612 A65.82645
G1 X19.055 Y67.547 A66.19626
G1 X19.085 Y66.813 A66.45158
G1 X19.151 Y66.030 A66.72461
G1 X19.297 Y64.948 A67.10363
G1 X19.432 Y64.225 A67.35919
G1 X19.597 Y63.509 A67.61439
G1 X19.909 Y62.413 A68.01020
G1 X20.158 Y61.683 A68.27796
G1 X20.565 Y60.667 A68.65820
G1 X20.871 Y60.000 A68.91308
G1 X21.226 Y59.307 A69.18331
G1 X21.775 Y58.356 A69.56485
G1 X22.175 Y57.739 A69.82024
G1 X22.599 Y57.139 A70.07532
G1 X23.304 Y56.243 A70.47155
G1 X23.780 Y55.698 A70.72268
G1 X24.573 Y54.879 A71.11883
G1 X25.110 Y54.379 A71.37343
G1 X25.687 Y53.884 A71.63763
G1 X26.569 Y53.203 A72.02460
G1 X27.172 Y52.784 A72.27939
G1 X27.807 Y52.381 A72.54073
G1 X28.783 Y51.829 A72.93027
G1 X29.430 Y51.506 A73.18127
G1 X30.474 Y51.050 A73.57694
G1 X31.155 Y50.793 A73.82984
G1 X32.234 Y50.447 A74.22340
G1 X32.932 Y50.262 A74.47432
G1 X34.047 Y50.028 A74.86989
G1 X34.762 Y49.916 A75.12122
G1 X35.885 Y49.797 A75.51362
G1 X36.607 Y49.758 A75.76458
G1 X37.726 Y49.754 A76.15325
G1 X38.493 Y49.792 A76.42005
G1 X39.606 Y49.903 A76.80839
G1 X40.324 Y50.013 A77.06064
G1 X41.411 Y50.235 A77.44620
G1 X42.114 Y50.416 A77.69808
G1 X43.162 Y50.743 A78.07968
G1 X43.936 Y51.030 A78.36606
G1 X44.617 Y51.316 A78.62265
G1 X45.606 Y51.792 A79.00404
G1 X46.247 Y52.141 A79.25738
G1 X47.176 Y52.710 A79.63592
G1 X47.778 Y53.120 A79.88894
G1 X48.637 Y53.773 A80.26353
G1 X49.296 Y54.329 A80.56305
G1 X50.081 Y55.067 A80.93722
G1 X50.594 Y55.601 A81.19445
G1 X51.086 Y56.157 A81.45217
G1 X51.756 Y56.995 A81.82503
G1 X52.184 Y57.588 A82.07899
G1 X52.765 Y58.485 A82.45003
G1 X53.135 Y59.121 A82.70568
G1 X53.555 Y59.927 A83.02134
G1 X53.995 Y60.894 A83.39019
G1 X54.265 Y61.576 A83.64489
G1 X54.607 Y62.582 A84.01409
G1 X54.811 Y63.296 A84.27198
G1 X54.986 Y64.017 A84.52977
G1 X55.183 Y65.059 A84.89802
G1 X55.285 Y65.789 A85.15397
G1 X55.369 Y66.711 A85.47553
G1 X55.411 Y67.765 A85.84206
G1 X55.402 Y68.499 A86.09681
G1 X55.339 Y69.556 A86.46481
G1 X55.257 Y70.295 A86.72278
G1 X55.145 Y71.029 A86.98071
G1 X54.935 Y72.062 A87.34694
G1 X54.704 Y72.945 A87.66400
G1 X54.387 Y73.945 A88.02822
G1 X54.010 Y74.928 A88.39400
G1 X53.711 Y75.608 A88.65185
G1 X53.380 Y76.282 A88.91276
G1 X53.021 Y76.942 A89.17358
G1 X52.640 Y77.578 A89.43112
G1 X52.051 Y78.460 A89.79933
G1 X51.411 Y79.307 A90.16823
G1 X50.837 Y79.988 A90.47751
G1 X50.338 Y80.529 A90.73332
G1 X49.622 Y81.234 A91.08224
G1 X48.891 Y81.880 A91.42103
G1 X48.369 Y82.300 A91.65360
G1 X47.579 Y82.879 A91.99391
G1 X46.758 Y83.415 A92.33446
G1 X46.087 Y83.807 A92.60446
G1 X45.219 Y84.262 A92.94454
G1 X44.324 Y84.671 A93.28654
G1 X43.709 Y84.918 A93.51670
G1 X42.775 Y85.245 A93.86040
G1 X41.821 Y85.523 A94.20555
G1 X41.178 Y85.678 A94.43526
G1 X40.188 Y85.869 A94.78523
G1 X39.526 Y85.966 A95.01783
G1 X38.853 Y86.039 A95.25302
G1 X38.178 Y86.087 A95.48787
G1 X36.829 Y86.108 A95.95632
G1 X36.188 Y86.082 A96.17937
G1 X35.514 Y86.031 A96.41409
G1 X34.845 Y85.955 A96.64794
G1 X34.191 Y85.856 A96.87779
G1 X33.187 Y85.657 A97.23318
G1 X32.556 Y85.501 A97.45898
G1 X31.583 Y85.212 A97.81145
G1 X31.026 Y85.013 A98.01685
G1 X30.603 Y85.749 F7800.000
G1 F1800
G1 X29.364 Y85.244 A98.48154
G1 X28.419 Y84.782 A98.84680
G1 X27.496 Y84.266 A99.21429
G1 X26.911 Y83.903 A99.45352
G1 X26.038 Y83.304 A99.82110
G1 X25.200 Y82.657 A100.18872
G1 X24.675 Y82.212 A100.42805
G1 X23.895 Y81.486 A100.79794
G1 X23.412 Y80.994 A101.03731
G1 X22.707 Y80.204 A101.40509
G1 X22.050 Y79.382 A101.77073
G1 X21.436 Y78.519 A102.13860
G1 X21.060 Y77.935 A102.37992
G1 X20.686 Y77.302 A102.63505
G1 X20.206 Y76.401 A102.98968
G1 X19.761 Y75.439 A103.35781
G1 X19.500 Y74.800 A103.59734
G1 X19.145 Y73.802 A103.96534
G1 X18.846 Y72.787 A104.33300
G1 X18.673 Y72.072 A104.58831
G1 X18.478 Y71.076 A104.94080
G1 X18.331 Y70.026 A105.30905
G1 X18.267 Y69.333 A105.55081
G1 X18.229 Y68.639 A105.79233
G1 X18.220 Y67.534 A106.17613
G1 X18.251 Y66.761 A106.44481
G1 X18.321 Y65.939 A106.73137
G1 X18.472 Y64.815 A107.12502
G1 X18.614 Y64.055 A107.39384
G1 X18.787 Y63.301 A107.66244
G1 X19.111 Y62.163 A108.07338
G1 X19.375 Y61.393 A108.35614
G1 X19.797 Y60.337 A108.75102
G1 X20.120 Y59.635 A109.01940
G1 X20.492 Y58.908 A109.30313
G1 X21.063 Y57.920 A109.69933
G1 X21.483 Y57.271 A109.96800
G1 X21.929 Y56.639 A110.23647
G1 X22.661 Y55.709 A110.64758
G1 X23.165 Y55.132 A110.91357
G1 X23.988 Y54.282 A111.32459
G1 X24.553 Y53.756 A111.59273
G1 X25.160 Y53.236 A111.87037
G1 X26.075 Y52.529 A112.27207
G1 X26.709 Y52.088 A112.54028
G1 X27.377 Y51.664 A112.81503
G1 X28.391 Y51.092 A113.21933
G1 X29.075 Y50.749 A113.48515
G1 X30.158 Y50.276 A113.89571
G1 X30.880 Y50.003 A114.16348
G1 X32.000 Y49.645 A114.57187
G1 X32.739 Y49.449 A114.83769
G1 X33.896 Y49.206 A115.24816
G1 X34.653 Y49.087 A115.51432
G1 X35.819 Y48.964 A115.92150
G1 X36.583 Y48.923 A116.18724
G1 X37.745 Y48.919 A116.59078
G1 X38.555 Y48.958 A116.87257
G1 X39.710 Y49.074 A117.27581
G1 X40.470 Y49.190 A117.54279
G1 X41.599 Y49.421 A117.94299
G1 X42.342 Y49.612 A118.20955
G1 X43.432 Y49.952 A118.60604
G1 X44.243 Y50.253 A118.90631
G1 X44.960 Y50.554 A119.17647
G1 X45.987 Y51.048 A119.57243
G1 X46.665 Y51.418 A119.84039
G1 X47.630 Y52.008 A120.23344
G1 X48.266 Y52.442 A120.50103
G1 X49.160 Y53.120 A120.89057
G1 X49.852 Y53.706 A121.20537
G1 X50.668 Y54.473 A121.59453
G1 X51.208 Y55.035 A121.86507
G1 X51.725 Y55.619 A122.13598
G1 X52.421 Y56.490 A122.52323
G1 X52.874 Y57.116 A122.79168
G1 X53.477 Y58.048 A123.17707
G1 X53.867 Y58.718 A123.44648
G1 X54.306 Y59.561 A123.77647
G1 X54.764 Y60.567 A124.16027
G1 X55.049 Y61.287 A124.42942
G1 X55.405 Y62.332 A124.81295
G1 X55.619 Y63.083 A125.08402
G1 X55.803 Y63.841 A125.35505
G1 X56.007 Y64.924 A125.73759
G1 X56.115 Y65.693 A126.00746
G1 X56.203 Y66.656 A126.34342
G1 X56.246 Y67.754 A126.72482
G1 X56.237 Y68.529 A126.99400
G1 X56.171 Y69.627 A127.37629
G1 X56.086 Y70.403 A127.64747
G1 X55.968 Y71.175 A127.91862
G1 X55.749 Y72.251 A128.30001
G1 X55.507 Y73.178 A128.63252
G1 X55.176 Y74.221 A129.01269
G1 X54.783 Y75.247 A129.39415
G1 X54.468 Y75.961 A129.66520
G1 X54.122 Y76.666 A129.93811
G1 X53.747 Y77.356 A130.21092
G1 X53.346 Y78.025 A130.48165
G1 X52.732 Y78.944 A130.86560
G1 X52.064 Y79.828 A131.25056
G1 X51.464 Y80.541 A131.57404
G1 X50.938 Y81.110 A131.84339
G1 X50.192 Y81.845 A132.20709
G1 X49.429 Y82.519 A132.56038
G1 X48.878 Y82.962 A132.80620
G1 X48.054 Y83.566 A133.16096
G1 X47.197 Y84.125 A133.51637
G1 X46.492 Y84.538 A133.80030
G1 X45.587 Y85.012 A134.15507
G1 X44.653 Y85.439 A134.51156
G1 X44.003 Y85.700 A134.75498
G1 X43.030 Y86.041 A135.11314
G1 X42.035 Y86.330 A135.47278
G1 X41.355 Y86.495 A135.71581
G1 X40.328 Y86.693 A136.07909
G1 X39.631 Y86.795 A136.32373
G1 X38.927 Y86.872 A136.56974
G1 X38.222 Y86.922 A136.81533
G1 X37.557 Y86.944 A137.04651
G1 X36.812 Y86.943 A137.30510
G1 X36.140 Y86.916 A137.53887
G1 X35.435 Y86.863 A137.78424
G1 X34.735 Y86.783 A138.02885
G1 X34.047 Y86.679 A138.27075
G1 X33.005 Y86.473 A138.63952
G1 X32.337 Y86.307 A138.87873
G1 X31.323 Y86.007 A139.24594
G1 X30.744 Y85.800 A139.45936
G1 X30.322 Y86.536 F7800.000
G1 F1800
G1 X30.030 Y86.431 A139.56700
G1 X29.019 Y86.005 A139.94824
G1 X28.032 Y85.523 A140.32954
G1 X27.071 Y84.986 A140.71175
G1 X26.454 Y84.602 A140.96435
G1 X25.546 Y83.979 A141.34665
G1 X24.675 Y83.307 A141.72900
G1 X24.120 Y82.836 A141.98170
G1 X23.312 Y82.085 A142.36497
G1 X22.802 Y81.565 A142.61773
G1 X22.069 Y80.744 A143.00024
G1 X21.383 Y79.885 A143.38195
G1 X20.744 Y78.987 A143.76454
G1 X20.349 Y78.374 A144.01811
G1 X19.957 Y77.711 A144.28539
G1 X19.458 Y76.773 A144.65456
G1 X18.995 Y75.773 A145.03732
G1 X18.719 Y75.099 A145.29024
G1 X18.350 Y74.060 A145.67298
G1 X18.039 Y73.003 A146.05560
G1 X17.856 Y72.251 A146.32442
G1 X17.654 Y71.214 A146.69142
G1 X17.501 Y70.122 A147.07429
G1 X17.434 Y69.395 A147.32811
G1 X17.394 Y68.665 A147.58184
G1 X17.384 Y67.520 A147.97963
G1 X17.418 Y66.709 A148.26167
G1 X17.490 Y65.848 A148.56176
G1 X17.647 Y64.683 A148.97003
G1 X17.796 Y63.884 A149.25211
G1 X17.978 Y63.093 A149.53411
G1 X18.313 Y61.913 A149.96018
G1 X18.591 Y61.102 A150.25795
G1 X19.029 Y60.007 A150.66746
G1 X19.368 Y59.270 A150.94934
G1 X19.758 Y58.508 A151.24657
G1 X20.350 Y57.484 A151.65742
G1 X20.791 Y56.802 A151.93937
G1 X21.259 Y56.140 A152.22123
G1 X22.018 Y55.176 A152.64722
G1 X22.550 Y54.567 A152.92809
G1 X23.403 Y53.686 A153.35398
G1 X23.996 Y53.133 A153.63564
G1 X24.632 Y52.587 A153.92674
G1 X25.581 Y51.854 A154.34315
G1 X26.247 Y51.392 A154.62478
G1 X26.948 Y50.948 A154.91296
G1 X27.998 Y50.354 A155.33202
G1 X28.721 Y49.993 A155.61265
G1 X29.843 Y49.502 A156.03811
G1 X30.605 Y49.214 A156.32074
G1 X31.765 Y48.843 A156.74397
G1 X32.547 Y48.636 A157.02468
G1 X33.745 Y48.384 A157.45004
G1 X34.544 Y48.258 A157.73103
G1 X35.752 Y48.131 A158.15300
G1 X36.559 Y48.087 A158.43352
G1 X37.764 Y48.083 A158.85194
G1 X38.617 Y48.125 A159.14872
G1 X39.815 Y48.245 A159.56685
G1 X40.617 Y48.367 A159.84856
G1 X41.787 Y48.606 A160.26341
G1 X42.571 Y48.808 A160.54464
G1 X43.702 Y49.161 A160.95602
G1 X44.550 Y49.476 A161.27017
G1 X45.303 Y49.792 A161.55391
G1 X46.368 Y50.305 A161.96445
G1 X47.083 Y50.694 A162.24703
G1 X48.084 Y51.306 A162.65458
G1 X48.755 Y51.764 A162.93675
G1 X49.682 Y52.468 A163.34123
G1 X50.408 Y53.082 A163.67131
G1 X51.256 Y53.879 A164.07545
G1 X51.822 Y54.468 A164.35932
G1 X52.364 Y55.081 A164.64341
G1 X53.087 Y55.984 A165.04506
G1 X53.563 Y56.644 A165.32800
G1 X54.189 Y57.610 A165.72773
G1 X54.599 Y58.315 A166.01089
G1 X55.057 Y59.195 A166.35522
G1 X55.533 Y60.239 A166.75396
G1 X55.833 Y60.999 A167.03758
G1 X56.202 Y62.083 A167.43542
G1 X56.427 Y62.870 A167.71967
G1 X56.619 Y63.665 A168.00394
G1 X56.832 Y64.788 A168.40078
G1 X56.945 Y65.597 A168.68458
G1 X57.037 Y66.602 A169.03493
G1 X57.082 Y67.742 A169.43119
G1 X57.072 Y68.558 A169.71481
G1 X57.004 Y69.698 A170.11139
G1 X56.914 Y70.512 A170.39578
G1 X56.791 Y71.322 A170.68014
G1 X56.563 Y72.440 A171.07671
G1 X56.310 Y73.410 A171.42466
G1 X55.965 Y74.497 A171.82079
G1 X55.556 Y75.565 A172.21791
G1 X55.226 Y76.313 A172.50217
G1 X54.864 Y77.050 A172.78708
G1 X54.472 Y77.770 A173.07189
G1 X54.053 Y78.472 A173.35581
G1 X53.413 Y79.428 A173.75549
G1 X52.717 Y80.349 A174.15650
G1 X52.091 Y81.093 A174.49420
G1 X51.538 Y81.692 A174.77709
G1 X50.762 Y82.456 A175.15556
G1 X49.968 Y83.157 A175.52336
G1 X49.387 Y83.625 A175.78242
G1 X48.530 Y84.253 A176.15163
G1 X47.637 Y84.836 A176.52190
G1 X46.897 Y85.269 A176.81975
G1 X45.954 Y85.763 A177.18921
G1 X44.983 Y86.206 A177.56021
G1 X44.297 Y86.482 A177.81689
G1 X43.285 Y86.837 A178.18951
G1 X42.250 Y87.138 A178.56364
G1 X41.533 Y87.311 A178.81998
G1 X40.468 Y87.517 A179.19656
G1 X39.737 Y87.624 A179.45324
G1 X39.002 Y87.704 A179.71009
G1 X38.266 Y87.756 A179.96641
G1 X37.570 Y87.780 A180.20815
G1 X36.795 Y87.778 A180.47743
G1 X36.091 Y87.750 A180.72191
G1 X35.356 Y87.695 A180.97793
G1 X34.626 Y87.612 A181.23330
G1 X33.903 Y87.503 A181.48726
G1 X32.824 Y87.288 A181.86941
G1 X32.118 Y87.114 A182.12203
G1 X31.063 Y86.801 A182.50397
G1 X30.463 Y86.586 A182.72542
G1 X30.263 Y86.231 F7800.000
G1 A180.72542 F2400.00000
G1 X27.395 Y82.918 F7800.000
G1 A182.72542 F2400.00000
G1 F1800
G1 X22.243 Y77.766 A185.25735
G1 A183.25735 F2400.00000
G1 X20.837 Y75.178 F7800.000
G1 A185.25735 F2400.00000
G1 F1800
G1 X29.191 Y83.532 A189.36357
G1 X29.970 Y83.912 A189.66450
G1 X30.864 Y84.290 A190.00182
G1 X31.279 Y84.438 A190.15518
G1 X20.726 Y73.885 A195.34189
G1 X20.536 Y73.351 A195.53899
G1 X20.203 Y72.180 A195.96192
G1 X32.985 Y84.962 A202.24382
G1 X33.323 Y85.045 A202.36485
G1 X34.466 Y85.261 A202.76907
G1 X19.901 Y70.695 A209.92754
G1 X19.785 Y69.864 A210.21942
G1 X19.748 Y69.360 A210.39488
G1 X35.813 Y85.425 A218.29060
G1 X36.224 Y85.457 A218.43382
G1 X37.047 Y85.478 A218.72010
G1 X19.686 Y68.117 A227.25255
G1 X19.682 Y67.558 A227.44684
G1 X19.707 Y66.955 A227.65655
G1 X38.209 Y85.457 A236.74992
G1 X39.295 Y85.361 A237.12892
G1 X19.805 Y65.871 A246.70790
G1 X19.955 Y64.839 A247.07031
G1 X40.322 Y85.205 A257.07990
G1 X41.302 Y85.003 A257.42768
G1 X20.159 Y63.861 A267.81882
G1 X20.412 Y62.932 A268.15340
G1 X42.231 Y84.751 A278.87687
G1 X43.122 Y84.460 A279.20263
G1 X20.699 Y62.037 A290.22287
G1 X21.032 Y61.187 A290.54002
G1 X43.979 Y84.134 A301.81802
G1 X44.076 Y84.095 A301.85459
G1 X44.794 Y83.767 A302.12872
G1 X21.393 Y60.366 A313.62989
G1 X21.791 Y59.582 A313.93544
G1 X45.576 Y83.367 A325.62539
G1 X46.330 Y82.939 A325.92668
G1 X22.224 Y58.833 A337.77429
G1 X22.682 Y58.109 A338.07204
G1 X47.049 Y82.476 A350.04796
G1 X47.740 Y81.984 A350.34252
G1 X23.175 Y57.420 A362.41524
G1 X23.696 Y56.758 A362.70780
G1 X48.404 Y81.467 A374.85144
G1 X49.036 Y80.916 A375.14260
G1 X24.242 Y56.122 A387.32820
G1 X24.823 Y55.521 A387.61874
G1 X49.639 Y80.337 A399.81524
G1 X50.218 Y79.735 A400.10580
G1 X25.425 Y54.941 A412.29114
G1 X26.058 Y54.392 A412.58234
G1 X50.766 Y79.100 A424.72584
G1 X51.284 Y78.436 A425.01854
G1 X26.723 Y53.875 A437.08945
