; generated by PrusaSlicer 2.0.0+win64 on 2019-06-08 at 08:51:29

; 

; external perimeters extrusion width = 1.25mm
; perimeters extrusion width = 1.25mm
; infill extrusion width = 1.25mm
; solid infill extrusion width = 1.25mm
; top infill extrusion width = 1.25mm
; first layer extrusion width = 3.00mm

M107
M107
g92 z0
g1 f1000 z-310
g92 x0 y0 a0 z0
; Filament gcode
G21 ; set units to millimeters
G90 ; use absolute coordinates
G1 Z2.500 F7800.000
G1 A-2.00000 F2400.00000
G1 X14.952 Y14.158 F7800.000
G1 A0.00000 F2400.00000
G1 F1800
G1 X17.037 Y12.248 A0.88706
G1 X19.348 Y10.527 A1.79079
G1 X21.822 Y9.050 A2.69455
G1 X24.384 Y7.852 A3.58168
G1 X26.693 Y7.026 A4.35076
G1 X29.483 Y6.315 A5.25404
G1 X32.281 Y5.897 A6.14123
G1 X35.139 Y5.761 A7.03887
G1 X37.977 Y5.913 A7.93028
G1 X40.403 Y6.272 A8.69947
G1 X43.142 Y6.944 A9.58412
G1 X45.858 Y7.908 A10.48811
G1 X48.461 Y9.145 A11.39212
G1 X50.876 Y10.607 A12.27741
G1 X52.845 Y12.066 A13.04613
G1 X54.951 Y13.955 A13.93355
G1 X56.887 Y16.082 A14.83554
G1 X58.567 Y18.350 A15.72094
G1 X59.836 Y20.446 A16.48968
G1 X61.069 Y22.993 A17.37717
G1 X62.055 Y25.695 A18.27923
G1 X62.752 Y28.437 A19.16671
G1 X63.132 Y30.860 A19.93608
G1 X63.307 Y33.736 A20.83966
G1 X63.194 Y36.556 A21.72510
G1 X62.798 Y39.365 A22.61468
G1 X62.112 Y42.151 A23.51462
G1 X61.303 Y44.473 A24.28608
G1 X60.126 Y47.044 A25.17301
G1 X58.672 Y49.526 A26.07504
G1 X56.970 Y51.851 A26.97912
G1 X55.081 Y53.949 A27.86448
G1 X53.107 Y55.753 A28.70319
G1 X50.983 Y57.354 A29.53751
G1 X48.419 Y58.912 A30.47860
G1 X46.019 Y60.058 A31.31286
G1 X43.522 Y60.974 A32.14712
G1 X40.616 Y61.720 A33.08812
G1 X38.371 Y62.077 A33.80106
G1 X35.332 Y62.272 A34.75639
G1 X32.335 Y62.142 A35.69731
G1 X29.702 Y61.762 A36.53152
G1 X27.118 Y61.136 A37.36559
G1 X24.288 Y60.142 A38.30645
G1 X21.880 Y59.015 A39.14051
G1 X19.588 Y57.666 A39.97455
G1 X17.169 Y55.893 A40.91533
G1 X15.187 Y54.111 A41.75144
G1 X13.390 Y52.159 A42.58335
G1 X11.586 Y49.756 A43.52613
G1 X10.213 Y47.486 A44.35802
G1 X9.055 Y45.085 A45.19412
G1 X8.030 Y42.274 A46.13264
G1 X7.372 Y39.691 A46.96867
G1 X6.962 Y37.071 A47.80048
G1 X6.793 Y34.041 A48.75250
G1 X6.938 Y31.194 A49.64672
G1 X7.287 Y28.774 A50.41358
G1 X7.950 Y26.026 A51.30003
G1 X8.904 Y23.308 A52.20369
G1 X10.127 Y20.707 A53.10525
G1 X11.583 Y18.282 A53.99226
G1 X13.035 Y16.307 A54.76125
G1 X14.552 Y14.606 A55.47619
G1 A53.47619 F2400.00000
G1 X24.857 Y23.572 F7800.000
G1 A55.47619 F2400.00000
G1 F1800
G1 X25.268 Y23.187 A55.65311
G1 X25.984 Y22.581 A55.94717
G1 X26.610 Y22.112 A56.19248
G1 X27.204 Y21.711 A56.41714
G1 X27.680 Y21.420 A56.59211
G1 X28.395 Y21.029 A56.84797
G1 X29.039 Y20.717 A57.07240
G1 X29.552 Y20.497 A57.24737
G1 X30.317 Y20.212 A57.50351
G1 X30.967 Y20.006 A57.71736
G1 X31.883 Y19.770 A58.01396
G1 X32.403 Y19.664 A58.18059
G1 X33.354 Y19.521 A58.48205
G1 X33.915 Y19.465 A58.65900
G1 X34.487 Y19.432 A58.83882
G1 X35.306 Y19.425 A59.09565
G1 X36.018 Y19.453 A59.31916
G1 X36.598 Y19.503 A59.50164
G1 X37.157 Y19.574 A59.67860
G1 X38.080 Y19.740 A59.97261
G1 X38.846 Y19.924 A60.21961
G1 X39.528 Y20.124 A60.44266
G1 X40.047 Y20.303 A60.61488
G1 X40.909 Y20.649 A60.90606
G1 X41.747 Y21.047 A61.19726
G1 X42.215 Y21.300 A61.36392
G1 X43.036 Y21.799 A61.66544
G1 X43.503 Y22.116 A61.84242
G1 X44.447 Y22.846 A62.21694
G1 X44.872 Y23.218 A62.39392
G1 X45.561 Y23.888 A62.69545
G1 X45.923 Y24.277 A62.86213
G1 X46.520 Y24.989 A63.15335
G1 X47.071 Y25.736 A63.44457
G1 X47.365 Y26.179 A63.61125
G1 X47.854 Y27.006 A63.91280
G1 X48.116 Y27.506 A64.08980
G1 X48.357 Y28.016 A64.26680
G1 X48.724 Y28.905 A64.56835
G1 X49.080 Y29.985 A64.92502
G1 X49.284 Y30.784 A65.18379
G1 X49.419 Y31.444 A65.39514
G1 X49.556 Y32.381 A65.69206
G1 X49.606 Y32.910 A65.85875
G1 X49.647 Y33.871 A66.16032
G1 X49.643 Y34.411 A66.32974
G1 X49.596 Y35.235 A66.58855
G1 X49.521 Y35.937 A66.81018
G1 X49.437 Y36.489 A66.98530
G1 X49.273 Y37.298 A67.24407
G1 X49.099 Y37.983 A67.46574
G1 X48.930 Y38.540 A67.64843
G1 X48.744 Y39.073 A67.82543
G1 X48.382 Y39.963 A68.12699
G1 X48.153 Y40.453 A68.29642
G1 X47.768 Y41.181 A68.55498
G1 X47.407 Y41.790 A68.77684
G1 X47.087 Y42.276 A68.95951
G1 X46.758 Y42.735 A69.13651
G1 X46.159 Y43.487 A69.43804
G1 X45.805 Y43.887 A69.60575
G1 X45.153 Y44.553 A69.89793
G1 X44.808 Y44.874 A70.04588
G1 X44.147 Y45.433 A70.31727
G1 X43.768 Y45.725 A70.46728
G1 X43.084 Y46.204 A70.72938
G1 X42.392 Y46.633 A70.98472
G1 X41.769 Y46.975 A71.20740
G1 X41.223 Y47.244 A71.39852
G1 X40.461 Y47.573 A71.65891
G1 X39.796 Y47.820 A71.88135
G1 X39.215 Y48.006 A72.07270
G1 X38.421 Y48.218 A72.33052
G1 X37.632 Y48.382 A72.58331
G1 X36.806 Y48.507 A72.84537
G1 X36.301 Y48.560 A73.00464
G1 X35.227 Y48.612 A73.34168
G1 X34.199 Y48.588 A73.66434
G1 X33.264 Y48.499 A73.95893
G1 X32.522 Y48.392 A74.19419
G1 X31.531 Y48.182 A74.51192
G1 X30.726 Y47.956 A74.77396
G1 X29.964 Y47.696 A75.02671
G1 X29.209 Y47.391 A75.28210
G1 X28.570 Y47.093 A75.50314
G1 X28.025 Y46.809 A75.69582
G1 X27.317 Y46.393 A75.95346
G1 X26.646 Y45.948 A76.20620
G1 X25.976 Y45.448 A76.46821
G1 X25.607 Y45.144 A76.61816
G1 X24.986 Y44.585 A76.88017
G1 X24.413 Y44.008 A77.13557
G1 X23.944 Y43.484 A77.35604
G1 X23.549 Y43.000 A77.55196
G1 X23.121 Y42.423 A77.77716
G1 X22.777 Y41.912 A77.97050
G1 X22.337 Y41.184 A78.23733
G1 X22.109 Y40.763 A78.38727
G1 X21.745 Y40.012 A78.64926
G1 X21.435 Y39.268 A78.90197
G1 X21.156 Y38.481 A79.16395
G1 X21.017 Y38.023 A79.31389
G1 X20.812 Y37.214 A79.57588
G1 X20.657 Y36.423 A79.82858
G1 X20.542 Y35.596 A80.09057
G1 X20.468 Y34.587 A80.40792
G1 X20.461 Y33.692 A80.68853
G1 X20.482 Y33.155 A80.85719
G1 X20.571 Y32.198 A81.15857
G1 X20.647 Y31.673 A81.32516
G1 X20.832 Y30.730 A81.62655
G1 X20.961 Y30.215 A81.79314
G1 X21.242 Y29.296 A82.09454
G1 X21.434 Y28.765 A82.27144
G1 X21.648 Y28.243 A82.44834
G1 X22.056 Y27.374 A82.74974
G1 X22.311 Y26.897 A82.91933
G1 X22.729 Y26.199 A83.17441
G1 X23.127 Y25.602 A83.39958
G1 X23.457 Y25.152 A83.57453
G1 X23.970 Y24.521 A83.82978
G1 X24.437 Y24.001 A84.04889
G1 A82.04889 F2400.00000
G1 X23.136 Y21.809 F7800.000
G1 A84.04889 F2400.00000
G1 F1800
G1 X23.630 Y21.346 A84.26137
G1 X24.449 Y20.653 A84.59776
G1 X25.181 Y20.105 A84.88466
G1 X25.871 Y19.638 A85.14601
G1 X26.446 Y19.287 A85.35729
G1 X27.267 Y18.838 A85.65080
G1 X28.016 Y18.476 A85.91191
G1 X28.635 Y18.210 A86.12320
G1 X29.513 Y17.883 A86.41699
G1 X30.286 Y17.637 A86.67148
G1 X31.330 Y17.368 A87.00946
G1 X31.974 Y17.237 A87.21560
G1 X33.049 Y17.075 A87.55658
G1 X33.723 Y17.009 A87.76909
G1 X34.405 Y16.969 A87.98338
G1 X35.344 Y16.961 A88.27789
G1 X36.173 Y16.994 A88.53807
G1 X36.859 Y17.053 A88.75400
G1 X37.531 Y17.138 A88.96652
G1 X38.586 Y17.328 A89.30292
G1 X39.481 Y17.543 A89.59158
G1 X40.276 Y17.776 A89.85128
G1 X40.908 Y17.994 A90.06089
G1 X41.898 Y18.391 A90.39555
G1 X42.861 Y18.849 A90.73023
G1 X43.440 Y19.161 A90.93641
G1 X44.369 Y19.726 A91.27746
G1 X44.930 Y20.107 A91.49001
G1 X45.490 Y20.523 A91.70892
G1 X46.033 Y20.961 A91.92784
G1 X46.543 Y21.407 A92.14040
G1 X47.323 Y22.165 A92.48146
G1 X47.771 Y22.647 A92.68766
G1 X48.456 Y23.464 A93.02237
G1 X49.090 Y24.323 A93.35707
G1 X49.453 Y24.871 A93.56328
G1 X50.007 Y25.807 A93.90435
G1 X50.321 Y26.407 A94.11693
G1 X50.611 Y27.020 A94.32950
G1 X51.025 Y28.025 A94.67058
G1 X51.251 Y28.664 A94.88316
G1 X51.452 Y29.317 A95.09743
G1 X51.686 Y30.233 A95.39395
G1 X51.847 Y31.020 A95.64589
G1 X52.003 Y32.087 A95.98412
G1 X52.064 Y32.741 A96.19033
G1 X52.111 Y33.828 A96.53143
G1 X52.106 Y34.491 A96.73933
G1 X52.052 Y35.435 A97.03590
G1 X51.965 Y36.253 A97.29415
G1 X51.864 Y36.920 A97.50557
G1 X51.676 Y37.846 A97.80210
G1 X51.473 Y38.644 A98.06039
G1 X51.273 Y39.304 A98.27648
G1 X51.050 Y39.944 A98.48905
G1 X50.640 Y40.951 A98.83014
G1 X50.359 Y41.551 A99.03805
G1 X49.917 Y42.386 A99.33436
G1 X49.497 Y43.095 A99.59285
G1 X49.119 Y43.671 A99.80892
G1 X48.724 Y44.222 A100.02149
G1 X48.046 Y45.072 A100.36256
G1 X47.609 Y45.566 A100.56940
G1 X46.873 Y46.318 A100.89952
G1 X46.442 Y46.718 A101.08383
G1 X45.695 Y47.350 A101.39079
G1 X45.227 Y47.711 A101.57637
G1 X44.440 Y48.262 A101.87760
G1 X43.635 Y48.761 A102.17467
G1 X42.908 Y49.160 A102.43485
G1 X42.257 Y49.481 A102.66251
G1 X41.378 Y49.860 A102.96268
G1 X40.601 Y50.149 A103.22261
G1 X39.909 Y50.371 A103.45051
G1 X38.990 Y50.616 A103.74908
G1 X38.067 Y50.808 A104.04456
G1 X37.118 Y50.951 A104.34575
G1 X36.511 Y51.015 A104.53703
G1 X35.257 Y51.076 A104.93096
G1 X34.030 Y51.046 A105.31602
G1 X32.971 Y50.946 A105.64945
G1 X32.112 Y50.822 A105.92189
G1 X30.920 Y50.569 A106.30389
G1 X29.996 Y50.310 A106.60506
G1 X29.104 Y50.006 A106.90048
G1 X28.226 Y49.651 A107.19754
G1 X27.479 Y49.303 A107.45602
G1 X26.831 Y48.965 A107.68527
G1 X26.011 Y48.483 A107.98371
G1 X25.226 Y47.962 A108.27912
G1 X24.457 Y47.388 A108.58025
G1 X24.000 Y47.012 A108.76576
G1 X23.287 Y46.370 A109.06688
G1 X22.619 Y45.698 A109.36394
G1 X22.071 Y45.085 A109.62181
G1 X21.604 Y44.514 A109.85329
G1 X21.109 Y43.846 A110.11405
G1 X20.700 Y43.238 A110.34397
G1 X20.199 Y42.408 A110.64806
G1 X19.917 Y41.888 A110.83356
G1 X19.498 Y41.024 A111.13467
G1 X19.136 Y40.155 A111.43005
G1 X18.815 Y39.250 A111.73114
G1 X18.643 Y38.684 A111.91664
G1 X18.407 Y37.754 A112.21774
G1 X18.226 Y36.830 A112.51311
G1 X18.094 Y35.879 A112.81421
G1 X18.005 Y34.665 A113.19594
G1 X17.997 Y33.652 A113.51369
G1 X18.024 Y32.991 A113.72106
G1 X18.123 Y31.909 A114.06196
G1 X18.217 Y31.259 A114.26806
G1 X18.427 Y30.192 A114.60895
G1 X18.587 Y29.555 A114.81505
G1 X18.904 Y28.516 A115.15595
G1 X19.135 Y27.879 A115.36841
G1 X19.391 Y27.252 A115.58087
G1 X19.854 Y26.268 A115.92178
G1 X20.166 Y25.684 A116.12973
G1 X20.645 Y24.883 A116.42243
G1 X21.109 Y24.188 A116.68430
G1 X21.507 Y23.645 A116.89556
G1 X22.096 Y22.921 A117.18843
G1 X22.715 Y22.237 A117.47771
G1 A115.47771 F2400.00000
G1 X21.379 Y20.082 F7800.000
G1 A117.47771 F2400.00000
G1 F1800
G1 X21.991 Y19.505 A117.74154
G1 X22.914 Y18.726 A118.12026
G1 X23.751 Y18.097 A118.44875
G1 X24.539 Y17.565 A118.74679
G1 X25.212 Y17.154 A118.99438
G1 X26.139 Y16.648 A119.32554
G1 X26.993 Y16.234 A119.62334
G1 X27.719 Y15.923 A119.87094
G1 X28.709 Y15.553 A120.20238
G1 X29.606 Y15.268 A120.49751
G1 X30.777 Y14.967 A120.87686
G1 X31.544 Y14.811 A121.12252
G1 X32.744 Y14.630 A121.50302
G1 X33.531 Y14.552 A121.75110
G1 X34.323 Y14.507 A121.99985
G1 X35.382 Y14.497 A122.33204
G1 X36.327 Y14.535 A122.62888
G1 X37.120 Y14.603 A122.87826
G1 X37.904 Y14.702 A123.12635
G1 X39.093 Y14.916 A123.50514
G1 X40.117 Y15.162 A123.83545
G1 X41.023 Y15.428 A124.13181
G1 X41.768 Y15.684 A124.37881
G1 X42.887 Y16.134 A124.75696
G1 X43.975 Y16.651 A125.13511
G1 X44.665 Y17.023 A125.38082
G1 X45.702 Y17.653 A125.76138
G1 X46.356 Y18.098 A126.00951
G1 X46.998 Y18.573 A126.26004
G1 X47.619 Y19.075 A126.51058
G1 X48.214 Y19.596 A126.75871
G1 X49.085 Y20.442 A127.13930
G1 X49.618 Y21.016 A127.38502
G1 X50.393 Y21.940 A127.76321
G1 X51.109 Y22.910 A128.14140
G1 X51.542 Y23.563 A128.38714
G1 X52.159 Y24.607 A128.76774
G1 X52.527 Y25.308 A129.01589
G1 X52.865 Y26.023 A129.26404
G1 X53.327 Y27.145 A129.64465
G1 X53.591 Y27.891 A129.89280
G1 X53.824 Y28.649 A130.14159
G1 X54.088 Y29.682 A130.47588
G1 X54.274 Y30.595 A130.76839
G1 X54.449 Y31.793 A131.14793
G1 X54.523 Y32.573 A131.39368
G1 X54.575 Y33.785 A131.77430
G1 X54.569 Y34.570 A132.02068
G1 X54.508 Y35.635 A132.35501
G1 X54.409 Y36.570 A132.64989
G1 X54.290 Y37.350 A132.89761
G1 X54.078 Y38.395 A133.23189
G1 X53.847 Y39.306 A133.52681
G1 X53.616 Y40.067 A133.77629
G1 X53.355 Y40.814 A134.02444
G1 X52.897 Y41.938 A134.40505
G1 X52.564 Y42.649 A134.65144
G1 X52.067 Y43.591 A134.98549
G1 X51.587 Y44.400 A135.28062
G1 X51.150 Y45.065 A135.53009
G1 X50.689 Y45.708 A135.77823
G1 X49.933 Y46.657 A136.15883
G1 X49.413 Y47.244 A136.40480
G1 X48.593 Y48.083 A136.77287
G1 X48.077 Y48.562 A136.99354
G1 X47.243 Y49.267 A137.33608
G1 X46.685 Y49.697 A137.55723
G1 X45.796 Y50.319 A137.89759
G1 X44.878 Y50.889 A138.23637
G1 X44.046 Y51.345 A138.53406
G1 X43.290 Y51.718 A138.79826
G1 X42.295 Y52.148 A139.13821
G1 X41.406 Y52.477 A139.43563
G1 X40.604 Y52.735 A139.70007
G1 X39.558 Y53.014 A140.03941
G1 X38.503 Y53.234 A140.37757
G1 X37.430 Y53.396 A140.71789
G1 X36.722 Y53.470 A140.94117
G1 X36.005 Y53.518 A141.16662
G1 X35.286 Y53.540 A141.39207
G1 X34.568 Y53.535 A141.61752
G1 X33.860 Y53.505 A141.83961
G1 X32.679 Y53.393 A142.21188
G1 X31.702 Y53.251 A142.52149
G1 X31.003 Y53.117 A142.74459
G1 X30.310 Y52.956 A142.96786
G1 X29.265 Y52.663 A143.30814
G1 X28.245 Y52.316 A143.64624
G1 X27.244 Y51.911 A143.98496
G1 X26.389 Y51.513 A144.28088
G1 X25.637 Y51.121 A144.54671
G1 X24.705 Y50.573 A144.88594
G1 X23.807 Y49.977 A145.22403
G1 X22.938 Y49.328 A145.56428
G1 X22.393 Y48.880 A145.78535
G1 X21.587 Y48.154 A146.12559
G1 X20.826 Y47.388 A146.46428
G1 X20.198 Y46.686 A146.75958
G1 X19.660 Y46.027 A147.02661
G1 X19.097 Y45.268 A147.32292
G1 X18.622 Y44.564 A147.58943
G1 X18.060 Y43.632 A147.93078
G1 X17.724 Y43.012 A148.15184
G1 X17.252 Y42.036 A148.49206
G1 X16.836 Y41.042 A148.83011
G1 X16.474 Y40.019 A149.17032
G1 X16.269 Y39.345 A149.39137
G1 X16.003 Y38.294 A149.73158
G1 X15.796 Y37.236 A150.06963
G1 X15.647 Y36.162 A150.40984
G1 X15.581 Y35.453 A150.63305
G1 X15.542 Y34.743 A150.85603
G1 X15.533 Y33.612 A151.21092
G1 X15.565 Y32.828 A151.45700
G1 X15.676 Y31.620 A151.83741
G1 X15.788 Y30.845 A152.08301
G1 X16.022 Y29.655 A152.46342
G1 X16.212 Y28.896 A152.70903
G1 X16.567 Y27.736 A153.08943
G1 X16.836 Y26.992 A153.33745
G1 X17.135 Y26.260 A153.58547
G1 X17.652 Y25.163 A153.96588
G1 X18.022 Y24.470 A154.21219
G1 X18.562 Y23.567 A154.54250
G1 X19.090 Y22.775 A154.84108
G1 X19.558 Y22.139 A155.08865
G1 X20.222 Y21.321 A155.41915
G1 X20.958 Y20.510 A155.76280
G1 X22.192 Y20.299 F7800.000
G1 A153.76280 F2400.00000
G1 X22.163 Y39.094 F7800.000
G1 A155.76280 F2400.00000
G1 F1800
G1 X26.813 Y43.744 A157.89049
G1 X27.710 Y44.437 A158.25715
G1 X28.297 Y44.826 A158.48483
G1 X28.921 Y45.193 A158.71902
G1 X29.388 Y45.436 A158.88947
G1 X29.945 Y45.696 A159.08851
G1 X30.608 Y45.964 A159.31971
G1 X31.274 Y46.191 A159.54740
G1 X31.972 Y46.387 A159.78194
G1 X32.846 Y46.572 A160.07093
G1 X33.300 Y46.638 A160.21938
G1 X22.432 Y35.769 A165.19224
G1 X22.381 Y35.401 A165.31261
G1 X22.315 Y34.511 A165.60114
G1 X22.308 Y33.723 A165.85634
G1 X22.327 Y33.278 A166.00035
G1 X22.440 Y32.183 A166.35629
G1 X36.883 Y46.627 A172.96492
G1 X37.305 Y46.563 A173.10306
G1 X37.994 Y46.420 A173.33078
G1 X38.694 Y46.233 A173.56518
G1 X39.725 Y45.875 A173.91821
G1 X23.194 Y29.344 A181.48233
G1 X23.340 Y28.987 A181.60707
G1 X23.708 Y28.203 A181.88739
G1 X23.920 Y27.807 A182.03264
G1 X24.426 Y26.983 A182.34555
G1 X42.088 Y44.645 A190.42684
G1 X42.986 Y43.995 A190.78537
G1 X43.582 Y43.491 A191.03779
G1 X44.063 Y43.026 A191.25438
G1 X26.046 Y25.009 A199.49784
G1 X26.512 Y24.555 A199.70836
G1 X27.136 Y24.027 A199.97272
G1 X27.682 Y23.618 A200.19358
G1 X28.020 Y23.389 A200.32554
G1 X45.676 Y41.046 A208.40427
G1 X45.849 Y40.795 A208.50279
G1 X46.155 Y40.278 A208.69728
G1 X46.498 Y39.629 A208.93478
G1 X46.688 Y39.223 A209.07978
G1 X46.908 Y38.684 A209.26811
G1 X30.383 Y22.159 A216.82890
G1 X30.920 Y21.959 A217.01424
G1 X31.477 Y21.782 A217.20340
G1 X32.297 Y21.571 A217.47733
G1 X33.226 Y21.408 A217.78242
G1 X47.666 Y35.848 A224.38940
G1 X47.754 Y35.085 A224.63808
G1 X47.796 Y34.351 A224.87584
G1 X47.799 Y33.903 A225.02082
G1 X47.762 Y33.037 A225.30130
G1 X47.671 Y32.260 A225.55449
G1 X36.806 Y21.395 A230.52567
G1 X37.700 Y21.549 A230.81918
G1 X38.369 Y21.710 A231.04173
G1 X39.402 Y22.035 A231.39208
G1 X40.167 Y22.342 A231.65880
G1 X40.912 Y22.696 A231.92552
G1 X41.296 Y22.903 A232.06686
G1 X42.020 Y23.343 A232.34100
G1 X42.851 Y23.934 A232.67096
G1 X43.401 Y24.396 A232.90303
G1 X47.934 Y28.929 A234.97734
G1 Z5.000 F7800.000
G1 A232.97734 F2400.00000
G1 X20.430 Y19.090 F7800.000
G1 A234.97734 F2400.00000
G1 F300
G1 X21.073 Y18.476 A235.05804
G1 X21.722 Y17.915 A235.13600
G1 X22.392 Y17.383 A235.21367
G1 X23.092 Y16.873 A235.29240
G1 X24.153 Y16.180 A235.40753
G1 X24.897 Y15.746 A235.48577
