; generated by PrusaSlicer 2.0.0+win64 on 2019-05-28 at 21:02:44

; 

; external perimeters extrusion width = 1.13mm
; perimeters extrusion width = 1.13mm
; infill extrusion width = 1.13mm
; solid infill extrusion width = 1.13mm
; top infill extrusion width = 1.00mm
; first layer extrusion width = 1.05mm

M107
G28 ; home all axes
G1 Z307 F5000 ; lift nozzle
; Filament gcode
G21 ; set units to millimeters
G90 ; use absolute coordinates
G1 Z0.350 F7800.000
G1 A-2.00000 F2400.00000
G1 X128.260 Y112.165 F7800.000
G1 A0.00000 F2400.00000
G1 F1800
G1 X129.246 Y111.357 A0.18092
G1 X130.365 Y110.759 A0.36094
G1 X131.586 Y110.390 A0.54186
G1 X132.849 Y110.266 A0.72189
G1 X134.272 Y110.425 A0.92500
G1 X135.655 Y110.899 A1.13240
G1 X137.857 Y112.003 A1.48184
G1 X139.856 Y113.247 A1.81590
G1 X141.684 Y114.621 A2.14017
G1 X143.383 Y116.146 A2.46415
G1 X144.945 Y117.812 A2.78804
G1 X146.295 Y119.524 A3.09733
G1 X147.550 Y121.424 A3.42037
G1 X148.365 Y122.884 A3.65761
G1 X149.299 Y124.891 A3.97156
G1 X150.071 Y127.000 A4.29015
G1 X150.666 Y129.194 A4.61266
G1 X151.035 Y131.186 A4.90007
G1 X151.228 Y132.891 A5.14344
G1 X151.313 Y135.066 A5.45227
G1 X151.211 Y137.328 A5.77347
G1 X150.951 Y139.349 A6.06247
G1 X150.615 Y141.027 A6.30534
G1 X149.997 Y143.226 A6.62929
G1 X149.233 Y145.268 A6.93857
G1 X148.261 Y147.317 A7.26035
G1 X147.114 Y149.280 A7.58280
G1 X145.849 Y151.074 A7.89431
G1 X144.371 Y152.833 A8.22017
G1 X143.261 Y153.971 A8.44564
G1 X141.643 Y155.412 A8.75304
G1 X139.743 Y156.829 A9.08926
G1 X137.777 Y158.041 A9.41694
G1 X135.364 Y159.225 A9.79814
G1 X134.134 Y159.604 A9.98083
G1 X132.846 Y159.734 A10.16442
G1 X131.701 Y159.632 A10.32756
G1 X130.591 Y159.329 A10.49070
G1 X129.552 Y158.836 A10.65384
G1 X128.612 Y158.162 A10.81787
G1 X127.811 Y157.338 A10.98101
G1 X127.168 Y156.384 A11.14416
G1 X126.703 Y155.332 A11.30730
G1 X126.431 Y154.215 A11.47044
G1 X126.358 Y153.256 A11.60689
G1 X126.358 Y116.754 A16.78505
G1 X126.482 Y115.491 A16.96508
G1 X126.852 Y114.270 A17.14600
G1 X127.450 Y113.151 A17.32602
G1 X128.164 Y112.281 A17.48566
G1 A15.48566 F2400.00000
G1 X135.320 Y148.981 F7800.000
G1 A17.48566 F2400.00000
G1 F1800
G1 X135.320 Y121.017 A21.45269
G1 X135.995 Y121.547 A21.57440
G1 X136.514 Y121.992 A21.67147
G1 X137.180 Y122.616 A21.80086
G1 X137.647 Y123.096 A21.89596
G1 X138.146 Y123.653 A22.00195
G1 X138.752 Y124.401 A22.13852
G1 X139.139 Y124.922 A22.23059
G1 X139.563 Y125.549 A22.33791
G1 X139.959 Y126.193 A22.44520
G1 X140.262 Y126.733 A22.53311
G1 X140.719 Y127.641 A22.67723
G1 X141.020 Y128.324 A22.78310
G1 X141.294 Y129.026 A22.89007
G1 X141.538 Y129.743 A22.99743
G1 X141.707 Y130.312 A23.08174
G1 X141.961 Y131.344 A23.23248
G1 X142.077 Y131.923 A23.31627
G1 X142.194 Y132.668 A23.42315
G1 X142.278 Y133.415 A23.52981
G1 X142.320 Y133.999 A23.61292
G1 X142.350 Y135.071 A23.76505
G1 X142.332 Y135.813 A23.87029
G1 X142.294 Y136.396 A23.95312
G1 X142.175 Y137.463 A24.10546
G1 X142.083 Y138.042 A24.18868
G1 X141.935 Y138.782 A24.29572
G1 X141.756 Y139.512 A24.40239
G1 X141.548 Y140.225 A24.50766
G1 X141.205 Y141.208 A24.65547
G1 X140.981 Y141.769 A24.74113
G1 X140.673 Y142.457 A24.84803
G1 X140.335 Y143.132 A24.95509
G1 X140.032 Y143.679 A25.04376
G1 X139.511 Y144.531 A25.18546
G1 X139.092 Y145.143 A25.29073
G1 X138.641 Y145.745 A25.39741
G1 X138.162 Y146.329 A25.50458
G1 X137.721 Y146.823 A25.59852
G1 X137.078 Y147.483 A25.72922
G1 X136.590 Y147.941 A25.82408
G1 X136.023 Y148.429 A25.93023
G1 X135.438 Y148.889 A26.03577
G1 A24.03577 F2400.00000
G1 X134.345 Y150.813 F7800.000
G1 A26.03577 F2400.00000
G1 F1800
G1 X134.345 Y119.185 A30.52250
G1 X135.328 Y119.827 A30.68900
G1 X135.982 Y120.297 A30.80320
G1 X136.614 Y120.793 A30.91720
G1 X137.165 Y121.266 A31.02028
G1 X137.862 Y121.920 A31.15586
G1 X138.360 Y122.431 A31.25697
G1 X138.888 Y123.020 A31.36930
G1 X139.523 Y123.804 A31.51227
G1 X139.934 Y124.358 A31.61025
G1 X140.382 Y125.019 A31.72352
G1 X140.800 Y125.699 A31.83669
G1 X141.123 Y126.276 A31.93055
G1 X141.601 Y127.225 A32.08124
G1 X141.920 Y127.950 A32.19361
G1 X142.210 Y128.692 A32.30657
G1 X142.467 Y129.447 A32.41971
G1 X142.648 Y130.057 A32.51005
G1 X142.913 Y131.132 A32.66714
G1 X143.037 Y131.752 A32.75686
G1 X143.160 Y132.537 A32.86955
G1 X143.249 Y133.325 A32.98208
G1 X143.294 Y133.951 A33.07103
G1 X143.325 Y135.069 A33.22977
G1 X143.306 Y135.857 A33.34145
G1 X143.265 Y136.481 A33.43027
G1 X143.141 Y137.593 A33.58897
G1 X143.043 Y138.214 A33.67815
G1 X142.887 Y138.994 A33.79098
G1 X142.698 Y139.765 A33.90363
G1 X142.477 Y140.522 A34.01548
G1 X142.118 Y141.550 A34.16988
G1 X141.879 Y142.149 A34.26142
G1 X141.554 Y142.875 A34.37420
G1 X141.198 Y143.587 A34.48715
G1 X140.875 Y144.170 A34.58174
G1 X140.329 Y145.061 A34.72994
G1 X139.884 Y145.711 A34.84167
G1 X139.408 Y146.346 A34.95433
G1 X138.903 Y146.963 A35.06737
G1 X138.434 Y147.488 A35.16728
G1 X137.761 Y148.179 A35.30417
G1 X137.242 Y148.666 A35.40502
G1 X136.643 Y149.182 A35.51722
G1 X135.939 Y149.735 A35.64430
G1 X135.300 Y150.192 A35.75571
G1 X134.471 Y150.732 A35.89597
G1 A33.89597 F2400.00000
G1 X133.371 Y152.444 F7800.000
G1 A35.89597 F2400.00000
G1 F1800
G1 X133.371 Y117.556 A40.84519
G1 X134.390 Y118.099 A41.00906
G1 X135.198 Y118.578 A41.14235
G1 X135.879 Y119.023 A41.25768
G1 X136.568 Y119.517 A41.37793
G1 X137.233 Y120.040 A41.49790
G1 X137.816 Y120.541 A41.60701
G1 X138.545 Y121.224 A41.74878
G1 X139.072 Y121.765 A41.85589
G1 X139.631 Y122.388 A41.97457
G1 X140.293 Y123.206 A42.12394
G1 X140.729 Y123.794 A42.22781
G1 X141.201 Y124.490 A42.34704
G1 X141.641 Y125.205 A42.46608
G1 X141.985 Y125.819 A42.56590
G1 X142.483 Y126.809 A42.72317
G1 X142.821 Y127.576 A42.84204
G1 X143.126 Y128.357 A42.96099
G1 X143.396 Y129.150 A43.07991
G1 X143.589 Y129.802 A43.17626
G1 X143.865 Y130.920 A43.33971
G1 X143.997 Y131.582 A43.43536
G1 X144.126 Y132.407 A43.55385
G1 X144.220 Y133.236 A43.67226
G1 X144.268 Y133.903 A43.76705
G1 X144.301 Y135.068 A43.93240
G1 X144.280 Y135.900 A44.05053
G1 X144.237 Y136.567 A44.14532
G1 X144.107 Y137.723 A44.31039
G1 X144.003 Y138.386 A44.40553
G1 X143.839 Y139.206 A44.52416
G1 X143.639 Y140.018 A44.64278
G1 X143.405 Y140.819 A44.76121
G1 X143.032 Y141.891 A44.92219
G1 X142.777 Y142.529 A45.01962
G1 X142.436 Y143.292 A45.13828
G1 X142.061 Y144.041 A45.25711
G1 X141.717 Y144.661 A45.35762
G1 X141.148 Y145.591 A45.51232
G1 X140.677 Y146.279 A45.63052
G1 X140.176 Y146.948 A45.74916
G1 X139.644 Y147.596 A45.86807
G1 X139.148 Y148.153 A45.97395
G1 X138.444 Y148.876 A46.11703
G1 X137.894 Y149.391 A46.22388
G1 X137.263 Y149.935 A46.34212
G1 X136.523 Y150.516 A46.47549
G1 X135.849 Y150.997 A46.59302
G1 X135.150 Y151.453 A46.71148
G1 X134.425 Y151.881 A46.83081
G1 X133.503 Y152.374 A46.97917
G1 X133.717 Y151.506 F7800.000
G1 A44.97917 F2400.00000
G1 X136.670 Y147.465 F7800.000
G1 A46.97917 F2400.00000
G1 F1800
G1 X136.052 Y146.847 A47.10777
G1 X136.052 Y145.417 A47.31798
G1 X137.074 Y146.440 A47.53065
G1 X137.746 Y145.683 A47.67956
G1 X136.052 Y143.988 A48.03205
G1 X136.052 Y142.559 A48.24227
G1 X138.374 Y144.881 A48.72535
G1 X138.957 Y144.035 A48.87651
G1 X136.052 Y141.129 A49.48081
G1 X136.052 Y139.700 A49.69102
G1 X139.494 Y143.142 A50.40700
G1 X139.983 Y142.202 A50.56286
G1 X136.052 Y138.271 A51.38061
G1 X136.052 Y136.841 A51.59083
G1 X140.418 Y141.208 A52.49899
G1 X140.797 Y140.157 A52.66321
G1 X136.052 Y135.412 A53.65022
G1 X136.052 Y133.983 A53.86044
G1 X141.117 Y139.048 A54.91399
G1 X141.221 Y138.623 A54.97831
G1 X141.370 Y137.871 A55.09101
G1 X136.052 Y132.553 A56.19715
G1 X136.052 Y131.124 A56.40737
G1 X141.535 Y136.607 A57.54779
G1 X141.601 Y135.780 A57.66979
G1 X141.614 Y135.257 A57.74673
G1 X136.051 Y129.694 A58.90370
G1 X136.051 Y128.265 A59.11392
G1 X141.572 Y133.785 A60.26205
G1 X141.469 Y132.766 A60.41276
G1 X141.374 Y132.158 A60.50325
G1 X136.051 Y126.836 A61.61018
G1 X136.051 Y125.406 A61.82040
G1 X140.939 Y130.294 A62.83697
G1 X140.607 Y129.277 A62.99427
G1 X140.344 Y128.604 A63.10050
G1 X140.081 Y128.006 A63.19667
G1 X136.051 Y123.977 A64.03467
G1 X136.051 Y122.561 A64.24297
G1 X139.487 Y125.983 A64.95615
G1 Z0.650 F7800.000
G1 X133.791 Y150.080
G1 F3600
G1 X132.963 Y150.537 A65.08187
G1 X132.346 Y150.836 A65.17303
G1 X131.514 Y151.204 A65.47015
G1 X130.643 Y151.531 A65.77371
G1 X130.009 Y151.736 A65.99134
G1 X129.138 Y151.975 A66.28637
G1 X128.268 Y152.166 A66.57713
G1 X127.615 Y152.281 A66.79359
G1 X126.564 Y152.408 A67.13945
G1 X125.500 Y152.478 A67.48737
G1 X124.818 Y152.487 A67.71003
G1 X123.798 Y152.449 A68.04333
G1 X123.106 Y152.391 A68.27034
G1 X122.405 Y152.303 A68.50091
G1 X121.585 Y152.163 A68.77261
G1 X120.778 Y151.984 A69.04253
G1 X119.577 Y151.645 A69.44986
G1 X118.792 Y151.372 A69.72120
G1 X118.111 Y151.100 A69.96088
G1 X117.374 Y150.768 A70.22476
G1 X116.666 Y150.409 A70.48388
G1 X116.024 Y150.047 A70.72465
G1 X115.360 Y149.633 A70.98004
G1 X114.748 Y149.214 A71.22233
G1 X114.133 Y148.753 A71.47322
G1 X113.592 Y148.308 A71.70187
G1 X113.592 Y121.692 A80.39309
G1 X114.132 Y121.249 A80.62111
G1 X114.753 Y120.783 A80.87451
G1 X115.373 Y120.358 A81.12013
G1 X116.011 Y119.961 A81.36541
G1 X116.661 Y119.594 A81.60917
G1 X117.385 Y119.227 A81.87403
G1 X118.150 Y118.884 A82.14786
G1 X118.774 Y118.634 A82.36740
G1 X119.387 Y118.417 A82.57994
G1 X120.093 Y118.198 A82.82128
G1 X120.921 Y117.980 A83.10089
G1 X121.643 Y117.826 A83.34188
G1 X122.368 Y117.703 A83.58200
G1 X123.256 Y117.594 A83.87422
G1 X123.987 Y117.539 A84.11355
G1 X124.914 Y117.514 A84.41620
G1 X125.647 Y117.528 A84.65574
G1 X126.767 Y117.610 A85.02242
G1 X127.690 Y117.731 A85.32630
G1 X128.393 Y117.858 A85.55963
G1 X129.346 Y118.077 A85.87877
G1 X130.047 Y118.276 A86.11690
G1 X130.736 Y118.502 A86.35338
G1 X131.685 Y118.867 A86.68557
G1 X132.346 Y119.159 A86.92144
G1 X133.155 Y119.564 A87.04170
G1 X134.045 Y120.071 A87.17786
G1 X134.635 Y120.447 A87.27080
G1 X135.499 Y121.061 A87.41168
G1 X136.061 Y121.504 A87.50678
G1 X136.601 Y121.968 A87.60148
G1 X137.392 Y122.722 A87.74678
G1 X137.885 Y123.242 A87.84201
G1 X138.363 Y123.791 A87.93865
G1 X138.807 Y124.345 A88.03302
G1 X139.454 Y125.247 A88.18066
G1 X139.840 Y125.847 A88.27543
G1 X140.376 Y126.787 A88.41927
G1 X140.862 Y127.774 A88.56548
G1 X141.137 Y128.414 A88.65801
G1 X141.523 Y129.459 A88.80608
G1 X141.734 Y130.135 A88.90019
G1 X141.928 Y130.868 A89.00106
G1 X142.146 Y131.899 A89.14107
G1 X142.307 Y132.989 A89.28753
G1 X142.375 Y133.697 A89.38199
G1 X142.414 Y134.420 A89.47831
G1 X142.423 Y135.145 A89.57464
G1 X142.402 Y135.869 A89.67096
G1 X142.351 Y136.592 A89.76728
G1 X142.272 Y137.299 A89.86175
G1 X142.090 Y138.398 A90.00990
G1 X141.941 Y139.079 A90.10249
G1 X141.651 Y140.140 A90.24876
G1 X141.295 Y141.182 A90.39499
G1 X141.031 Y141.841 A90.48938
G1 X140.740 Y142.489 A90.58376
G1 X140.232 Y143.479 A90.73175
G1 X139.883 Y144.081 A90.82422
G1 X139.276 Y145.014 A90.97213
G1 X138.859 Y145.587 A91.06630
G1 X138.417 Y146.144 A91.16079
G1 X137.686 Y146.973 A91.30782
G1 X137.187 Y147.483 A91.40255
G1 X136.719 Y147.926 A91.48824
G1 X135.985 Y148.558 A91.61693
G1 X135.237 Y149.133 A91.74235
G1 X134.465 Y149.664 A91.86694
G1 X133.919 Y150.002 A91.95222
G1 X134.329 Y151.001 F7800.000
G1 F3600
G1 X133.453 Y151.484 A92.08526
G1 X132.346 Y152.007 A92.24801
G1 X131.910 Y152.194 A92.40257
G1 X130.995 Y152.537 A92.72195
G1 X130.314 Y152.757 A92.95541
G1 X129.393 Y153.010 A93.26732
G1 X128.474 Y153.212 A93.57454
G1 X127.771 Y153.335 A93.80763
G1 X126.663 Y153.470 A94.17219
G1 X125.542 Y153.543 A94.53896
G1 X124.806 Y153.552 A94.77937
G1 X123.734 Y153.513 A95.12946
G1 X122.995 Y153.451 A95.37188
G1 X122.249 Y153.357 A95.61737
G1 X121.380 Y153.209 A95.90515
G1 X120.528 Y153.020 A96.18993
G1 X119.895 Y152.855 A96.40364
G1 X119.247 Y152.659 A96.62462
G1 X118.420 Y152.371 A96.91081
G1 X117.694 Y152.081 A97.16599
G1 X116.914 Y151.729 A97.44542
G1 X116.163 Y151.348 A97.72021
G1 X115.480 Y150.963 A97.97619
G1 X114.777 Y150.525 A98.24671
G1 X114.127 Y150.080 A98.50410
G1 X113.475 Y149.591 A98.77004
G1 X112.871 Y149.095 A99.02545
G1 X112.526 Y148.779 A99.17802
G1 X112.526 Y121.221 A108.17664
G1 X112.868 Y120.907 A108.32803
G1 X113.474 Y120.410 A108.58392
G1 X114.132 Y119.917 A108.85248
G1 X114.791 Y119.466 A109.11322
G1 X115.467 Y119.045 A109.37345
G1 X116.158 Y118.655 A109.63246
G1 X116.925 Y118.265 A109.91344
G1 X117.734 Y117.903 A110.20261
G1 X118.398 Y117.637 A110.43619
G1 X119.051 Y117.405 A110.66265
G1 X119.800 Y117.173 A110.91854
G1 X120.674 Y116.943 A111.21391
G1 X121.443 Y116.779 A111.47036
G1 X122.214 Y116.648 A111.72595
G1 X123.152 Y116.533 A112.03432
G1 X123.933 Y116.474 A112.29023
G1 X124.910 Y116.448 A112.60938
G1 X125.697 Y116.464 A112.86624
G1 X126.875 Y116.550 A113.25208
G1 X127.854 Y116.677 A113.57431
G1 X128.608 Y116.814 A113.82454
G1 X129.610 Y117.045 A114.16050
G1 X130.359 Y117.256 A114.41440
G1 X131.094 Y117.497 A114.66697
G1 X132.346 Y117.994 A115.10678
G1 X132.801 Y118.196 A115.17302
G1 X133.657 Y118.624 A115.30020
G1 X134.595 Y119.158 A115.44367
G1 X135.230 Y119.562 A115.54374
G1 X136.138 Y120.207 A115.69175
G1 X136.738 Y120.681 A115.79338
G1 X137.316 Y121.178 A115.89467
G1 X138.147 Y121.970 A116.04722
G1 X138.674 Y122.526 A116.14903
G1 X139.181 Y123.107 A116.25158
G1 X139.656 Y123.701 A116.35262
G1 X140.336 Y124.648 A116.50766
G1 X140.751 Y125.295 A116.60977
G1 X141.318 Y126.287 A116.76162
G1 X141.830 Y127.328 A116.91586
G1 X142.127 Y128.019 A117.01571
G1 X142.532 Y129.115 A117.17111
G1 X142.758 Y129.840 A117.27194
G1 X142.965 Y130.622 A117.37947
G1 X143.195 Y131.711 A117.52742
G1 X143.366 Y132.860 A117.68188
G1 X143.438 Y133.617 A117.78294
G1 X143.479 Y134.385 A117.88513
G1 X143.489 Y135.154 A117.98732
G1 X143.467 Y135.922 A118.08951
G1 X143.413 Y136.689 A118.19170
G1 X143.328 Y137.445 A118.29276
G1 X143.137 Y138.599 A118.44825
G1 X142.977 Y139.334 A118.54817
G1 X142.670 Y140.454 A118.70250
G1 X142.295 Y141.552 A118.85679
G1 X142.012 Y142.258 A118.95778
G1 X141.701 Y142.950 A119.05874
G1 X141.168 Y143.990 A119.21406
G1 X140.791 Y144.640 A119.31385
G1 X140.154 Y145.618 A119.46907
G1 X139.708 Y146.232 A119.56986
G1 X139.235 Y146.828 A119.67100
G1 X138.467 Y147.699 A119.82535
G1 X137.934 Y148.243 A119.92654
G1 X137.433 Y148.717 A120.01830
G1 X136.658 Y149.384 A120.15413
G1 X135.865 Y149.995 A120.28725
G1 X135.047 Y150.557 A120.41910
G1 X134.457 Y150.922 A120.51133
G1 X134.889 Y151.907 F7800.000
G1 F1800
G1 X133.942 Y152.431 A120.65519
G1 X133.005 Y152.885 A120.79361
G1 X132.346 Y153.166 A120.88890
G1 F3600
G1 X131.346 Y153.543 A121.23771
G1 X130.620 Y153.779 A121.48701
G1 X129.649 Y154.045 A121.81579
G1 X128.680 Y154.258 A122.13948
G1 X127.927 Y154.390 A122.38919
G1 X126.762 Y154.531 A122.77246
G1 X125.584 Y154.608 A123.15808
G1 X124.793 Y154.618 A123.41624
G1 X123.670 Y154.577 A123.78312
G1 X122.883 Y154.511 A124.04095
G1 X122.092 Y154.412 A124.30135
G1 X121.175 Y154.255 A124.60522
G1 X120.279 Y154.057 A124.90485
G1 X119.606 Y153.881 A125.13205
G1 X118.918 Y153.672 A125.36684
G1 X118.047 Y153.369 A125.66788
G1 X117.277 Y153.062 A125.93855
G1 X116.453 Y152.691 A126.23354
G1 X115.660 Y152.288 A126.52398
G1 X114.937 Y151.880 A126.79518
G1 X114.194 Y151.418 A127.08083
G1 X113.506 Y150.946 A127.35332
G1 X112.817 Y150.430 A127.63430
G1 X112.172 Y149.900 A127.90689
G1 X111.461 Y149.247 A128.22209
G1 X111.461 Y120.752 A137.52658
G1 X112.169 Y120.102 A137.84057
G1 X112.816 Y119.572 A138.11366
G1 X113.511 Y119.050 A138.39738
G1 X114.208 Y118.573 A138.67322
G1 X114.923 Y118.128 A138.94841
G1 X115.655 Y117.715 A139.22266
G1 X116.466 Y117.303 A139.51977
G1 X117.317 Y116.922 A139.82428
G1 X118.021 Y116.640 A140.07190
G1 X118.715 Y116.394 A140.31228
G1 X119.506 Y116.148 A140.58272
G1 X120.428 Y115.906 A140.89386
G1 X121.242 Y115.732 A141.16577
G1 X122.060 Y115.593 A141.43682
G1 X123.047 Y115.472 A141.76134
G1 X123.879 Y115.410 A142.03384
G1 X124.906 Y115.382 A142.36949
G1 X125.746 Y115.399 A142.64366
G1 X126.983 Y115.489 A143.04866
G1 X128.017 Y115.624 A143.38924
G1 X128.822 Y115.769 A143.65638
G1 X129.875 Y116.012 A144.00915
G1 X130.670 Y116.237 A144.27882
G1 X131.452 Y116.493 A144.54748
G1 X132.346 Y116.838 A144.86031
G1 F1800
G1 X133.256 Y117.231 A144.99210
G1 X134.159 Y117.684 A145.12641
G1 X135.146 Y118.245 A145.27721
G1 X135.826 Y118.678 A145.38441
G1 X136.777 Y119.354 A145.53954
G1 X137.416 Y119.859 A145.64770
G1 X138.031 Y120.387 A145.75557
G1 X138.902 Y121.217 A145.91538
G1 X139.463 Y121.809 A146.02377
G1 X139.999 Y122.424 A146.13223
G1 X140.505 Y123.057 A146.23993
G1 X141.218 Y124.050 A146.40238
G1 X141.663 Y124.743 A146.51183
G1 X142.260 Y125.787 A146.67168
G1 X142.799 Y126.882 A146.83396
G1 X143.117 Y127.623 A146.94113
G1 X143.541 Y128.772 A147.10386
G1 X143.782 Y129.544 A147.21141
G1 X144.002 Y130.375 A147.32559
G1 X144.245 Y131.522 A147.48148
G1 X144.424 Y132.731 A147.64395
G1 X144.501 Y133.538 A147.75161
G1 X144.545 Y134.350 A147.85967
G1 X144.555 Y135.163 A147.96772
G1 X144.531 Y135.975 A148.07578
G1 X144.474 Y136.786 A148.18383
G1 X144.384 Y137.591 A148.29149
G1 X144.184 Y138.800 A148.45431
G1 X144.012 Y139.588 A148.56156
G1 X143.689 Y140.767 A148.72395
G1 X143.294 Y141.923 A148.88631
G1 X142.994 Y142.674 A148.99389
G1 X142.662 Y143.412 A149.10145
G1 X142.103 Y144.501 A149.26409
G1 X141.699 Y145.198 A149.37120
G1 X141.032 Y146.223 A149.53374
G1 X140.556 Y146.876 A149.64115
G1 X140.052 Y147.512 A149.74892
G1 X139.248 Y148.424 A149.91060
G1 X138.682 Y149.003 A150.01824
G1 X138.146 Y149.509 A150.11608
G1 X137.331 Y150.211 A150.25904
G1 X136.492 Y150.857 A150.39986
G1 X135.629 Y151.450 A150.53899
G1 X135.017 Y151.828 A150.63465
G1 X134.020 Y151.413 F7800.000
G1 X135.296 Y148.685
G1 F3600
G1 X135.296 Y121.908 A160.26289
G1 X135.024 Y121.694 A160.38731
G1 X134.196 Y121.106 A160.75242
G1 X134.197 Y148.888 A170.74208
G1 X133.392 Y149.397 A171.08451
G1 X133.097 Y149.559 A171.20542
G1 X133.097 Y120.442 A181.67525
G1 X132.782 Y120.263 A181.80573
G1 X131.998 Y119.871 A182.12087
G1 X131.998 Y150.125 A192.99943
G1 X131.219 Y150.470 A193.30581
G1 X130.899 Y150.590 A193.42876
G1 X130.898 Y119.412 A204.63931
G1 X130.470 Y119.247 A204.80446
G1 X129.799 Y119.028 A205.05824
G1 X129.799 Y150.972 A216.54461
G1 X128.700 Y151.261 A216.95334
G1 X128.700 Y118.740 A228.64687
G1 X128.234 Y118.633 A228.81866
G1 X127.600 Y118.519 A229.05026
G1 X127.601 Y151.480 A240.90210
G1 X126.501 Y151.618 A241.30055
G1 X126.501 Y118.384 A253.25058
G1 X125.401 Y118.315 A253.64667
G1 X125.402 Y151.688 A265.64652
G1 X124.828 Y151.695 A265.85290
G1 X124.302 Y151.676 A266.04197
G1 X124.302 Y118.322 A278.03508
G1 X123.203 Y118.398 A278.43132
G1 X123.203 Y151.605 A290.37177
G1 X122.104 Y151.449 A290.77106
G1 X122.103 Y118.550 A302.60039
G1 X121.004 Y118.776 A303.00398
G1 X121.004 Y151.224 A314.67116
G1 X119.905 Y150.915 A315.08174
G1 X119.905 Y119.085 A326.52710
G1 X118.805 Y119.474 A326.94648
G1 X118.806 Y150.525 A338.11160
G1 X117.706 Y150.049 A338.54243
G1 X117.706 Y119.952 A349.36457
G1 X117.035 Y120.292 A349.63508
G1 X116.606 Y120.534 A349.81198
G1 X116.607 Y149.467 A360.21539
G1 X115.793 Y148.970 A360.55807
G1 X115.507 Y148.775 A360.68260
G1 X115.507 Y121.226 A370.58846
G1 X115.214 Y121.426 A370.71628
G1 X114.408 Y122.046 A371.08185
G1 X114.408 Y148.560 A380.61551
G1 A378.61551 F2400.00000
G1 X135.899 Y147.607 F7800.000
G1 A380.61551 F2400.00000
G1 F1200
G1 X139.637 Y143.869 A381.34974
G1 X135.899 Y146.032 F7800.000
G1 F1200
G1 X140.209 Y141.722 A382.19633
G1 X140.546 Y140.904 A382.31930
G1 X140.887 Y139.906 A382.46581
G1 X141.051 Y139.305 A382.55232
G1 X136.378 Y143.978 A383.47020
G1 X136.378 Y142.403 A383.68897
G1 X141.458 Y137.323 A384.68673
G1 X141.555 Y136.520 A384.79919
G1 X141.604 Y135.830 A384.89526
G1 X141.610 Y135.596 A384.92778
G1 X136.378 Y140.828 A385.95555
G1 X136.378 Y139.253 A386.17432
G1 X141.593 Y134.038 A387.19868
G1 X141.514 Y133.086 A387.33142
G1 X141.444 Y132.612 A387.39788
G1 X136.378 Y137.678 A388.39291
G1 X136.378 Y136.103 A388.61167
G1 X141.199 Y131.282 A389.55860
G1 X140.966 Y130.356 A389.69125
G1 X140.867 Y130.039 A389.73736
G1 X136.378 Y134.528 A390.61908
G1 X136.378 Y132.953 A390.83784
G1 X140.456 Y128.876 A391.63876
G1 X140.136 Y128.108 A391.75420
G1 X139.975 Y127.781 A391.80485
G1 X136.378 Y131.378 A392.51135
G1 X136.378 Y129.803 A392.73011
G1 X139.434 Y126.748 A393.33026
G1 X139.156 Y126.262 A393.40802
G1 X138.839 Y125.768 A393.48956
G1 X136.378 Y128.228 A393.97288
G1 X136.378 Y126.653 A394.19164
G1 X138.184 Y124.848 A394.54627
G1 X137.472 Y123.985 A394.70168
G1 X136.378 Y125.078 A394.91649
G1 X136.378 Y123.503 A395.13525
G1 X137.047 Y122.835 A395.26658
G1 Z0.950 F7800.000
G1 X133.914 Y150.298
G1 F3600
G1 X132.830 Y150.892 A395.43084
G1 X131.925 Y151.311 A395.56346
G1 X131.340 Y151.550 A395.64742
G1 X130.401 Y151.884 A395.77990
G1 X129.457 Y152.161 A395.91065
G1 X128.488 Y152.389 A396.04297
G1 X127.868 Y152.504 A396.12673
G1 X126.871 Y152.643 A396.26056
G1 X126.232 Y152.702 A396.34588
G1 X124.925 Y152.751 A396.51969
G1 X124.271 Y152.739 A396.60655
G1 X122.969 Y152.643 A396.78013
G1 X122.334 Y152.561 A396.86523
G1 X121.347 Y152.387 A396.99843
G1 X120.738 Y152.251 A397.08131
G1 X119.802 Y151.994 A397.21037
G1 X118.828 Y151.669 A397.34686
G1 X118.226 Y151.436 A397.43259
G1 X117.331 Y151.041 A397.56268
G1 X116.747 Y150.751 A397.64929
G1 X115.914 Y150.289 A397.77589
G1 X115.129 Y149.796 A397.89912
G1 X114.379 Y149.270 A398.02083
G1 X113.678 Y148.723 A398.13903
G1 X112.977 Y148.117 A398.26216
G1 X112.320 Y147.488 A398.38310
G1 X111.698 Y146.827 A398.50374
G1 X111.259 Y146.315 A398.59340
G1 X110.705 Y145.609 A398.71259
G1 X110.396 Y145.171 A398.78386
G1 X110.200 Y144.894 A398.89460
G1 X109.647 Y144.015 A399.23378
G1 X109.217 Y143.245 A399.52180
G1 X108.829 Y142.459 A399.80795
G1 X108.480 Y141.654 A400.09446
G1 X108.234 Y141.009 A400.31988
G1 X107.959 Y140.182 A400.60436
G1 X107.731 Y139.361 A400.88288
G1 X107.490 Y138.264 A401.24931
G1 X107.351 Y137.416 A401.53015
G1 X107.271 Y136.729 A401.75590
G1 X107.199 Y135.690 A402.09609
G1 X107.182 Y135.001 A402.32106
G1 X107.200 Y134.271 A402.55962
G1 X107.264 Y133.344 A402.86301
G1 X107.346 Y132.620 A403.10075
G1 X107.494 Y131.718 A403.39932
G1 X107.745 Y130.583 A403.77867
G1 X107.937 Y129.893 A404.01261
G1 X108.228 Y129.007 A404.31735
G1 X108.489 Y128.323 A404.55640
G1 X108.778 Y127.651 A404.79529
G1 X109.190 Y126.807 A405.10165
G1 X109.648 Y125.985 A405.40913
G1 X110.223 Y125.072 A405.76145
G1 X110.396 Y124.829 A405.85878
G1 X110.775 Y124.297 A405.94552
G1 X111.225 Y123.726 A406.04226
G1 X111.698 Y123.175 A406.13876
G1 X112.378 Y122.454 A406.27050
G1 X112.897 Y121.956 A406.36609
G1 X113.658 Y121.293 A406.50022
G1 X114.407 Y120.709 A406.62643
G1 X114.983 Y120.302 A406.72018
G1 X115.850 Y119.749 A406.85687
G1 X116.463 Y119.400 A406.95059
G1 X117.407 Y118.923 A407.09123
G1 X118.055 Y118.635 A407.18541
G1 X119.072 Y118.244 A407.33021
G1 X119.790 Y118.009 A407.43064
G1 X120.843 Y117.724 A407.57567
G1 X121.523 Y117.578 A407.66808
G1 X122.623 Y117.399 A407.81616
G1 X123.330 Y117.321 A407.91073
G1 X124.051 Y117.271 A408.00683
G1 X124.818 Y117.250 A408.10883
G1 X125.881 Y117.275 A408.25016
G1 X126.580 Y117.327 A408.34328
G1 X127.690 Y117.467 A408.49195
G1 X128.379 Y117.590 A408.58501
G1 X129.470 Y117.842 A408.73385
G1 X130.157 Y118.039 A408.82887
G1 X130.849 Y118.268 A408.92576
G1 X131.519 Y118.521 A409.02086
G1 X132.547 Y118.971 A409.17001
G1 X133.175 Y119.285 A409.26337
G1 X134.153 Y119.838 A409.41269
G1 X134.746 Y120.216 A409.50615
G1 X135.663 Y120.867 A409.65562
G1 X136.226 Y121.313 A409.75101
G1 X136.780 Y121.790 A409.84829
G1 X137.305 Y122.281 A409.94376
G1 X138.087 Y123.092 A410.09347
G1 X138.549 Y123.624 A410.18717
G1 X139.244 Y124.511 A410.33700
G1 X139.658 Y125.100 A410.43261
G1 X140.047 Y125.705 A410.52825
G1 X140.607 Y126.685 A410.67822
G1 X140.931 Y127.328 A410.77392
G1 X141.235 Y127.996 A410.87149
G1 X141.505 Y128.664 A410.96722
G1 X141.870 Y129.718 A411.11546
G1 X142.169 Y130.793 A411.26374
G1 X142.326 Y131.496 A411.35953
G1 X142.454 Y132.205 A411.45533
G1 X142.596 Y133.326 A411.60551
G1 X142.650 Y134.045 A411.70132
G1 X142.673 Y134.766 A411.79713
G1 X142.652 Y135.895 A411.94733
G1 X142.602 Y136.615 A412.04314
G1 X142.520 Y137.345 A412.14080
G1 X142.409 Y138.060 A412.23692
G1 X142.201 Y139.070 A412.37403
G1 X141.998 Y139.854 A412.48163
G1 X141.691 Y140.825 A412.61712
G1 X141.402 Y141.601 A412.72718
G1 X141.117 Y142.273 A412.82411
G1 X140.802 Y142.936 A412.92167
G1 X140.467 Y143.573 A413.01736
G1 X139.891 Y144.543 A413.16732
G1 X139.500 Y145.130 A413.26110
G1 X138.827 Y146.035 A413.41095
G1 X138.378 Y146.579 A413.50466
G1 X137.615 Y147.410 A413.65459
G1 X137.138 Y147.880 A413.74355
G1 X136.384 Y148.555 A413.87803
G1 X135.893 Y148.955 A413.96223
G1 X135.080 Y149.558 A414.09679
G1 X134.554 Y149.910 A414.18092
G1 X134.042 Y150.221 A414.26049
G1 X134.467 Y151.210 F7800.000
G1 F3600
G1 X133.305 Y151.846 A414.43655
G1 X132.350 Y152.288 A414.57638
G1 X131.720 Y152.546 A414.66688
G1 X130.729 Y152.898 A414.80657
G1 X129.729 Y153.192 A414.94516
G1 X128.707 Y153.432 A415.08467
G1 X128.039 Y153.556 A415.17497
G1 X126.993 Y153.702 A415.31532
G1 X126.310 Y153.765 A415.40652
G1 X125.618 Y153.804 A415.49868
G1 X124.925 Y153.817 A415.59079
G1 X124.232 Y153.804 A415.68287
G1 X123.541 Y153.766 A415.77490
G1 X122.852 Y153.703 A415.86689
G1 X122.173 Y153.615 A415.95785
G1 X121.137 Y153.432 A416.09761
G1 X120.481 Y153.285 A416.18704
G1 X119.492 Y153.014 A416.32327
G1 X118.466 Y152.672 A416.46705
G1 X117.819 Y152.421 A416.55937
G1 X116.878 Y152.006 A416.69595
G1 X116.251 Y151.694 A416.78903
G1 X115.373 Y151.207 A416.92256
G1 X114.539 Y150.685 A417.05327
G1 X113.745 Y150.127 A417.18231
G1 X113.002 Y149.546 A417.30761
G1 X112.260 Y148.906 A417.43791
G1 X111.563 Y148.238 A417.56619
G1 X110.906 Y147.539 A417.69366
G1 X110.396 Y146.942 A417.79810
G1 X109.850 Y146.246 A418.08677
G1 X109.313 Y145.486 A418.39073
G1 X108.730 Y144.559 A418.74824
G1 X108.274 Y143.741 A419.05403
G1 X107.862 Y142.908 A419.35762
G1 X107.493 Y142.056 A419.66053
G1 X107.230 Y141.367 A419.90141
G1 X106.940 Y140.493 A420.20224
G1 X106.696 Y139.617 A420.49890
G1 X106.443 Y138.465 A420.88420
G1 X106.296 Y137.564 A421.18242
G1 X106.210 Y136.828 A421.42437
G1 X106.134 Y135.740 A421.78054
G1 X106.116 Y135.001 A422.02193
G1 X106.136 Y134.221 A422.27652
G1 X106.202 Y133.247 A422.59539
G1 X106.290 Y132.473 A422.84958
G1 X106.447 Y131.517 A423.16616
G1 X106.710 Y130.325 A423.56451
G1 X106.917 Y129.584 A423.81583
G1 X107.223 Y128.650 A424.13678
G1 X107.502 Y127.922 A424.39138
G1 X107.810 Y127.206 A424.64574
G1 X108.245 Y126.314 A424.96976
G1 X108.731 Y125.441 A425.29610
G1 X109.337 Y124.478 A425.66775
G1 X109.922 Y123.658 A425.99651
G1 X110.396 Y123.056 A426.24667
G1 X110.905 Y122.461 A426.35079
G1 X111.621 Y121.704 A426.48934
G1 X112.177 Y121.169 A426.59187
G1 X112.980 Y120.471 A426.73328
G1 X113.771 Y119.853 A426.86662
G1 X114.389 Y119.417 A426.96715
G1 X115.300 Y118.836 A427.11074
G1 X115.959 Y118.461 A427.21150
G1 X116.950 Y117.960 A427.35917
G1 X117.647 Y117.650 A427.46048
G1 X118.714 Y117.240 A427.61253
G1 X119.485 Y116.988 A427.72027
G1 X120.592 Y116.689 A427.87263
G1 X121.325 Y116.530 A427.97232
G1 X122.478 Y116.343 A428.12766
G1 X123.234 Y116.259 A428.22874
G1 X124.000 Y116.206 A428.33077
G1 X124.817 Y116.184 A428.43935
G1 X125.933 Y116.211 A428.58778
G1 X126.686 Y116.266 A428.68809
G1 X127.850 Y116.413 A428.84401
G1 X128.593 Y116.545 A428.94433
G1 X129.737 Y116.810 A429.10044
G1 X130.472 Y117.020 A429.20199
G1 X131.205 Y117.263 A429.30470
G1 X131.921 Y117.534 A429.40634
G1 X132.999 Y118.005 A429.56278
G1 X133.676 Y118.344 A429.66342
G1 X134.702 Y118.924 A429.82002
G1 X135.341 Y119.331 A429.92077
G1 X136.303 Y120.015 A430.07753
G1 X136.904 Y120.491 A430.17950
G1 X137.492 Y120.997 A430.28262
G1 X138.053 Y121.521 A430.38466
G1 X138.873 Y122.372 A430.54168
G1 X139.372 Y122.945 A430.64268
G1 X140.100 Y123.876 A430.79982
G1 X140.542 Y124.506 A430.90202
G1 X140.958 Y125.153 A431.00425
G1 X141.545 Y126.180 A431.16154
G1 X141.892 Y126.867 A431.26382
G1 X142.214 Y127.575 A431.36725
G1 X142.503 Y128.289 A431.46958
G1 X142.888 Y129.400 A431.62589
G1 X143.203 Y130.534 A431.78223
G1 X143.371 Y131.285 A431.88461
G1 X143.507 Y132.044 A431.98701
G1 X143.657 Y133.219 A432.14452
G1 X143.714 Y133.988 A432.24693
G1 X143.739 Y134.758 A432.34934
G1 X143.717 Y135.943 A432.50687
G1 X143.663 Y136.711 A432.60928
G1 X143.576 Y137.486 A432.71280
G1 X143.458 Y138.248 A432.81540
G1 X143.240 Y139.311 A432.95960
G1 X143.023 Y140.148 A433.07452
G1 X142.699 Y141.172 A433.21732
G1 X142.392 Y141.996 A433.33411
G1 X142.089 Y142.710 A433.43716
G1 X141.755 Y143.413 A433.54058
G1 X141.397 Y144.094 A433.64286
G1 X140.793 Y145.111 A433.80013
G1 X140.371 Y145.744 A433.90123
G1 X139.666 Y146.693 A434.05840
G1 X139.181 Y147.279 A434.15942
G1 X138.382 Y148.150 A434.31658
G1 X137.868 Y148.656 A434.41248
G1 X137.077 Y149.365 A434.55361
G1 X136.548 Y149.796 A434.64438
G1 X135.694 Y150.428 A434.78550
G1 X135.128 Y150.809 A434.87620
G1 X134.595 Y151.132 A434.95904
G1 X135.019 Y152.121 F7800.000
G1 F1800
G1 X134.754 Y152.281 A435.00018
G1 X133.780 Y152.801 A435.14696
G1 X132.776 Y153.266 A435.29399
G1 X132.100 Y153.542 A435.39104
G1 X131.058 Y153.912 A435.53793
G1 X130.001 Y154.223 A435.68437
G1 X128.927 Y154.475 A435.83107
G1 X128.211 Y154.608 A435.92790
G1 X127.116 Y154.761 A436.07479
G1 X126.389 Y154.828 A436.17186
G1 X125.657 Y154.869 A436.26923
G1 X124.925 Y154.882 A436.36656
G1 X124.193 Y154.869 A436.46385
G1 X123.463 Y154.829 A436.56109
G1 X122.735 Y154.762 A436.65829
G1 X122.012 Y154.669 A436.75510
G1 X120.928 Y154.478 A436.90141
G1 X120.223 Y154.319 A436.99740
G1 X119.183 Y154.035 A437.14081
G1 X118.104 Y153.674 A437.29189
G1 X117.411 Y153.405 A437.39078
G1 X116.426 Y152.971 A437.53385
G1 X115.755 Y152.638 A437.63340
G1 X114.831 Y152.125 A437.77388
G1 X113.950 Y151.573 A437.91206
G1 X113.110 Y150.983 A438.04843
G1 X112.325 Y150.370 A438.18083
G1 X111.542 Y149.694 A438.31830
G1 X110.806 Y148.988 A438.45392
G1 X110.396 Y148.552 A438.53343
G1 F3600
G1 X109.611 Y147.668 A438.91936
G1 X108.995 Y146.883 A439.24538
G1 X108.426 Y146.077 A439.56745
G1 X107.814 Y145.102 A439.94330
G1 X107.330 Y144.237 A440.26686
G1 X106.895 Y143.356 A440.58790
G1 X106.506 Y142.459 A440.90719
G1 X106.226 Y141.725 A441.16353
G1 X105.920 Y140.803 A441.48072
G1 X105.662 Y139.874 A441.79553
G1 X105.397 Y138.665 A442.19969
G1 X105.240 Y137.712 A442.51530
G1 X105.149 Y136.926 A442.77343
G1 X105.069 Y135.789 A443.14559
G1 X105.050 Y135.000 A443.40339
G1 X105.071 Y134.172 A443.67403
G1 X105.141 Y133.150 A444.00838
G1 X105.235 Y132.327 A444.27902
G1 X105.400 Y131.315 A444.61360
G1 X105.676 Y130.067 A445.03094
G1 X105.897 Y129.275 A445.29964
G1 X106.219 Y128.294 A445.63681
G1 X106.514 Y127.521 A445.90696
G1 X106.841 Y126.762 A446.17679
G1 X107.299 Y125.821 A446.51847
G1 X107.814 Y124.898 A446.86366
G1 X108.452 Y123.884 A447.25466
G1 X109.069 Y123.019 A447.60173
G1 X109.578 Y122.372 A447.87061
G1 X110.113 Y121.748 A448.13892
G1 X110.396 Y121.449 A448.27324
G1 F1800
G1 X110.864 Y120.953 A448.36392
G1 X111.458 Y120.382 A448.47340
G1 X112.302 Y119.648 A448.62210
G1 X113.135 Y118.998 A448.76256
G1 X113.795 Y118.532 A448.86987
G1 X114.750 Y117.924 A449.02036
G1 X115.454 Y117.522 A449.12815
G1 X116.493 Y116.997 A449.28285
G1 X117.239 Y116.666 A449.39129
G1 X118.357 Y116.235 A449.55059
G1 X119.180 Y115.966 A449.66565
G1 X120.340 Y115.653 A449.82534
G1 X121.127 Y115.483 A449.93231
G1 X122.334 Y115.287 A450.09491
G1 X123.139 Y115.198 A450.20250
G1 X123.949 Y115.141 A450.31045
G1 X124.815 Y115.118 A450.42562
G1 X125.985 Y115.146 A450.58116
G1 X126.792 Y115.206 A450.68864
G1 X128.010 Y115.359 A450.85182
G1 X128.807 Y115.501 A450.95940
G1 X130.004 Y115.778 A451.12277
G1 X130.786 Y116.002 A451.23086
G1 X131.561 Y116.259 A451.33939
G1 X132.323 Y116.546 A451.44758
G1 X133.451 Y117.040 A451.61129
G1 X134.178 Y117.403 A451.71921
G1 X135.251 Y118.010 A451.88310
G1 X135.936 Y118.447 A451.99114
G1 X136.943 Y119.162 A452.15520
G1 X137.583 Y119.669 A452.26373
G1 X138.204 Y120.204 A452.37269
G1 X138.801 Y120.762 A452.48130
G1 X139.659 Y121.652 A452.64563
G1 X140.194 Y122.267 A452.75395
G1 X140.956 Y123.241 A452.91840
G1 X141.427 Y123.911 A453.02719
G1 X141.869 Y124.600 A453.13600
G1 X142.484 Y125.675 A453.30061
G1 X142.853 Y126.406 A453.40948
G1 X143.194 Y127.155 A453.51877
G1 X143.501 Y127.914 A453.62769
G1 X143.906 Y129.083 A453.79206
G1 X144.237 Y130.275 A453.95646
G1 X144.416 Y131.075 A454.06544
G1 X144.561 Y131.882 A454.17443
G1 X144.717 Y133.113 A454.33928
G1 X144.778 Y133.930 A454.44829
G1 X144.805 Y134.750 A454.55730
G1 X144.782 Y135.990 A454.72216
G1 X144.725 Y136.808 A454.83117
G1 X144.633 Y137.626 A454.94056
G1 X144.508 Y138.437 A455.04963
G1 X144.278 Y139.552 A455.20091
G1 X144.047 Y140.443 A455.32316
G1 X143.707 Y141.519 A455.47327
G1 X143.382 Y142.390 A455.59679
G1 X143.061 Y143.146 A455.70596
G1 X142.709 Y143.889 A455.81524
G1 X142.328 Y144.614 A455.92410
G1 X141.695 Y145.679 A456.08870
G1 X141.243 Y146.358 A456.19711
G1 X140.505 Y147.351 A456.36160
G1 X139.985 Y147.979 A456.46993
G1 X139.149 Y148.891 A456.63433
G1 X138.598 Y149.433 A456.73716
G1 X137.769 Y150.175 A456.88493
G1 X137.202 Y150.638 A456.98228
G1 X136.309 Y151.299 A457.12996
G1 X135.701 Y151.707 A457.22722
G1 X135.147 Y152.043 A457.31335
G1 X134.747 Y151.974 F7800.000
G1 X118.907 Y151.357
G1 F1200
G1 X114.429 Y146.879 A458.17588
G1 X114.429 Y145.334 A458.38618
G1 X120.433 Y151.338 A459.54253
G1 X120.932 Y151.475 A459.61298
G1 X121.504 Y151.603 A459.69286
G1 X122.400 Y151.761 A459.81675
G1 X114.429 Y143.790 A461.35196
G1 X114.429 Y142.246 A461.56226
G1 X124.112 Y151.930 A463.42734
G1 X125.660 Y151.934 A463.63816
G1 X114.429 Y140.702 A465.80139
G1 X114.429 Y139.158 A466.01168
G1 X127.078 Y151.807 A468.44800
G1 X127.740 Y151.715 A468.53891
G1 X128.403 Y151.588 A468.63090
G1 X114.429 Y137.614 A471.32230
G1 X114.429 Y136.069 A471.53259
G1 X129.635 Y151.276 A474.46131
G1 X130.154 Y151.123 A474.53496
G1 X130.798 Y150.894 A474.62803
G1 X114.429 Y134.525 A477.78070
G1 X114.429 Y132.981 A477.99099
G1 X131.893 Y150.445 A481.35454
G1 X132.474 Y150.176 A481.44176
G1 X132.926 Y149.935 A481.51161
G1 X114.429 Y131.437 A485.07426
G1 X114.429 Y129.893 A485.28456
G1 X133.905 Y149.369 A489.03571
G1 X134.829 Y148.749 A489.18725
G1 X114.429 Y128.348 A493.11631
G1 X114.429 Y126.804 A493.32660
G1 X135.703 Y148.079 A497.42402
G1 X136.525 Y147.356 A497.57303
G1 X114.429 Y125.260 A501.82867
G1 X114.429 Y123.716 A502.03897
G1 X137.292 Y146.580 A506.44245
G1 X137.775 Y146.054 A506.53968
G1 X138.017 Y145.761 A506.59147
G1 X114.167 Y121.910 A511.18497
G1 X115.041 Y121.240 A511.33495
G1 X138.686 Y144.885 A515.88902
G1 X138.846 Y144.670 A515.92550
G1 X139.307 Y143.962 A516.04061
G1 X115.967 Y120.622 A520.53570
G1 X116.263 Y120.434 A520.58342
G1 X116.943 Y120.053 A520.68952
G1 X139.874 Y142.984 A525.10596
G1 X140.385 Y141.951 A525.26293
G1 X117.978 Y119.544 A529.57847
G1 X118.361 Y119.374 A529.63559
G1 X119.076 Y119.099 A529.73997
G1 X140.828 Y140.851 A533.92941
G1 X141.212 Y139.690 A534.09590
G1 X120.238 Y118.716 A538.13546
G1 X121.032 Y118.501 A538.24751
G1 X121.472 Y118.406 A538.30884
G1 X141.513 Y138.448 A542.16875
G1 X141.623 Y137.918 A542.24240
G1 X141.740 Y137.130 A542.35093
G1 X122.794 Y118.184 A545.99981
G1 X123.401 Y118.117 A546.08302
G1 X124.220 Y118.066 A546.19471
G1 X141.614 Y135.460 A549.54484
G1 X141.615 Y134.447 A549.68285
G1 X141.585 Y133.886 A549.75926
G1 X125.771 Y118.072 A552.80503
G1 X126.501 Y118.123 A552.90467
G1 X127.490 Y118.247 A553.04043
G1 X141.677 Y132.434 A555.77289
G1 X141.542 Y131.654 A555.88079
G1 X141.394 Y130.987 A555.97387
G1 X141.247 Y130.460 A556.04825
G1 X129.456 Y118.669 A558.31916
G1 X130.583 Y119.022 A558.47988
G1 X131.217 Y119.261 A558.57229
G1 X131.884 Y119.553 A558.67131
G1 X141.258 Y128.927 A560.47687
G1 X139.809 Y125.934 F7800.000
G1 F1200
G1 X133.986 Y120.111 A561.59830
G1 A559.59830 F2400.00000
G1 X107.986 Y139.035 F7800.000
G1 A561.59830 F2400.00000
G1 F3600
G1 X107.986 Y134.517 A563.14683
G1 X108.052 Y133.415 A563.52490
G1 X108.130 Y132.729 A563.76162
G1 X108.272 Y131.867 A564.06097
G1 X108.513 Y130.775 A564.44435
G1 X108.694 Y130.123 A564.67635
G1 X109.060 Y129.045 A565.06655
G1 X109.060 Y140.956 A569.14907
G1 X109.213 Y141.355 A569.29547
G1 X109.547 Y142.126 A569.58343
G1 X109.918 Y142.876 A569.87018
G1 X110.135 Y143.265 A570.02279
G1 X110.135 Y126.736 A575.68776
G1 X110.329 Y126.388 A575.82434
G1 X110.880 Y125.512 A576.17907
G1 X111.209 Y125.051 A576.37341
G1 X111.210 Y144.952 A583.19425
G1 X111.870 Y145.813 A583.56613
G1 X112.284 Y146.294 A583.78367
G1 X112.284 Y123.706 A591.52516
G1 X112.941 Y123.011 A591.85288
G1 X113.229 Y122.734 A591.99002
G1 X113.358 Y122.775 A592.03661
G1 X113.359 Y147.728 A600.58887
M106 P124.95
G1 Z1.250 F7800.000
G1 X134.070 Y150.490
G1 F3600
G1 X133.535 Y150.801 A600.67126
G1 X132.644 Y151.256 A600.80417
G1 X131.720 Y151.664 A600.93845
G1 X131.124 Y151.895 A601.02342
G1 X130.154 Y152.220 A601.15927
G1 X129.539 Y152.395 A601.24433
G1 X128.544 Y152.628 A601.38010
G1 X127.916 Y152.745 A601.46506
G1 X126.905 Y152.886 A601.60068
G1 X125.595 Y152.983 A601.77531
G1 X124.932 Y152.995 A601.86340
G1 X123.609 Y152.947 A602.03945
G1 X122.949 Y152.886 A602.12742
G1 X121.641 Y152.692 A602.30323
G1 X121.005 Y152.562 A602.38945
G1 X120.033 Y152.316 A602.52280
G1 X119.087 Y152.021 A602.65442
G1 X118.149 Y151.670 A602.78760
G1 X117.565 Y151.420 A602.87197
G1 X116.664 Y150.985 A603.00502
G1 X115.799 Y150.508 A603.13634
G1 X114.951 Y149.977 A603.26922
G1 X114.430 Y149.617 A603.35341
G1 X113.635 Y149.012 A603.48617
G1 X112.885 Y148.372 A603.61722
G1 X112.162 Y147.685 A603.74984
G1 X111.724 Y147.229 A603.83387
G1 X111.059 Y146.469 A603.96802
G1 X110.665 Y145.976 A604.05199
G1 X110.072 Y145.159 A604.18604
G1 X109.725 Y144.632 A604.26995
G1 X109.216 Y143.777 A604.40229
G1 X108.760 Y142.906 A604.53295
G1 X108.347 Y142.000 A604.66521
G1 X108.112 Y141.415 A604.74901
G1 X107.784 Y140.476 A604.88121
G1 X107.510 Y139.533 A605.01175
G1 X107.289 Y138.576 A605.14227
G1 X107.118 Y137.597 A605.27439
G1 X107.036 Y136.960 A605.35976
G1 X106.941 Y135.653 A605.53392
G1 X106.929 Y135.016 A605.61862
G1 X106.964 Y133.897 A605.76738
G1 X107.020 Y133.198 A605.86053
G1 X107.167 Y132.090 A606.00914
G1 X107.293 Y131.401 A606.10219
G1 X107.551 Y130.313 A606.25083
G1 X107.746 Y129.641 A606.34390
G1 X108.113 Y128.584 A606.49260
G1 X108.375 Y127.934 A606.58572
G1 X108.847 Y126.919 A606.73448
G1 X109.174 Y126.299 A606.82765
G1 X109.746 Y125.336 A606.97650
G1 X110.134 Y124.752 A607.06973
G1 X110.801 Y123.851 A607.21868
G1 X111.255 Y123.298 A607.31380
G1 X111.740 Y122.754 A607.41077
G1 X112.238 Y122.239 A607.50595
G1 X113.059 Y121.473 A607.65513
G1 X113.596 Y121.020 A607.74858
G1 X114.491 Y120.340 A607.89791
G1 X115.072 Y119.943 A607.99145
G1 X116.032 Y119.357 A608.14094
G1 X116.663 Y119.014 A608.23641
G1 X117.321 Y118.691 A608.33374
G1 X117.978 Y118.401 A608.42929
G1 X119.031 Y117.999 A608.57908
G1 X119.703 Y117.780 A608.67292
G1 X120.792 Y117.487 A608.82288
G1 X121.483 Y117.338 A608.91683
G1 X122.598 Y117.157 A609.06698
G1 X123.315 Y117.077 A609.16288
G1 X124.038 Y117.027 A609.25913
G1 X125.077 Y117.007 A609.39733
G1 X125.893 Y117.031 A609.50585
G1 X126.610 Y117.084 A609.60140
G1 X127.735 Y117.225 A609.75207
G1 X128.435 Y117.350 A609.84655
G1 X129.513 Y117.599 A609.99358
G1 X130.225 Y117.802 A610.09199
G1 X131.298 Y118.170 A610.24271
G1 X131.957 Y118.435 A610.33715
G1 X132.989 Y118.913 A610.48828
G1 X133.619 Y119.245 A610.58299
G1 X134.598 Y119.827 A610.73433
G1 X135.191 Y120.223 A610.82913
G1 X136.106 Y120.903 A610.98060
G1 X136.667 Y121.367 A611.07734
G1 X137.218 Y121.863 A611.17594
G1 X137.739 Y122.371 A611.27274
G1 X138.514 Y123.210 A611.42443
G1 X138.971 Y123.759 A611.51945
G1 X139.656 Y124.673 A611.67125
G1 X140.055 Y125.267 A611.76633
G1 X140.642 Y126.248 A611.91822
G1 X140.984 Y126.892 A612.01520
G1 X141.305 Y127.563 A612.11406
G1 X141.593 Y128.234 A612.21107
G1 X141.989 Y129.307 A612.36309
G1 X142.204 Y129.998 A612.45929
G1 X142.428 Y130.852 A612.57667
G1 X142.631 Y131.825 A612.70878
G1 X142.745 Y132.544 A612.80549
G1 X142.843 Y133.428 A612.92367
G1 X142.903 Y134.414 A613.05505
G1 X142.913 Y135.149 A613.15269
G1 X142.891 Y135.893 A613.25164
G1 X142.839 Y136.636 A613.35059
G1 X142.757 Y137.362 A613.44768
G1 X142.571 Y138.491 A613.59978
G1 X142.418 Y139.191 A613.69500
G1 X142.117 Y140.294 A613.84707
G1 X141.892 Y140.975 A613.94226
G1 X141.479 Y142.041 A614.09427
G1 X141.180 Y142.707 A614.19128
G1 X140.848 Y143.372 A614.29013
G1 X140.495 Y144.011 A614.38710
G1 X139.892 Y144.982 A614.53898
G1 X139.483 Y145.569 A614.63405
G1 X138.784 Y146.471 A614.78584
G1 X138.318 Y147.013 A614.88084
G1 X137.527 Y147.841 A615.03289
G1 X137.064 Y148.280 A615.11778
G1 X136.287 Y148.951 A615.25419
G1 X135.782 Y149.348 A615.33957
G1 X134.949 Y149.943 A615.47565
G1 X134.200 Y150.414 A615.59328
G1 X134.606 Y151.411 F7800.000
G1 F3600
G1 X134.045 Y151.737 A615.67955
G1 X133.102 Y152.218 A615.82029
G1 X132.128 Y152.649 A615.96181
G1 X131.485 Y152.898 A616.05340
G1 X130.469 Y153.238 A616.19582
G1 X129.806 Y153.426 A616.28741
G1 X128.764 Y153.671 A616.42972
G1 X128.087 Y153.797 A616.52121
G1 X127.028 Y153.945 A616.66337
G1 X126.336 Y154.009 A616.75576
G1 X125.634 Y154.048 A616.84911
G1 X124.932 Y154.061 A616.94242
G1 X124.231 Y154.048 A617.03569
G1 X123.530 Y154.010 A617.12892
G1 X122.832 Y153.945 A617.22210
G1 X122.137 Y153.856 A617.31525
G1 X121.446 Y153.740 A617.40835
G1 X120.768 Y153.601 A617.50042
G1 X119.743 Y153.342 A617.64092
G1 X118.742 Y153.029 A617.78034
G1 X117.753 Y152.659 A617.92066
G1 X117.124 Y152.391 A618.01152
G1 X116.174 Y151.932 A618.15169
G1 X115.258 Y151.426 A618.29079
G1 X114.365 Y150.868 A618.43080
G1 X113.804 Y150.480 A618.52146
G1 X112.967 Y149.842 A618.66134
G1 X112.172 Y149.165 A618.80016
G1 X111.410 Y148.440 A618.93989
G1 X110.938 Y147.949 A619.03038
G1 X110.241 Y147.153 A619.17100
G1 X109.817 Y146.621 A619.26142
G1 X109.196 Y145.766 A619.40193
G1 X108.822 Y145.198 A619.49229
G1 X108.285 Y144.297 A619.63173
G1 X107.802 Y143.374 A619.77013
G1 X107.368 Y142.420 A619.90948
G1 X107.114 Y141.790 A619.99973
G1 X106.768 Y140.801 A620.13902
G1 X106.479 Y139.802 A620.27730
G1 X106.244 Y138.788 A620.41555
G1 X106.064 Y137.756 A620.55476
G1 X105.977 Y137.076 A620.64593
G1 X105.914 Y136.385 A620.73808
G1 X105.876 Y135.692 A620.83034
G1 X105.863 Y135.010 A620.92110
G1 X105.899 Y133.837 A621.07695
G1 X105.960 Y133.086 A621.17722
G1 X106.114 Y131.924 A621.33298
G1 X106.250 Y131.182 A621.43319
G1 X106.520 Y130.042 A621.58899
G1 X106.731 Y129.317 A621.68923
G1 X107.115 Y128.209 A621.84509
G1 X107.397 Y127.510 A621.94537
G1 X107.892 Y126.446 A622.10130
G1 X108.244 Y125.778 A622.20163
G1 X108.843 Y124.769 A622.35766
G1 X109.261 Y124.139 A622.45806
G1 X109.960 Y123.195 A622.61419
G1 X110.445 Y122.605 A622.71576
G1 X110.960 Y122.028 A622.81847
G1 X111.491 Y121.478 A622.92012
G1 X112.351 Y120.675 A623.07648
G1 X112.930 Y120.187 A623.17712
G1 X113.868 Y119.475 A623.33364
G1 X114.494 Y119.048 A623.43438
G1 X115.500 Y118.433 A623.59106
G1 X116.174 Y118.067 A623.69301
G1 X116.870 Y117.725 A623.79611
G1 X117.573 Y117.415 A623.89815
G1 X118.676 Y116.993 A624.05515
G1 X119.399 Y116.759 A624.15620
G1 X120.541 Y116.451 A624.31339
G1 X121.285 Y116.291 A624.41456
G1 X122.454 Y116.101 A624.57194
G1 X123.220 Y116.016 A624.67435
G1 X123.990 Y115.962 A624.77699
G1 X125.083 Y115.941 A624.92221
G1 X125.949 Y115.967 A625.03737
G1 X126.716 Y116.023 A625.13967
G1 X127.895 Y116.172 A625.29759
G1 X128.648 Y116.306 A625.39929
G1 X129.779 Y116.567 A625.55351
G1 X130.544 Y116.785 A625.65923
G1 X131.669 Y117.171 A625.81734
G1 X132.380 Y117.456 A625.91912
G1 X133.461 Y117.957 A626.07755
G1 X134.140 Y118.315 A626.17954
G1 X135.166 Y118.925 A626.33816
G1 X135.805 Y119.351 A626.44025
G1 X136.764 Y120.064 A626.59902
G1 X137.363 Y120.559 A626.70231
G1 X137.947 Y121.085 A626.80676
G1 X138.503 Y121.628 A626.91012
G1 X139.315 Y122.507 A627.06912
G1 X139.808 Y123.098 A627.17144
G1 X140.525 Y124.057 A627.33055
G1 X140.955 Y124.696 A627.43294
G1 X141.570 Y125.724 A627.59214
G1 X141.935 Y126.412 A627.69571
G1 X142.276 Y127.123 A627.80041
G1 X142.583 Y127.839 A627.90402
G1 X142.998 Y128.964 A628.06336
G1 X143.229 Y129.705 A628.16648
G1 X143.465 Y130.608 A628.29066
G1 X143.679 Y131.633 A628.42975
G1 X143.801 Y132.402 A628.53320
G1 X143.905 Y133.336 A628.65819
G1 X143.969 Y134.375 A628.79653
G1 X143.978 Y135.158 A628.90055
G1 X143.956 Y135.946 A629.00536
G1 X143.900 Y136.733 A629.11017
G1 X143.813 Y137.508 A629.21386
G1 X143.618 Y138.691 A629.37328
G1 X143.453 Y139.445 A629.47583
G1 X143.137 Y140.602 A629.63521
G1 X142.896 Y141.334 A629.73773
G1 X142.462 Y142.452 A629.89706
G1 X142.143 Y143.163 A630.00065
G1 X141.791 Y143.868 A630.10535
G1 X141.415 Y144.550 A630.20891
G1 X140.782 Y145.567 A630.36810
G1 X140.343 Y146.200 A630.47048
G1 X139.609 Y147.146 A630.62957
G1 X139.107 Y147.729 A630.73188
G1 X138.280 Y148.596 A630.89108
G1 X137.779 Y149.070 A630.98276
G1 X136.965 Y149.774 A631.12574
G1 X136.422 Y150.201 A631.21769
G1 X135.548 Y150.825 A631.36042
G1 X134.736 Y151.335 A631.48787
G1 X135.142 Y152.332 F7800.000
G1 F1800
G1 X134.555 Y152.673 A631.57804
G1 X133.560 Y153.181 A631.72659
G1 X132.536 Y153.634 A631.87537
G1 X131.847 Y153.901 A631.97356
G1 X130.784 Y154.256 A632.12255
G1 X130.074 Y154.458 A632.22068
G1 X128.983 Y154.714 A632.36953
G1 X128.258 Y154.849 A632.46756
G1 X127.150 Y155.004 A632.61624
G1 X126.414 Y155.072 A632.71450
G1 X125.674 Y155.113 A632.81307
G1 X124.933 Y155.127 A632.91160
G1 X124.192 Y155.113 A633.01008
G1 X123.452 Y155.073 A633.10852
G1 X122.715 Y155.005 A633.20691
G1 X121.981 Y154.910 A633.30527
G1 X121.252 Y154.788 A633.40357
G1 X120.530 Y154.640 A633.50149
G1 X119.453 Y154.368 A633.64914
G1 X118.396 Y154.037 A633.79635
G1 X117.357 Y153.649 A633.94382
G1 X116.683 Y153.361 A634.04116
G1 X115.685 Y152.879 A634.18847
G1 X114.717 Y152.345 A634.33535
G1 X113.779 Y151.758 A634.48248
G1 X113.178 Y151.342 A634.57962
G1 X112.298 Y150.672 A634.72662
G1 X111.458 Y149.957 A634.87319
G1 X110.658 Y149.196 A635.02004
G1 X110.153 Y148.669 A635.11699
G1 X109.424 Y147.837 A635.26407
G1 X108.969 Y147.267 A635.36094
G1 X108.319 Y146.372 A635.50791
G1 X107.919 Y145.764 A635.60473
G1 X107.355 Y144.817 A635.75126
G1 X106.845 Y143.842 A635.89741
G1 X106.388 Y142.840 A636.04385
G1 X106.116 Y142.165 A636.14055
G1 X105.753 Y141.125 A636.28693
G1 X105.447 Y140.070 A636.43294
G1 X105.199 Y139.000 A636.57892
G1 X105.010 Y137.916 A636.72523
G1 X104.917 Y137.192 A636.82219
G1 X104.851 Y136.463 A636.91950
G1 X104.811 Y135.732 A637.01684
G1 X104.797 Y135.003 A637.11366
G1 X104.835 Y133.778 A637.27660
G1 X104.900 Y132.973 A637.38398
G1 X105.061 Y131.757 A637.54690
G1 X105.207 Y130.963 A637.65427
G1 X105.489 Y129.770 A637.81723
G1 X105.715 Y128.994 A637.92463
G1 X106.117 Y127.835 A638.08765
G1 X106.420 Y127.085 A638.19509
G1 X106.936 Y125.972 A638.35819
G1 X107.314 Y125.257 A638.46569
G1 X107.941 Y124.201 A638.62888
G1 X108.389 Y123.527 A638.73646
G1 X109.120 Y122.540 A638.89976
G1 X109.636 Y121.912 A639.00780
G1 X110.179 Y121.303 A639.11625
G1 X110.744 Y120.718 A639.22435
G1 X111.644 Y119.878 A639.38791
G1 X112.264 Y119.355 A639.49573
G1 X113.245 Y118.610 A639.65944
G1 X113.915 Y118.152 A639.76737
G1 X114.968 Y117.510 A639.93125
G1 X115.685 Y117.121 A640.03968
G1 X116.420 Y116.759 A640.14855
G1 X117.167 Y116.429 A640.25707
G1 X118.321 Y115.988 A640.42128
G1 X119.096 Y115.737 A640.52955
G1 X120.290 Y115.415 A640.69396
G1 X121.087 Y115.243 A640.80236
G1 X122.310 Y115.044 A640.96696
G1 X123.124 Y114.954 A641.07588
G1 X123.943 Y114.897 A641.18492
G1 X125.088 Y114.875 A641.33716
G1 X126.004 Y114.902 A641.45896
G1 X126.822 Y114.963 A641.56800
G1 X128.055 Y115.118 A641.73318
G1 X128.862 Y115.261 A641.84210
G1 X130.045 Y115.535 A642.00351
G1 X130.863 Y115.768 A642.11653
G1 X132.041 Y116.172 A642.28203
G1 X132.803 Y116.478 A642.39116
G1 X133.934 Y117.002 A642.55688
G1 X134.661 Y117.385 A642.66616
G1 X135.734 Y118.023 A642.83206
G1 X136.419 Y118.480 A642.94144
G1 X137.422 Y119.225 A643.10750
G1 X138.059 Y119.752 A643.21736
G1 X138.676 Y120.307 A643.32764
G1 X139.268 Y120.885 A643.43757
G1 X140.117 Y121.804 A643.60387
G1 X140.644 Y122.438 A643.71350
G1 X141.395 Y123.440 A643.87992
G1 X141.855 Y124.125 A643.98962
G1 X142.499 Y125.200 A644.15614
G1 X142.887 Y125.932 A644.26628
G1 X143.246 Y126.682 A644.37684
G1 X143.573 Y127.444 A644.48703
G1 X144.007 Y128.621 A644.65369
G1 X144.254 Y129.411 A644.76374
G1 X144.503 Y130.365 A644.89471
G1 X144.728 Y131.440 A645.04079
G1 X144.857 Y132.259 A645.15098
G1 X144.967 Y133.245 A645.28277
G1 X145.034 Y134.336 A645.42809
G1 X145.044 Y135.167 A645.53849
G1 X145.020 Y135.999 A645.64916
G1 X144.962 Y136.829 A645.75983
G1 X144.869 Y137.654 A645.87011
G1 X144.665 Y138.892 A646.03685
G1 X144.489 Y139.699 A646.14672
G1 X144.158 Y140.909 A646.31343
G1 X143.899 Y141.694 A646.42326
G1 X143.446 Y142.863 A646.58991
G1 X143.106 Y143.620 A646.70010
G1 X142.735 Y144.364 A646.81065
G1 X142.334 Y145.089 A646.92078
G1 X141.673 Y146.153 A647.08729
G1 X141.202 Y146.831 A647.19698
G1 X140.435 Y147.820 A647.36338
G1 X139.897 Y148.445 A647.47299
G1 X139.032 Y149.351 A647.63935
G1 X138.495 Y149.860 A647.73782
G1 X137.643 Y150.596 A647.88736
G1 X137.061 Y151.054 A647.98587
G1 X136.146 Y151.707 A648.13525
G1 X135.271 Y152.257 A648.27254
G1 X134.546 Y152.007 F7800.000
G1 X130.271 Y151.589
G1 F1200
G1 X135.313 Y146.547 A649.24165
G1 X135.313 Y145.006 A649.45113
G1 X128.831 Y151.487 A650.69700
G1 X128.323 Y151.607 A650.76800
G1 X127.740 Y151.715 A650.84865
G1 X126.952 Y151.825 A650.95668
G1 X135.313 Y143.465 A652.56375
G1 X135.313 Y141.923 A652.77323
G1 X125.297 Y151.940 A654.69856
G1 X124.293 Y151.940 A654.83495
G1 X123.783 Y151.912 A654.90436
G1 X135.313 Y140.382 A657.12060
G1 X135.313 Y138.841 A657.33008
G1 X122.394 Y151.760 A659.81343
G1 X121.504 Y151.603 A659.93624
G1 X121.100 Y151.513 A659.99250
G1 X135.313 Y137.300 A662.72452
G1 X135.313 Y135.759 A662.93400
G1 X119.890 Y151.181 A665.89857
G1 X118.749 Y150.781 A666.06294
G1 X135.313 Y134.218 A669.24687
G1 X135.313 Y132.676 A669.45635
G1 X117.671 Y150.318 A672.84743
G1 X116.753 Y149.861 A672.98686
G1 X116.753 Y150.122 A673.02230
G1 X116.478 Y149.970 A673.06498
G1 X135.313 Y131.135 A676.68544
G1 X135.313 Y129.594 A676.89492
G1 X115.518 Y149.389 A680.69997
G1 X114.900 Y148.970 A680.80145
G1 X114.614 Y148.752 A680.85035
G1 X135.313 Y128.053 A684.82921
G1 X135.313 Y126.512 A685.03869
G1 X113.758 Y148.066 A689.18200
G1 X113.420 Y147.778 A689.24240
G1 X112.951 Y147.332 A689.33034
G1 X135.313 Y124.971 A693.62880
G1 X135.313 Y123.429 A693.83828
G1 X112.192 Y146.550 A698.28260
G1 X111.482 Y145.719 A698.43118
G1 X135.288 Y121.913 A703.00724
G1 X134.400 Y121.260 A703.15709
G1 X110.825 Y144.835 A707.68878
G1 X110.403 Y144.208 A707.79156
G1 X110.219 Y143.900 A707.84032
G1 X133.461 Y120.658 A712.30792
G1 X132.778 Y120.270 A712.41469
G1 X132.465 Y120.113 A712.46230
G1 X109.665 Y142.912 A716.84488
G1 X109.478 Y142.554 A716.89976
G1 X109.166 Y141.870 A717.00197
G1 X131.605 Y119.431 A721.31530
G1 X131.217 Y119.261 A721.37285
G1 X130.501 Y118.994 A721.47681
G1 X108.731 Y140.764 A725.66144
G1 X108.545 Y140.233 A725.73793
G1 X108.360 Y139.594 A725.82835
G1 X129.323 Y118.631 A729.85787
G1 X128.067 Y118.346 A730.03290
G1 X108.061 Y138.352 A733.87853
G1 X107.910 Y137.485 A733.99818
G1 X107.858 Y137.014 A734.06259
G1 X126.721 Y118.150 A737.68852
G1 X125.842 Y118.074 A737.80844
G1 X125.270 Y118.060 A737.88624
G1 X107.739 Y135.591 A741.25605
G1 X107.728 Y135.020 A741.33364
G1 X107.759 Y134.030 A741.46828
G1 X123.693 Y118.097 A744.53112
G1 X122.731 Y118.191 A744.66252
G1 X121.926 Y118.322 A744.77327
G1 X107.945 Y132.304 A747.46091
G1 X108.076 Y131.566 A747.56275
G1 X108.379 Y130.328 A747.73597
G1 X119.890 Y118.817 A749.94861
G1 X119.340 Y118.997 A750.02728
G1 X118.361 Y119.374 A750.16981
G1 X117.750 Y119.645 A750.26065
G1 X117.286 Y119.880 A750.33138
G1 X108.382 Y128.784 A752.04297
G1 X109.867 Y125.758 F7800.000
G1 F1200
G1 X115.675 Y119.950 A753.15946
G1 X135.899 Y123.895 F7800.000
G1 F4800
G1 X138.154 Y123.291 A753.46971
G1 X141.299 Y128.360 F7800.000
G1 F4800
G1 X136.378 Y123.440 A754.39456
G1 X136.378 Y146.045 A757.39901
G1 X137.617 Y147.284 A757.63183
G1 X139.034 Y145.627 F7800.000
G1 F4800
G1 X142.457 Y132.851 A759.38988
G1 X142.185 Y138.758 F7800.000
G1 F4800
G1 X135.899 Y140.443 A760.25491
M106 P114.75
G1 Z1.550 F7800.000
G1 X134.183 Y150.686
G1 F3600
G1 X133.648 Y150.998 A760.33726
G1 X132.747 Y151.457 A760.47171
G1 X131.810 Y151.871 A760.60775
G1 X131.205 Y152.106 A760.69400
G1 X130.224 Y152.435 A760.83156
G1 X129.601 Y152.613 A760.91773
G1 X128.594 Y152.851 A761.05516
G1 X127.958 Y152.970 A761.14124
G1 X126.935 Y153.114 A761.27854
G1 X125.608 Y153.213 A761.45541
G1 X124.937 Y153.226 A761.54464
G1 X123.596 Y153.179 A761.72294
G1 X122.928 Y153.118 A761.81206
G1 X121.602 Y152.923 A761.99015
G1 X120.958 Y152.792 A762.07751
G1 X119.973 Y152.543 A762.21259
G1 X119.015 Y152.245 A762.34594
G1 X118.066 Y151.891 A762.48058
G1 X117.433 Y151.620 A762.57205
G1 X116.559 Y151.199 A762.70104
G1 X115.681 Y150.715 A762.83425
G1 X114.832 Y150.185 A762.96725
G1 X114.005 Y149.603 A763.10171
G1 X113.499 Y149.210 A763.18688
G1 X112.729 Y148.554 A763.32132
G1 X111.996 Y147.857 A763.45572
G1 X111.552 Y147.395 A763.54093
G1 X110.878 Y146.625 A763.67686
G1 X110.479 Y146.124 A763.76200
G1 X109.878 Y145.297 A763.89784
G1 X109.526 Y144.763 A763.98292
G1 X109.010 Y143.896 A764.11704
G1 X108.548 Y143.013 A764.24947
G1 X108.130 Y142.095 A764.38350
G1 X107.891 Y141.502 A764.46849
G1 X107.558 Y140.551 A764.60246
G1 X107.281 Y139.594 A764.73477
G1 X107.057 Y138.625 A764.86706
G1 X106.884 Y137.632 A765.00096
G1 X106.801 Y136.986 A765.08751
G1 X106.704 Y135.659 A765.26435
G1 X106.691 Y135.015 A765.35004
G1 X106.727 Y133.884 A765.50045
G1 X106.784 Y133.174 A765.59511
G1 X106.933 Y132.051 A765.74568
G1 X107.061 Y131.352 A765.84004
G1 X107.322 Y130.250 A765.99065
G1 X107.521 Y129.568 A766.08504
G1 X107.892 Y128.497 A766.23570
G1 X108.158 Y127.838 A766.33014
G1 X108.636 Y126.809 A766.48087
G1 X108.967 Y126.181 A766.57535
G1 X109.547 Y125.205 A766.72617
G1 X109.940 Y124.612 A766.82072
G1 X110.616 Y123.700 A766.97165
G1 X111.077 Y123.139 A767.06808
G1 X111.569 Y122.587 A767.16636
G1 X112.074 Y122.065 A767.26290
G1 X112.895 Y121.299 A767.41218
G1 X113.461 Y120.821 A767.51066
G1 X114.045 Y120.368 A767.60886
G1 X114.637 Y119.947 A767.70540
G1 X115.597 Y119.334 A767.85681
G1 X116.218 Y118.981 A767.95173
G1 X117.237 Y118.469 A768.10329
G1 X117.891 Y118.181 A768.19831
G1 X118.958 Y117.774 A768.35002
G1 X119.639 Y117.554 A768.44514
G1 X120.742 Y117.258 A768.59702
G1 X121.443 Y117.108 A768.69225
G1 X122.572 Y116.925 A768.84430
G1 X123.299 Y116.846 A768.94146
G1 X124.036 Y116.795 A769.03964
G1 X124.922 Y116.775 A769.15744
G1 X125.916 Y116.802 A769.28959
G1 X126.636 Y116.856 A769.38563
G1 X127.775 Y117.000 A769.53816
G1 X128.483 Y117.127 A769.63379
G1 X129.602 Y117.387 A769.78649
G1 X130.294 Y117.586 A769.88223
G1 X131.382 Y117.960 A770.03508
G1 X132.051 Y118.229 A770.13092
G1 X133.096 Y118.713 A770.28394
G1 X133.734 Y119.050 A770.37987
G1 X134.725 Y119.639 A770.53303
G1 X135.326 Y120.040 A770.62906
G1 X136.251 Y120.728 A770.78236
G1 X136.819 Y121.198 A770.88032
G1 X137.378 Y121.700 A770.98015
G1 X137.906 Y122.215 A771.07816
G1 X138.689 Y123.063 A771.23169
G1 X139.153 Y123.620 A771.32793
G1 X139.846 Y124.545 A771.48157
G1 X140.249 Y125.147 A771.57787
G1 X140.844 Y126.139 A771.73160
G1 X141.190 Y126.792 A771.82981
G1 X141.515 Y127.471 A771.92989
G1 X141.807 Y128.151 A772.02820
G1 X142.200 Y129.213 A772.17877
G1 X142.423 Y129.930 A772.27858
G1 X142.710 Y131.051 A772.43232
G1 X142.856 Y131.776 A772.53063
G1 X142.972 Y132.507 A772.62898
G1 X143.093 Y133.646 A772.78124
G1 X143.133 Y134.398 A772.88130
G1 X143.143 Y135.151 A772.98140
G1 X143.121 Y135.904 A773.08158
G1 X143.068 Y136.656 A773.18175
G1 X142.985 Y137.391 A773.28007
G1 X142.797 Y138.534 A773.43401
G1 X142.642 Y139.243 A773.53046
G1 X142.337 Y140.360 A773.68436
G1 X142.110 Y141.049 A773.78078
G1 X141.691 Y142.128 A773.93463
G1 X141.388 Y142.802 A774.03287
G1 X141.052 Y143.476 A774.13294
G1 X140.695 Y144.123 A774.23114
G1 X140.085 Y145.105 A774.38485
G1 X139.671 Y145.700 A774.48115
G1 X138.963 Y146.614 A774.63477
G1 X138.491 Y147.162 A774.73100
G1 X137.691 Y148.000 A774.88488
G1 X137.222 Y148.445 A774.97087
G1 X136.436 Y149.124 A775.10893
G1 X135.924 Y149.526 A775.19541
G1 X135.079 Y150.129 A775.33337
G1 X134.313 Y150.610 A775.45366
G1 X134.719 Y151.607 F7800.000
G1 F3600
G1 X134.158 Y151.933 A775.53994
G1 X133.205 Y152.420 A775.68225
G1 X132.219 Y152.856 A775.82549
G1 X131.568 Y153.108 A775.91828
G1 X130.540 Y153.453 A776.06239
G1 X129.869 Y153.645 A776.15509
G1 X128.815 Y153.893 A776.29906
G1 X128.130 Y154.022 A776.39167
G1 X127.059 Y154.172 A776.53550
G1 X126.358 Y154.238 A776.62902
G1 X125.648 Y154.278 A776.72349
G1 X124.938 Y154.292 A776.81793
G1 X124.228 Y154.280 A776.91233
G1 X123.519 Y154.242 A777.00669
G1 X122.812 Y154.177 A777.10102
G1 X122.108 Y154.087 A777.19530
G1 X121.409 Y153.971 A777.28955
G1 X120.722 Y153.831 A777.38276
G1 X119.684 Y153.570 A777.52499
G1 X118.670 Y153.254 A777.66614
G1 X117.670 Y152.881 A777.80803
G1 X116.992 Y152.591 A777.90605
G1 X116.070 Y152.146 A778.04206
G1 X115.141 Y151.634 A778.18300
G1 X114.243 Y151.073 A778.32378
G1 X113.372 Y150.460 A778.46541
G1 X112.826 Y150.037 A778.55711
G1 X112.016 Y149.346 A778.69868
G1 X111.244 Y148.613 A778.84019
G1 X110.766 Y148.115 A778.93186
G1 X110.061 Y147.309 A779.07425
G1 X109.631 Y146.770 A779.16586
G1 X109.002 Y145.904 A779.30815
G1 X108.623 Y145.329 A779.39969
G1 X108.079 Y144.416 A779.54090
G1 X107.590 Y143.481 A779.68108
G1 X107.150 Y142.515 A779.82220
G1 X106.893 Y141.877 A779.91364
G1 X106.543 Y140.875 A780.05470
G1 X106.250 Y139.863 A780.19474
G1 X106.012 Y138.837 A780.33476
G1 X105.830 Y137.792 A780.47575
G1 X105.741 Y137.102 A780.56810
G1 X105.678 Y136.403 A780.66143
G1 X105.639 Y135.700 A780.75507
G1 X105.625 Y135.009 A780.84690
G1 X105.663 Y133.824 A781.00453
G1 X105.725 Y133.061 A781.10622
G1 X105.880 Y131.884 A781.26395
G1 X106.018 Y131.133 A781.36548
G1 X106.292 Y129.978 A781.52324
G1 X106.505 Y129.244 A781.62480
G1 X106.894 Y128.122 A781.78262
G1 X107.180 Y127.414 A781.88421
G1 X107.681 Y126.336 A782.04211
G1 X108.037 Y125.660 A782.14376
G1 X108.644 Y124.638 A782.30176
G1 X109.068 Y124.000 A782.40347
G1 X109.776 Y123.044 A782.56158
G1 X110.267 Y122.446 A782.66447
G1 X110.788 Y121.862 A782.76849
G1 X111.327 Y121.305 A782.87148
G1 X112.187 Y120.502 A783.02790
G1 X112.790 Y119.992 A783.13288
G1 X113.409 Y119.512 A783.23693
G1 X114.041 Y119.063 A783.33999
G1 X115.047 Y118.421 A783.49860
G1 X115.715 Y118.042 A783.60073
G1 X116.782 Y117.505 A783.75949
G1 X117.486 Y117.195 A783.86172
G1 X118.604 Y116.769 A784.02065
G1 X119.336 Y116.532 A784.12299
G1 X120.492 Y116.222 A784.28210
G1 X121.246 Y116.060 A784.38455
G1 X122.429 Y115.869 A784.54383
G1 X123.204 Y115.784 A784.64750
G1 X123.987 Y115.730 A784.75181
G1 X124.924 Y115.709 A784.87632
G1 X125.970 Y115.737 A785.01538
G1 X126.743 Y115.795 A785.11847
G1 X127.936 Y115.946 A785.27825
G1 X128.698 Y116.083 A785.38114
G1 X129.870 Y116.356 A785.54110
G1 X130.615 Y116.570 A785.64410
G1 X131.754 Y116.961 A785.80423
G1 X132.474 Y117.251 A785.90734
G1 X133.568 Y117.758 A786.06763
G1 X134.255 Y118.120 A786.17084
G1 X135.293 Y118.737 A786.33129
G1 X135.940 Y119.168 A786.43460
G1 X136.909 Y119.889 A786.59520
G1 X137.515 Y120.390 A786.69972
G1 X138.106 Y120.922 A786.80539
G1 X138.670 Y121.472 A786.90997
G1 X139.491 Y122.360 A787.07080
G1 X139.989 Y122.959 A787.17435
G1 X140.715 Y123.928 A787.33529
G1 X141.150 Y124.576 A787.43891
G1 X141.772 Y125.615 A787.59995
G1 X142.142 Y126.312 A787.70474
G1 X142.486 Y127.031 A787.81067
G1 X142.797 Y127.756 A787.91554
G1 X143.209 Y128.869 A788.07337
G1 X143.449 Y129.639 A788.18052
G1 X143.749 Y130.814 A788.34166
G1 X143.905 Y131.587 A788.44655
G1 X144.028 Y132.367 A788.55148
G1 X144.155 Y133.561 A788.71103
G1 X144.199 Y134.362 A788.81770
G1 X144.209 Y135.160 A788.92369
G1 X144.185 Y135.957 A789.02973
G1 X144.129 Y136.753 A789.13576
G1 X144.041 Y137.537 A789.24067
G1 X143.844 Y138.734 A789.40194
G1 X143.677 Y139.497 A789.50571
G1 X143.358 Y140.667 A789.66693
G1 X143.113 Y141.409 A789.77067
G1 X142.675 Y142.539 A789.93184
G1 X142.352 Y143.259 A790.03667
G1 X141.996 Y143.972 A790.14259
G1 X141.615 Y144.662 A790.24737
G1 X140.975 Y145.691 A790.40840
G1 X140.530 Y146.331 A790.51200
G1 X139.788 Y147.288 A790.67293
G1 X139.280 Y147.878 A790.77646
G1 X138.443 Y148.755 A790.93750
G1 X137.937 Y149.235 A791.03028
G1 X137.114 Y149.946 A791.17491
G1 X136.563 Y150.379 A791.26795
G1 X135.678 Y151.011 A791.41247
G1 X134.849 Y151.531 A791.54259
G1 X135.256 Y152.527 F7800.000
G1 F1800
G1 X134.669 Y152.869 A791.63280
G1 X133.663 Y153.383 A791.78298
G1 X132.627 Y153.840 A791.93343
G1 X131.931 Y154.111 A792.03276
G1 X130.856 Y154.471 A792.18341
G1 X130.138 Y154.676 A792.28265
G1 X129.036 Y154.936 A792.43315
G1 X128.303 Y155.074 A792.53229
G1 X127.182 Y155.231 A792.68265
G1 X126.438 Y155.301 A792.78204
G1 X125.689 Y155.343 A792.88173
G1 X124.939 Y155.358 A792.98139
G1 X124.190 Y155.345 A793.08100
G1 X123.442 Y155.305 A793.18057
G1 X122.696 Y155.237 A793.28011
G1 X121.954 Y155.142 A793.37960
G1 X121.215 Y155.019 A793.47905
G1 X120.485 Y154.870 A793.57812
G1 X119.395 Y154.596 A793.72750
G1 X118.325 Y154.262 A793.87644
G1 X117.274 Y153.870 A794.02558
G1 X116.551 Y153.561 A794.13015
G1 X115.581 Y153.093 A794.27319
G1 X114.601 Y152.554 A794.42185
G1 X113.654 Y151.961 A794.57041
G1 X112.738 Y151.317 A794.71921
G1 X112.154 Y150.864 A794.81745
G1 X111.302 Y150.139 A794.96614
G1 X110.492 Y149.368 A795.11476
G1 X109.981 Y148.835 A795.21290
G1 X109.243 Y147.993 A795.36175
G1 X108.783 Y147.416 A795.45981
G1 X108.125 Y146.510 A795.60856
G1 X107.720 Y145.895 A795.70655
G1 X107.149 Y144.936 A795.85486
G1 X106.633 Y143.950 A796.00278
G1 X106.170 Y142.935 A796.15100
G1 X105.896 Y142.252 A796.24888
G1 X105.527 Y141.200 A796.39703
G1 X105.218 Y140.132 A796.54481
G1 X104.967 Y139.049 A796.69257
G1 X104.776 Y137.951 A796.84064
G1 X104.682 Y137.219 A796.93879
G1 X104.615 Y136.481 A797.03727
G1 X104.574 Y135.740 A797.13586
G1 X104.559 Y135.003 A797.23383
G1 X104.598 Y133.763 A797.39867
G1 X104.665 Y132.948 A797.50740
G1 X104.827 Y131.718 A797.67229
G1 X104.975 Y130.914 A797.78098
G1 X105.261 Y129.706 A797.94590
G1 X105.489 Y128.921 A798.05462
G1 X105.896 Y127.748 A798.21961
G1 X106.202 Y126.989 A798.32836
G1 X106.725 Y125.863 A798.49343
G1 X107.107 Y125.139 A798.60225
G1 X107.742 Y124.070 A798.76741
G1 X108.195 Y123.388 A798.87630
G1 X108.935 Y122.388 A799.04157
G1 X109.457 Y121.753 A799.15093
G1 X110.007 Y121.136 A799.26069
G1 X110.580 Y120.545 A799.37012
G1 X111.479 Y119.705 A799.53370
G1 X112.120 Y119.164 A799.64518
G1 X112.773 Y118.657 A799.75508
G1 X113.445 Y118.179 A799.86466
G1 X114.497 Y117.508 A800.03047
G1 X115.212 Y117.102 A800.13980
G1 X116.328 Y116.541 A800.30577
G1 X117.081 Y116.209 A800.41521
G1 X118.249 Y115.764 A800.58136
G1 X119.034 Y115.510 A800.69091
G1 X120.242 Y115.185 A800.85724
G1 X121.049 Y115.012 A800.96692
G1 X122.286 Y114.813 A801.13343
G1 X123.110 Y114.722 A801.24361
G1 X123.939 Y114.666 A801.35405
G1 X124.926 Y114.643 A801.48528
G1 X126.024 Y114.673 A801.63125
G1 X126.850 Y114.735 A801.74138
G1 X128.097 Y114.893 A801.90841
G1 X128.913 Y115.039 A802.01856
G1 X130.138 Y115.324 A802.18578
G1 X130.936 Y115.553 A802.29604
G1 X132.127 Y115.962 A802.46344
G1 X132.897 Y116.272 A802.57382
G1 X134.041 Y116.802 A802.74139
G1 X134.777 Y117.190 A802.85188
G1 X135.861 Y117.835 A803.01962
G1 X136.554 Y118.297 A803.13022
G1 X137.567 Y119.051 A803.29810
G1 X138.211 Y119.583 A803.40919
G1 X138.835 Y120.144 A803.52069
G1 X139.434 Y120.728 A803.63185
G1 X140.292 Y121.657 A803.79998
G1 X140.826 Y122.298 A803.91083
G1 X141.585 Y123.312 A804.07909
G1 X142.050 Y124.005 A804.19001
G1 X142.700 Y125.091 A804.35837
G1 X143.093 Y125.832 A804.46974
G1 X143.456 Y126.590 A804.58152
G1 X143.787 Y127.361 A804.69295
G1 X144.218 Y128.526 A804.85804
G1 X144.474 Y129.348 A804.97254
G1 X144.788 Y130.576 A805.14106
G1 X144.954 Y131.399 A805.25255
G1 X145.085 Y132.227 A805.36405
G1 X145.218 Y133.476 A805.53089
G1 X145.264 Y134.327 A805.64417
G1 X145.274 Y135.168 A805.75605
G1 X145.250 Y136.010 A805.86795
G1 X145.191 Y136.850 A805.97984
G1 X145.097 Y137.683 A806.09135
G1 X144.891 Y138.935 A806.25993
G1 X144.713 Y139.752 A806.37103
G1 X144.378 Y140.975 A806.53957
G1 X144.117 Y141.768 A806.65064
G1 X143.658 Y142.950 A806.81913
G1 X143.315 Y143.715 A806.93053
G1 X142.939 Y144.467 A807.04231
G1 X142.534 Y145.201 A807.15367
G1 X141.866 Y146.277 A807.32201
G1 X141.389 Y146.962 A807.43293
G1 X140.614 Y147.962 A807.60116
G1 X140.070 Y148.594 A807.71200
G1 X139.196 Y149.510 A807.88019
G1 X138.652 Y150.025 A807.97976
G1 X137.792 Y150.769 A808.13096
G1 X137.202 Y151.232 A808.23056
G1 X136.277 Y151.892 A808.38164
G1 X135.385 Y152.452 A808.52159
G1 X134.660 Y152.202 F7800.000
G1 X124.630 Y152.895
G1 F1200
G1 X107.762 Y136.027 A811.73862
G1 X107.910 Y137.485 A811.93616
G1 X107.956 Y137.750 A811.97255
G1 X122.445 Y152.239 A814.73575
G1 X121.740 Y152.136 A814.83172
G1 X121.136 Y152.012 A814.91492
G1 X120.538 Y151.862 A814.99804
G1 X108.397 Y139.720 A817.31366
G1 X108.545 Y140.233 A817.38567
G1 X108.860 Y141.134 A817.51441
G1 X109.291 Y142.143 A817.66237
G1 X119.073 Y151.926 A819.52800
G1 X116.321 Y150.703 F7800.000
G1 F1200
G1 X109.871 Y144.253 A820.75806
G1 X117.232 Y143.969 F7800.000
G1 F1200
G1 X107.745 Y134.481 A822.56747
G1 X107.762 Y133.942 A822.64026
G1 X107.846 Y133.053 A822.76069
G1 X116.753 Y141.960 A824.45948
G1 X116.753 Y140.431 A824.66568
G1 X108.046 Y131.724 A826.32615
G1 X108.334 Y130.483 A826.49803
G1 X116.753 Y138.902 A828.10368
G1 X116.753 Y137.373 A828.30989
G1 X108.703 Y129.322 A829.84523
G1 X108.861 Y128.864 A829.91059
G1 X109.125 Y128.216 A830.00499
G1 X116.753 Y135.844 A831.45967
G1 X116.753 Y134.315 A831.66588
G1 X109.615 Y127.176 A833.02729
G1 X109.890 Y126.654 A833.10696
G1 X109.707 Y126.501 A833.13916
G1 X109.990 Y126.023 A833.21407
G1 X116.753 Y132.786 A834.50379
G1 X116.753 Y131.256 A834.71000
G1 X110.584 Y125.088 A835.88647
G1 X111.234 Y124.208 A836.03392
G1 X116.753 Y129.727 A837.08649
G1 X116.753 Y128.198 A837.29270
G1 X111.934 Y123.379 A838.21182
G1 X112.678 Y122.594 A838.35768
G1 X116.753 Y126.669 A839.13480
G1 X116.753 Y125.140 A839.34101
G1 X113.471 Y121.858 A839.96696
G1 X114.017 Y121.401 A840.06305
G1 X114.203 Y121.562 A840.09628
G1 X114.488 Y121.346 A840.14451
G1 X116.753 Y123.611 A840.57650
G1 X116.753 Y122.082 A840.78271
G1 X115.375 Y120.704 A841.04550
G1 X116.262 Y120.153 A841.18628
G1 X116.396 Y120.196 A841.20532
G1 X117.232 Y121.032 A841.36480
G1 X118.081 Y120.352 F7800.000
G1 F1200
G1 X120.135 Y122.405 A841.75638
G1 X117.339 Y127.006 F7800.000
G1 F4800
G1 X121.365 Y131.032 A842.51308
G1 X121.365 Y127.789 F7800.000
G1 F4800
G1 X117.339 Y128.868 A843.06702
G1 X117.877 Y144.613 F7800.000
G1 F1200
G1 X125.671 Y152.407 A844.55345
G1 X126.849 Y152.319 A844.71286
G1 X127.079 Y152.286 A844.74416
G1 X119.885 Y145.092 A846.11615
G1 X121.414 Y145.092 A846.32235
G1 X128.397 Y152.075 A847.65396
G1 X129.626 Y151.775 A847.82461
G1 X121.951 Y144.100 A849.28838
G1 X121.951 Y142.571 A849.49458
G1 X130.784 Y151.404 A851.17928
G1 X131.504 Y151.133 A851.28300
G1 X131.877 Y150.968 A851.33801
G1 X121.951 Y141.042 A853.23109
G1 X121.951 Y139.513 A853.43730
G1 X132.913 Y150.475 A855.52800
G1 X133.265 Y150.296 A855.58119
G1 X133.896 Y149.928 A855.67967
G1 X121.951 Y137.984 A857.95772
G1 X121.951 Y136.454 A858.16393
G1 X134.825 Y149.329 A860.61923
G1 X135.706 Y148.681 A860.76672
G1 X121.951 Y134.925 A863.39008
G1 X121.951 Y133.396 A863.59629
G1 X136.536 Y147.981 A866.37785
G1 X137.127 Y147.433 A866.48651
G1 X137.317 Y147.234 A866.52375
G1 X121.951 Y131.867 A869.45437
G1 X121.951 Y130.338 A869.66057
G1 X138.055 Y146.443 A872.73197
G1 X138.344 Y146.108 A872.79157
G1 X138.739 Y145.597 A872.87864
G1 X121.951 Y128.809 A876.08046
G1 X121.951 Y127.280 A876.28666
G1 X139.384 Y144.713 A879.61141
G1 X139.972 Y143.772 A879.76105
G1 X121.951 Y125.751 A883.19798
G1 X121.951 Y124.222 A883.40418
G1 X140.507 Y142.778 A886.94318
G1 X140.988 Y141.730 A887.09870
G1 X118.561 Y119.303 A891.37595
G1 X118.561 Y118.781 A891.44632
G1 X119.293 Y118.506 A891.55181
G1 X141.409 Y140.622 A895.76967
G1 X141.571 Y140.129 A895.83959
G1 X141.759 Y139.443 A895.93559
G1 X120.474 Y118.157 A899.99505
G1 X120.930 Y118.035 A900.05870
G1 X121.718 Y117.873 A900.16727
G1 X142.043 Y138.197 A904.04347
G1 X142.194 Y137.282 A904.16860
G1 X142.240 Y136.866 A904.22505
G1 X123.051 Y117.677 A907.88469
G1 X124.072 Y117.594 A908.02280
G1 X124.488 Y117.584 A908.07892
G1 X142.335 Y135.431 A911.48262
G1 X142.334 Y134.424 A911.61842
G1 X142.304 Y133.872 A911.69306
G1 X126.046 Y117.613 A914.79387
G1 X126.556 Y117.651 A914.86291
G1 X127.774 Y117.812 A915.02852
G1 X142.105 Y132.143 A917.76170
G1 X141.931 Y131.229 A917.88722
G1 X141.660 Y130.169 A918.03477
G1 X129.753 Y118.262 A920.30551
G1 X130.054 Y118.349 A920.34770
G1 X131.103 Y118.709 A920.49727
G1 X131.734 Y118.963 A920.58897
G1 X132.198 Y119.178 A920.65803
G1 X141.639 Y128.619 A922.45854
G1 X140.147 Y125.598 F7800.000
G1 F1200
G1 X134.318 Y119.769 A923.57013
M106 P96.9
G1 Z1.850 F7800.000
G1 X134.292 Y150.875
G1 F3600
G1 X133.756 Y151.188 A923.65257
G1 X132.844 Y151.654 A923.78863
G1 X131.898 Y152.073 A923.92627
G1 X131.285 Y152.311 A924.01359
G1 X130.305 Y152.642 A924.15111
G1 X129.320 Y152.914 A924.28691
G1 X128.310 Y153.133 A924.42429
G1 X126.977 Y153.334 A924.60348
G1 X125.617 Y153.436 A924.78464
G1 X124.265 Y153.438 A924.96443
G1 X123.587 Y153.401 A925.05467
G1 X122.911 Y153.340 A925.14487
G1 X121.569 Y153.142 A925.32514
G1 X120.917 Y153.010 A925.41359
G1 X119.919 Y152.758 A925.55031
G1 X118.950 Y152.456 A925.68529
G1 X117.987 Y152.097 A925.82184
G1 X117.388 Y151.842 A925.90845
G1 X116.463 Y151.397 A926.04487
G1 X115.575 Y150.908 A926.17958
G1 X114.705 Y150.364 A926.31585
G1 X114.170 Y149.995 A926.40229
G1 X113.355 Y149.375 A926.53845
G1 X112.584 Y148.720 A926.67290
G1 X111.842 Y148.015 A926.80892
G1 X111.392 Y147.547 A926.89522
G1 X110.710 Y146.769 A927.03278
G1 X110.305 Y146.262 A927.11901
G1 X109.696 Y145.425 A927.25649
G1 X109.339 Y144.884 A927.34267
G1 X108.816 Y144.006 A927.47843
G1 X108.348 Y143.113 A927.61251
G1 X107.924 Y142.184 A927.74819
G1 X107.683 Y141.583 A927.83428
G1 X107.345 Y140.620 A927.96991
G1 X107.064 Y139.652 A928.10387
G1 X106.834 Y138.658 A928.23945
G1 X106.717 Y138.022 A928.32548
G1 X106.576 Y136.999 A928.46267
G1 X106.480 Y135.667 A928.64017
G1 X106.466 Y135.015 A928.72692
G1 X106.503 Y133.870 A928.87911
G1 X106.561 Y133.151 A928.97504
G1 X106.711 Y132.014 A929.12746
G1 X106.843 Y131.299 A929.22403
G1 X107.042 Y130.437 A929.34160
G1 X107.310 Y129.490 A929.47243
G1 X107.683 Y128.416 A929.62362
G1 X107.953 Y127.748 A929.71927
G1 X108.437 Y126.708 A929.87184
G1 X108.773 Y126.071 A929.96754
G1 X109.360 Y125.084 A930.12019
G1 X109.759 Y124.484 A930.21595
G1 X110.444 Y123.560 A930.36870
G1 X110.910 Y122.993 A930.46635
G1 X111.409 Y122.435 A930.56584
G1 X111.921 Y121.907 A930.66354
G1 X112.762 Y121.122 A930.81650
G1 X113.315 Y120.657 A930.91246
G1 X114.232 Y119.961 A931.06557
G1 X114.830 Y119.554 A931.16162
G1 X115.814 Y118.954 A931.31486
G1 X116.450 Y118.609 A931.41101
G1 X117.492 Y118.112 A931.56441
G1 X118.160 Y117.834 A931.66066
G1 X119.248 Y117.444 A931.81422
G1 X119.955 Y117.231 A931.91240
G1 X120.684 Y117.043 A932.01245
G1 X121.407 Y116.888 A932.11071
G1 X122.550 Y116.704 A932.26458
G1 X123.286 Y116.623 A932.36296
G1 X124.025 Y116.573 A932.46143
G1 X125.168 Y116.553 A932.61333
G1 X125.925 Y116.578 A932.71406
G1 X126.663 Y116.634 A932.81236
G1 X127.814 Y116.781 A932.96661
G1 X128.531 Y116.910 A933.06344
G1 X129.663 Y117.174 A933.21795
G1 X130.364 Y117.376 A933.31488
G1 X131.464 Y117.756 A933.46953
G1 X132.141 Y118.029 A933.56656
G1 X133.197 Y118.519 A933.72136
G1 X133.843 Y118.860 A933.81847
G1 X134.845 Y119.457 A933.97341
G1 X135.453 Y119.863 A934.07061
G1 X136.389 Y120.560 A934.22568
G1 X136.963 Y121.036 A934.32480
G1 X137.528 Y121.544 A934.42580
G1 X138.062 Y122.066 A934.52498
G1 X138.854 Y122.924 A934.68026
G1 X139.327 Y123.493 A934.77854
G1 X139.885 Y124.232 A934.90168
G1 X140.436 Y125.041 A935.03173
G1 X141.031 Y126.037 A935.18595
G1 X141.381 Y126.697 A935.28531
G1 X141.710 Y127.384 A935.38653
G1 X142.005 Y128.072 A935.48593
G1 X142.410 Y129.170 A935.64150
G1 X142.628 Y129.871 A935.73908
G1 X142.918 Y131.005 A935.89470
G1 X143.062 Y131.725 A935.99230
G1 X143.233 Y132.884 A936.14796
G1 X143.304 Y133.629 A936.24742
G1 X143.345 Y134.390 A936.34874
G1 X143.355 Y135.152 A936.45007
G1 X143.333 Y135.915 A936.55139
G1 X143.279 Y136.675 A936.65271
G1 X143.196 Y137.419 A936.75217
G1 X143.007 Y138.566 A936.90669
G1 X142.798 Y139.495 A937.03328
G1 X142.542 Y140.416 A937.16027
G1 X142.311 Y141.118 A937.25861
G1 X141.888 Y142.210 A937.41417
G1 X141.582 Y142.892 A937.51356
G1 X141.242 Y143.574 A937.61478
G1 X140.881 Y144.228 A937.71414
G1 X140.264 Y145.222 A937.86958
G1 X139.846 Y145.824 A937.96703
G1 X139.131 Y146.748 A938.12239
G1 X138.653 Y147.304 A938.21978
G1 X137.845 Y148.151 A938.37541
G1 X137.370 Y148.602 A938.46245
G1 X136.575 Y149.290 A938.60209
G1 X136.058 Y149.697 A938.68963
G1 X135.204 Y150.308 A938.82917
G1 X134.421 Y150.800 A938.95202
G1 X134.829 Y151.796 F7800.000
G1 F3600
G1 X134.267 Y152.123 A939.03839
G1 X133.303 Y152.616 A939.18230
G1 X132.307 Y153.058 A939.32715
G1 X131.649 Y153.314 A939.42101
G1 X130.617 Y153.661 A939.56573
G1 X129.575 Y153.949 A939.70937
G1 X128.512 Y154.180 A939.85394
G1 X127.810 Y154.299 A939.94861
G1 X127.096 Y154.393 A940.04425
G1 X125.660 Y154.501 A940.23567
G1 X124.945 Y154.515 A940.33073
G1 X124.227 Y154.503 A940.42622
G1 X123.510 Y154.464 A940.52167
G1 X122.795 Y154.399 A940.61709
G1 X122.083 Y154.308 A940.71246
G1 X121.375 Y154.191 A940.80780
G1 X120.680 Y154.049 A940.90210
G1 X119.630 Y153.784 A941.04597
G1 X118.605 Y153.465 A941.18875
G1 X117.592 Y153.087 A941.33244
G1 X116.947 Y152.813 A941.42555
G1 X115.974 Y152.344 A941.56910
G1 X115.035 Y151.827 A941.71159
G1 X114.120 Y151.255 A941.85499
G1 X113.545 Y150.858 A941.94791
G1 X112.687 Y150.206 A942.09119
G1 X111.871 Y149.512 A942.23340
G1 X111.090 Y148.771 A942.37655
G1 X110.607 Y148.268 A942.46931
G1 X109.892 Y147.453 A942.61334
G1 X109.457 Y146.908 A942.70603
G1 X108.820 Y146.032 A942.84997
G1 X108.436 Y145.450 A942.94261
G1 X107.886 Y144.527 A943.08547
G1 X107.391 Y143.582 A943.22731
G1 X106.945 Y142.604 A943.37009
G1 X106.685 Y141.958 A943.46263
G1 X106.330 Y140.945 A943.60535
G1 X106.033 Y139.921 A943.74706
G1 X105.791 Y138.875 A943.88974
G1 X105.665 Y138.191 A943.98222
G1 X105.517 Y137.120 A944.12586
G1 X105.454 Y136.420 A944.21931
G1 X105.415 Y135.708 A944.31411
G1 X105.400 Y135.009 A944.40702
G1 X105.438 Y133.810 A944.56647
G1 X105.501 Y133.038 A944.66942
G1 X105.658 Y131.847 A944.82901
G1 X105.799 Y131.083 A944.93236
G1 X106.010 Y130.172 A945.05658
G1 X106.294 Y129.170 A945.19496
G1 X106.685 Y128.041 A945.35384
G1 X106.975 Y127.324 A945.45666
G1 X107.482 Y126.234 A945.61641
G1 X107.844 Y125.549 A945.71928
G1 X108.458 Y124.516 A945.87911
G1 X108.887 Y123.871 A945.98205
G1 X109.604 Y122.904 A946.14198
G1 X110.101 Y122.299 A946.24608
G1 X110.629 Y121.709 A946.35132
G1 X111.174 Y121.146 A946.45549
G1 X112.055 Y120.324 A946.61564
G1 X112.649 Y119.824 A946.71880
G1 X113.610 Y119.096 A946.87910
G1 X114.252 Y118.658 A946.98235
G1 X115.283 Y118.030 A947.14280
G1 X115.967 Y117.660 A947.24615
G1 X117.057 Y117.139 A947.40676
G1 X117.776 Y116.840 A947.51022
G1 X118.915 Y116.432 A947.67100
G1 X119.669 Y116.205 A947.77567
G1 X120.440 Y116.006 A947.88150
G1 X121.211 Y115.841 A947.98627
G1 X122.407 Y115.648 A948.14737
G1 X123.192 Y115.562 A948.25225
G1 X123.979 Y115.508 A948.35721
G1 X125.176 Y115.487 A948.51632
G1 X125.983 Y115.514 A948.62361
G1 X126.770 Y115.573 A948.72855
G1 X127.976 Y115.727 A948.89008
G1 X128.747 Y115.866 A948.99418
G1 X129.932 Y116.143 A949.15594
G1 X130.685 Y116.360 A949.26013
G1 X131.837 Y116.757 A949.42205
G1 X132.565 Y117.051 A949.52635
G1 X133.671 Y117.564 A949.68842
G1 X134.365 Y117.931 A949.79282
G1 X135.414 Y118.556 A949.95503
G1 X136.068 Y118.992 A950.05952
G1 X137.047 Y119.722 A950.22187
G1 X137.660 Y120.229 A950.32756
G1 X138.257 Y120.767 A950.43439
G1 X138.826 Y121.323 A950.54014
G1 X139.656 Y122.222 A950.70271
G1 X140.162 Y122.831 A950.80794
G1 X140.751 Y123.611 A950.93790
G1 X141.334 Y124.467 A951.07560
G1 X141.960 Y125.513 A951.23761
G1 X142.333 Y126.218 A951.34355
G1 X142.681 Y126.944 A951.45063
G1 X142.995 Y127.677 A951.55660
G1 X143.419 Y128.827 A951.71949
G1 X143.654 Y129.581 A951.82438
G1 X143.957 Y130.769 A951.98732
G1 X144.112 Y131.542 A952.09224
G1 X144.292 Y132.755 A952.25521
G1 X144.367 Y133.550 A952.36126
G1 X144.411 Y134.355 A952.46844
G1 X144.421 Y135.161 A952.57561
G1 X144.397 Y135.967 A952.68279
G1 X144.341 Y136.772 A952.78996
G1 X144.252 Y137.565 A952.89601
G1 X144.053 Y138.769 A953.05830
G1 X143.832 Y139.755 A953.19250
G1 X143.562 Y140.725 A953.32636
G1 X143.315 Y141.478 A953.43171
G1 X142.872 Y142.621 A953.59459
G1 X142.545 Y143.348 A953.70056
G1 X142.186 Y144.069 A953.80763
G1 X141.801 Y144.767 A953.91356
G1 X141.155 Y145.807 A954.07631
G1 X140.706 Y146.455 A954.18106
G1 X139.956 Y147.422 A954.34372
G1 X139.443 Y148.020 A954.44842
G1 X138.598 Y148.906 A954.61119
G1 X138.086 Y149.392 A954.70502
G1 X137.254 Y150.112 A954.85122
G1 X136.698 Y150.550 A954.94532
G1 X135.803 Y151.189 A955.09142
G1 X134.958 Y151.720 A955.22410
G1 X135.366 Y152.716 F7800.000
G1 F1800
G1 X134.779 Y153.058 A955.31440
G1 X133.762 Y153.578 A955.46617
G1 X132.716 Y154.042 A955.61821
G1 X132.012 Y154.316 A955.71862
G1 X130.929 Y154.680 A955.87053
G1 X129.830 Y154.984 A956.02202
G1 X128.714 Y155.226 A956.17377
G1 X127.969 Y155.353 A956.27432
G1 X127.216 Y155.452 A956.37518
G1 X125.703 Y155.566 A956.57685
G1 X124.947 Y155.581 A956.67744
G1 X124.189 Y155.568 A956.77814
G1 X123.433 Y155.527 A956.87881
G1 X122.679 Y155.459 A956.97943
G1 X121.928 Y155.362 A957.08001
G1 X121.182 Y155.239 A957.18056
G1 X120.443 Y155.088 A957.28071
G1 X119.342 Y154.811 A957.43173
G1 X118.260 Y154.474 A957.58230
G1 X117.197 Y154.077 A957.73314
G1 X116.507 Y153.783 A957.83274
G1 X115.486 Y153.292 A957.98343
G1 X114.495 Y152.746 A958.13369
G1 X113.535 Y152.146 A958.28422
G1 X112.919 Y151.721 A958.38362
G1 X112.018 Y151.036 A958.53403
G1 X111.159 Y150.305 A958.68401
G1 X110.339 Y149.527 A958.83427
G1 X109.822 Y148.988 A958.93350
G1 X109.075 Y148.137 A959.08400
G1 X108.609 Y147.554 A959.18316
G1 X107.944 Y146.639 A959.33355
G1 X107.533 Y146.017 A959.43265
G1 X106.956 Y145.047 A959.58262
G1 X106.433 Y144.051 A959.73220
G1 X105.965 Y143.025 A959.88208
G1 X105.687 Y142.334 A959.98108
G1 X105.315 Y141.270 A960.13090
G1 X105.001 Y140.190 A960.28035
G1 X104.747 Y139.092 A960.43012
G1 X104.612 Y138.360 A960.52906
G1 X104.458 Y137.241 A960.67914
G1 X104.391 Y136.497 A960.77840
G1 X104.350 Y135.748 A960.87812
G1 X104.334 Y135.003 A960.97720
G1 X104.374 Y133.749 A961.14390
G1 X104.441 Y132.925 A961.25388
G1 X104.606 Y131.681 A961.42063
G1 X104.756 Y130.866 A961.53076
G1 X104.977 Y129.907 A961.66163
G1 X105.277 Y128.850 A961.80757
G1 X105.687 Y127.666 A961.97413
G1 X105.998 Y126.899 A962.08413
G1 X106.527 Y125.760 A962.25104
G1 X106.914 Y125.028 A962.36109
G1 X107.556 Y123.948 A962.52810
G1 X108.015 Y123.258 A962.63821
G1 X108.764 Y122.248 A962.80532
G1 X109.292 Y121.606 A962.91589
G1 X109.848 Y120.983 A963.02688
G1 X110.428 Y120.385 A963.13751
G1 X111.348 Y119.526 A963.30486
G1 X111.984 Y118.992 A963.41521
G1 X112.988 Y118.230 A963.58270
G1 X113.674 Y117.762 A963.69315
G1 X114.752 Y117.106 A963.86080
G1 X115.483 Y116.710 A963.97136
G1 X116.622 Y116.166 A964.13917
G1 X117.391 Y115.845 A964.24985
G1 X118.581 Y115.419 A964.41784
G1 X119.382 Y115.178 A964.52901
G1 X120.195 Y114.969 A964.64062
G1 X121.014 Y114.793 A964.75189
G1 X122.264 Y114.591 A964.92022
G1 X123.097 Y114.500 A965.03162
G1 X123.934 Y114.443 A965.14307
G1 X125.185 Y114.421 A965.30937
G1 X126.041 Y114.450 A965.42323
G1 X126.878 Y114.513 A965.53480
G1 X128.138 Y114.674 A965.70362
G1 X128.963 Y114.822 A965.81498
G1 X130.201 Y115.111 A965.98399
G1 X131.007 Y115.344 A966.09546
G1 X132.210 Y115.759 A966.26464
G1 X132.989 Y116.072 A966.37621
G1 X134.144 Y116.609 A966.54556
G1 X134.887 Y117.001 A966.65723
G1 X135.983 Y117.654 A966.82672
G1 X136.682 Y118.121 A966.93849
G1 X137.706 Y118.884 A967.10813
G1 X138.356 Y119.422 A967.22038
G1 X138.986 Y119.989 A967.33305
G1 X139.591 Y120.580 A967.44536
G1 X140.457 Y121.519 A967.61523
G1 X140.997 Y122.168 A967.72742
G1 X141.617 Y122.989 A967.86418
G1 X142.233 Y123.894 A968.00954
G1 X142.889 Y124.990 A968.17935
G1 X143.285 Y125.738 A968.29187
G1 X143.652 Y126.504 A968.40479
G1 X143.985 Y127.283 A968.51734
G1 X144.428 Y128.484 A968.68755
G1 X144.679 Y129.290 A968.79976
G1 X144.996 Y130.532 A968.97001
G1 X145.163 Y131.359 A969.08224
G1 X145.350 Y132.627 A969.25253
G1 X145.430 Y133.471 A969.36517
G1 X145.476 Y134.320 A969.47820
G1 X145.486 Y135.170 A969.59123
G1 X145.462 Y136.020 A969.70426
G1 X145.402 Y136.868 A969.81729
G1 X145.308 Y137.711 A969.92992
G1 X145.100 Y138.973 A970.09997
G1 X144.866 Y140.014 A970.24180
G1 X144.583 Y141.034 A970.38252
G1 X144.318 Y141.837 A970.49488
G1 X143.855 Y143.031 A970.66508
G1 X143.509 Y143.804 A970.77763
G1 X143.130 Y144.564 A970.89054
G1 X142.721 Y145.305 A971.00305
G1 X142.046 Y146.393 A971.17311
G1 X141.565 Y147.085 A971.28517
G1 X140.782 Y148.096 A971.45513
G1 X140.233 Y148.735 A971.56712
G1 X139.351 Y149.660 A971.73705
G1 X138.802 Y150.182 A971.83766
G1 X137.932 Y150.934 A971.99042
G1 X137.337 Y151.402 A972.09108
G1 X136.403 Y152.070 A972.24374
G1 X135.495 Y152.640 A972.38624
G1 X134.769 Y152.391 F7800.000
G1 X134.451 Y150.412
G1 F1200
G1 X140.292 Y144.571 A973.48803
G1 X131.444 Y151.907 F7800.000
G1 F1200
G1 X140.907 Y142.443 A975.27295
G1 X141.150 Y141.902 A975.35211
G1 X141.558 Y140.849 A975.50271
G1 X141.825 Y140.014 A975.61957
G1 X129.920 Y151.919 A977.86496
G1 X129.128 Y152.137 A977.97444
G1 X127.941 Y152.385 A978.13618
G1 X142.283 Y138.043 A980.84121
G1 X142.404 Y137.309 A980.94043
G1 X142.504 Y136.310 A981.07430
G1 X126.215 Y152.599 A984.14651
G1 X125.593 Y152.637 A984.22968
G1 X124.664 Y152.638 A984.35354
G1 X142.551 Y134.751 A987.72716
G1 X142.507 Y133.688 A987.86904
G1 X142.472 Y133.318 A987.91869
G1 X123.224 Y152.566 A991.54903
G1 X121.895 Y152.383 A991.72797
G1 X142.293 Y131.985 A995.57520
G1 X142.138 Y131.183 A995.68408
G1 X142.025 Y130.740 A995.74504
G1 X120.648 Y152.118 A999.77701
G1 X120.136 Y151.989 A999.84738
G1 X119.471 Y151.782 A999.94022
G1 X141.694 Y129.559 A1004.13158
G1 X141.292 Y128.449 A1004.28907
G1 X118.358 Y151.383 A1008.61461
G1 X117.718 Y151.114 A1008.70727
G1 X117.311 Y150.918 A1008.76749
G1 X140.831 Y127.398 A1013.20358
G1 X140.317 Y126.399 A1013.35334
G1 X116.314 Y150.402 A1017.88052
G1 X115.980 Y150.218 A1017.93142
G1 X115.368 Y149.836 A1018.02760
G1 X139.750 Y125.454 A1022.62627
G1 X139.132 Y124.560 A1022.77122
G1 X114.472 Y149.220 A1027.42230
G1 X113.625 Y148.555 A1027.56594
G1 X138.469 Y123.711 A1032.25179
G1 X137.755 Y122.912 A1032.39463
G1 X112.823 Y147.845 A1037.09707
G1 X112.063 Y147.092 A1037.23968
G1 X137.005 Y122.151 A1041.94389
G1 X136.201 Y121.442 A1042.08678
G1 X111.353 Y146.290 A1046.77333
G1 X110.940 Y145.777 A1046.86118
G1 X110.693 Y145.438 A1046.91714
G1 X135.349 Y120.782 A1051.56739
G1 X134.992 Y120.516 A1051.62673
G1 X134.459 Y120.160 A1051.71227
G1 X110.073 Y144.545 A1056.31156
G1 X109.506 Y143.601 A1056.45854
G1 X133.513 Y119.594 A1060.98648
G1 X132.842 Y119.235 A1061.08792
G1 X132.512 Y119.082 A1061.13642
G1 X108.993 Y142.601 A1065.57237
G1 X108.531 Y141.551 A1065.72538
G1 X131.465 Y118.618 A1070.05087
G1 X130.352 Y118.218 A1070.20851
G1 X108.129 Y140.441 A1074.40001
G1 X107.795 Y139.263 A1074.56329
G1 X129.177 Y117.881 A1078.59610
G1 X128.369 Y117.693 A1078.70666
G1 X127.932 Y117.614 A1078.76596
G1 X107.529 Y138.017 A1082.61415
G1 X107.372 Y136.916 A1082.76251
G1 X107.355 Y136.679 A1082.79416
G1 X126.602 Y117.432 A1086.42439
G1 X125.882 Y117.376 A1086.52069
G1 X125.169 Y117.353 A1086.61585
G1 X107.270 Y135.251 A1089.99173
G1 X107.319 Y133.690 A1090.20004
G1 X123.607 Y117.402 A1093.27206
G1 X122.658 Y117.496 A1093.39926
G1 X121.874 Y117.623 A1093.50507
G1 X107.533 Y131.964 A1096.20994
G1 X107.626 Y131.462 A1096.27801
G1 X107.816 Y130.636 A1096.39099
G1 X108.001 Y129.983 A1096.48152
G1 X119.903 Y118.082 A1098.72628
G1 X119.498 Y118.204 A1098.78265
G1 X118.449 Y118.579 A1098.93131
G1 X117.818 Y118.842 A1099.02246
G1 X117.459 Y119.013 A1099.07551
G1 X108.008 Y128.464 A1100.85797
G1 X109.520 Y125.440 F7800.000
G1 F1200
G1 X115.347 Y119.613 A1101.95705
M107
G1 Z2.150 F7800.000
G1 A1099.95705 F2400.00000
G1 X134.396 Y151.055 F7800.000
G1 A1101.95705 F2400.00000
G1 F3600
G1 X133.860 Y151.367 A1102.03950
G1 X132.939 Y151.838 A1102.17706
G1 X131.982 Y152.263 A1102.31621
G1 X131.362 Y152.504 A1102.40453
G1 X130.359 Y152.841 A1102.54522
G1 X129.721 Y153.024 A1102.63347
G1 X128.692 Y153.268 A1102.77403
G1 X128.040 Y153.391 A1102.86220
G1 X126.994 Y153.538 A1103.00264
G1 X126.321 Y153.602 A1103.09237
G1 X125.635 Y153.641 A1103.18373
G1 X124.948 Y153.656 A1103.27505
G1 X124.262 Y153.644 A1103.36634
G1 X123.576 Y153.608 A1103.45759
G1 X122.892 Y153.546 A1103.54881
G1 X122.212 Y153.460 A1103.64000
G1 X121.535 Y153.348 A1103.73115
G1 X120.875 Y153.214 A1103.82063
G1 X119.867 Y152.961 A1103.95887
G1 X118.885 Y152.657 A1104.09540
G1 X117.912 Y152.294 A1104.23350
G1 X117.305 Y152.036 A1104.32115
G1 X116.369 Y151.587 A1104.45913
G1 X115.471 Y151.093 A1104.59540
G1 X114.591 Y150.544 A1104.73324
G1 X114.049 Y150.170 A1104.82073
G1 X113.223 Y149.544 A1104.95847
G1 X112.443 Y148.881 A1105.09450
G1 X111.692 Y148.169 A1105.23211
G1 X111.236 Y147.695 A1105.31946
G1 X110.553 Y146.918 A1105.45698
G1 X109.922 Y146.114 A1105.59282
G1 X109.336 Y145.277 A1105.72861
G1 X108.791 Y144.400 A1105.86593
G1 X108.160 Y143.222 A1106.04349
G1 X107.726 Y142.271 A1106.18243
G1 X107.481 Y141.663 A1106.26959
G1 X107.140 Y140.688 A1106.40684
G1 X106.855 Y139.708 A1106.54243
G1 X106.625 Y138.715 A1106.67800
G1 X106.448 Y137.698 A1106.81518
G1 X106.301 Y136.359 A1106.99425
G1 X106.264 Y135.680 A1107.08456
G1 X106.252 Y135.003 A1107.17460
G1 X106.266 Y134.258 A1107.27359
G1 X106.348 Y133.115 A1107.42595
G1 X106.498 Y131.978 A1107.57836
G1 X106.630 Y131.261 A1107.67522
G1 X106.892 Y130.155 A1107.82626
G1 X107.101 Y129.432 A1107.92637
G1 X107.482 Y128.336 A1108.08052
G1 X107.755 Y127.661 A1108.17739
G1 X108.242 Y126.613 A1108.33095
G1 X108.591 Y125.951 A1108.43044
G1 X108.971 Y125.297 A1108.53087
G1 X109.370 Y124.671 A1108.62959
G1 X110.044 Y123.724 A1108.78411
G1 X110.496 Y123.151 A1108.88110
G1 X111.263 Y122.276 A1109.03571
G1 X111.771 Y121.752 A1109.13277
G1 X112.623 Y120.959 A1109.28750
G1 X113.183 Y120.488 A1109.38463
G1 X114.112 Y119.785 A1109.53949
G1 X114.716 Y119.373 A1109.63670
G1 X115.713 Y118.767 A1109.79169
G1 X116.369 Y118.413 A1109.89082
G1 X117.051 Y118.079 A1109.99181
G1 X117.735 Y117.779 A1110.09102
G1 X118.826 Y117.363 A1110.24627
G1 X119.524 Y117.138 A1110.34374
G1 X120.654 Y116.836 A1110.49915
G1 X121.372 Y116.683 A1110.59673
G1 X122.528 Y116.497 A1110.75229
G1 X123.272 Y116.416 A1110.85180
G1 X124.024 Y116.366 A1110.95206
G1 X124.990 Y116.346 A1111.08041
G1 X125.949 Y116.374 A1111.20786
G1 X126.688 Y116.430 A1111.30646
G1 X127.853 Y116.579 A1111.46248
G1 X128.578 Y116.709 A1111.56043
G1 X129.722 Y116.977 A1111.71661
G1 X130.431 Y117.181 A1111.81466
G1 X131.543 Y117.564 A1111.97098
G1 X132.228 Y117.840 A1112.06913
G1 X133.296 Y118.336 A1112.22560
G1 X133.949 Y118.681 A1112.32384
G1 X134.961 Y119.285 A1112.48045
G1 X135.577 Y119.695 A1112.57877
G1 X136.522 Y120.400 A1112.73551
G1 X137.103 Y120.881 A1112.83576
G1 X137.674 Y121.395 A1112.93788
G1 X138.214 Y121.922 A1113.03818
G1 X139.015 Y122.790 A1113.19514
G1 X139.489 Y123.360 A1113.29369
G1 X140.191 Y124.298 A1113.44934
G1 X140.618 Y124.935 A1113.55121
G1 X141.019 Y125.590 A1113.65338
G1 X141.386 Y126.250 A1113.75378
G1 X141.907 Y127.312 A1113.91099
G1 X142.200 Y127.995 A1114.00967
G1 X142.609 Y129.105 A1114.16693
G1 X142.833 Y129.827 A1114.26749
G1 X143.028 Y130.559 A1114.36805
G1 X143.270 Y131.703 A1114.52352
G1 X143.441 Y132.860 A1114.67901
G1 X143.513 Y133.614 A1114.77960
G1 X143.554 Y134.383 A1114.88205
G1 X143.564 Y135.154 A1114.98449
G1 X143.541 Y135.925 A1115.08694
G1 X143.487 Y136.692 A1115.18919
G1 X143.399 Y137.474 A1115.29381
G1 X143.213 Y138.599 A1115.44536
G1 X142.952 Y139.740 A1115.60091
G1 X142.745 Y140.468 A1115.70148
G1 X142.509 Y141.187 A1115.80203
G1 X142.087 Y142.277 A1115.95744
G1 X141.598 Y143.339 A1116.11281
G1 X141.247 Y144.008 A1116.21327
G1 X140.862 Y144.674 A1116.31552
G1 X140.449 Y145.324 A1116.41777
G1 X140.018 Y145.944 A1116.51819
G1 X139.295 Y146.879 A1116.67523
G1 X138.812 Y147.441 A1116.77375
G1 X137.995 Y148.297 A1116.93105
G1 X137.514 Y148.753 A1117.01910
G1 X136.711 Y149.448 A1117.16026
G1 X136.188 Y149.860 A1117.24880
G1 X135.325 Y150.477 A1117.38986
G1 X134.526 Y150.979 A1117.51521
G1 X134.933 Y151.975 F7800.000
G1 F3600
G1 X134.372 Y152.303 A1117.60159
G1 X133.398 Y152.801 A1117.74701
G1 X132.391 Y153.247 A1117.89336
G1 X131.726 Y153.506 A1117.98823
G1 X130.676 Y153.859 A1118.13546
G1 X129.990 Y154.055 A1118.23024
G1 X128.913 Y154.310 A1118.37734
G1 X128.213 Y154.442 A1118.47204
G1 X127.118 Y154.597 A1118.61900
G1 X126.402 Y154.665 A1118.71461
G1 X125.677 Y154.706 A1118.81118
G1 X124.951 Y154.721 A1118.90772
G1 X124.225 Y154.710 A1119.00422
G1 X123.500 Y154.671 A1119.10069
G1 X122.777 Y154.606 A1119.19712
G1 X122.058 Y154.514 A1119.29351
G1 X121.343 Y154.397 A1119.38987
G1 X120.640 Y154.254 A1119.48520
G1 X119.579 Y153.988 A1119.63060
G1 X118.541 Y153.666 A1119.77493
G1 X117.517 Y153.285 A1119.92017
G1 X116.865 Y153.007 A1120.01431
G1 X115.881 Y152.535 A1120.15943
G1 X114.931 Y152.012 A1120.30348
G1 X114.006 Y151.435 A1120.44846
G1 X113.424 Y151.034 A1120.54243
G1 X112.556 Y150.375 A1120.68729
G1 X111.731 Y149.675 A1120.83110
G1 X110.941 Y148.925 A1120.97583
G1 X110.451 Y148.417 A1121.06966
G1 X109.733 Y147.599 A1121.21430
G1 X109.066 Y146.749 A1121.35789
G1 X108.446 Y145.865 A1121.50144
G1 X107.873 Y144.941 A1121.64589
G1 X107.525 Y144.320 A1121.74051
G1 X107.200 Y143.687 A1121.83515
G1 X106.746 Y142.691 A1121.98054
G1 X106.483 Y142.038 A1122.07416
G1 X106.124 Y141.013 A1122.21851
G1 X105.824 Y139.977 A1122.36184
G1 X105.580 Y138.927 A1122.50515
G1 X105.394 Y137.857 A1122.64942
G1 X105.303 Y137.152 A1122.74396
G1 X105.238 Y136.436 A1122.83948
G1 X105.199 Y135.719 A1122.93498
G1 X105.186 Y135.002 A1123.03030
G1 X105.202 Y134.210 A1123.13558
G1 X105.287 Y133.007 A1123.29583
G1 X105.445 Y131.811 A1123.45612
G1 X105.587 Y131.042 A1123.56012
G1 X105.861 Y129.884 A1123.71827
G1 X106.086 Y129.109 A1123.82558
G1 X106.484 Y127.961 A1123.98696
G1 X106.777 Y127.236 A1124.09099
G1 X107.287 Y126.139 A1124.25172
G1 X107.659 Y125.434 A1124.35769
G1 X108.061 Y124.743 A1124.46391
G1 X108.486 Y124.076 A1124.56911
G1 X109.191 Y123.084 A1124.73080
G1 X109.677 Y122.469 A1124.83498
G1 X110.479 Y121.553 A1124.99678
G1 X111.025 Y120.990 A1125.10103
G1 X111.917 Y120.160 A1125.26296
G1 X112.518 Y119.655 A1125.36729
G1 X113.490 Y118.919 A1125.52934
G1 X114.139 Y118.477 A1125.63376
G1 X115.182 Y117.843 A1125.79595
G1 X115.881 Y117.465 A1125.90157
G1 X116.603 Y117.112 A1126.00833
G1 X117.331 Y116.792 A1126.11403
G1 X118.473 Y116.358 A1126.27650
G1 X119.223 Y116.116 A1126.38119
G1 X120.405 Y115.800 A1126.54382
G1 X121.176 Y115.635 A1126.64862
G1 X122.385 Y115.441 A1126.81142
G1 X123.178 Y115.355 A1126.91744
G1 X123.978 Y115.301 A1127.02393
G1 X124.995 Y115.280 A1127.15910
G1 X126.004 Y115.309 A1127.29335
G1 X126.796 Y115.369 A1127.39890
G1 X128.015 Y115.525 A1127.56217
G1 X128.794 Y115.665 A1127.66738
G1 X129.991 Y115.945 A1127.83081
G1 X130.753 Y116.165 A1127.93613
G1 X131.916 Y116.566 A1128.09972
G1 X132.652 Y116.862 A1128.20514
G1 X133.769 Y117.381 A1128.36888
G1 X134.471 Y117.752 A1128.47440
G1 X135.531 Y118.383 A1128.63829
G1 X136.191 Y118.824 A1128.74389
G1 X137.181 Y119.562 A1128.90793
G1 X137.800 Y120.074 A1129.01473
G1 X138.404 Y120.618 A1129.12269
G1 X138.979 Y121.180 A1129.22955
G1 X139.817 Y122.088 A1129.39381
G1 X140.326 Y122.700 A1129.49965
G1 X141.060 Y123.682 A1129.66257
G1 X141.515 Y124.359 A1129.77104
G1 X141.940 Y125.053 A1129.87910
G1 X142.331 Y125.756 A1129.98611
G1 X142.876 Y126.867 A1130.15062
G1 X143.190 Y127.601 A1130.25660
G1 X143.618 Y128.762 A1130.42118
G1 X143.857 Y129.532 A1130.52831
G1 X144.065 Y130.311 A1130.63545
G1 X144.319 Y131.515 A1130.79897
G1 X144.499 Y132.732 A1130.96249
G1 X144.576 Y133.535 A1131.06967
G1 X144.619 Y134.348 A1131.17796
G1 X144.629 Y135.163 A1131.28625
G1 X144.606 Y135.977 A1131.39455
G1 X144.549 Y136.789 A1131.50273
G1 X144.455 Y137.621 A1131.61397
G1 X144.259 Y138.805 A1131.77348
G1 X143.985 Y140.005 A1131.93704
G1 X143.765 Y140.780 A1132.04418
G1 X143.513 Y141.546 A1132.15131
G1 X143.069 Y142.693 A1132.31476
G1 X142.554 Y143.809 A1132.47817
G1 X142.180 Y144.523 A1132.58522
G1 X141.773 Y145.227 A1132.69334
G1 X141.337 Y145.914 A1132.80145
G1 X140.878 Y146.575 A1132.90844
G1 X140.121 Y147.553 A1133.07279
G1 X139.602 Y148.156 A1133.17860
G1 X138.748 Y149.052 A1133.34306
G1 X138.230 Y149.543 A1133.43789
G1 X137.390 Y150.270 A1133.58561
G1 X136.828 Y150.713 A1133.68071
G1 X135.924 Y151.359 A1133.82832
G1 X135.063 Y151.900 A1133.96351
G1 X135.470 Y152.896 F7800.000
G1 F1800
G1 X134.883 Y153.238 A1134.05382
G1 X133.857 Y153.763 A1134.20710
G1 X132.800 Y154.231 A1134.36065
G1 X132.089 Y154.508 A1134.46206
G1 X130.993 Y154.877 A1134.61582
G1 X130.260 Y155.087 A1134.71714
G1 X129.135 Y155.353 A1134.87078
G1 X128.387 Y155.494 A1134.97200
G1 X127.243 Y155.656 A1135.12550
G1 X126.483 Y155.727 A1135.22698
G1 X125.718 Y155.771 A1135.32877
G1 X124.953 Y155.787 A1135.43052
G1 X124.188 Y155.775 A1135.53224
G1 X123.424 Y155.734 A1135.63391
G1 X122.662 Y155.666 A1135.73555
G1 X121.904 Y155.569 A1135.83715
G1 X121.150 Y155.445 A1135.93872
G1 X120.404 Y155.293 A1136.03990
G1 X119.291 Y155.014 A1136.19245
G1 X118.197 Y154.675 A1136.34458
G1 X117.123 Y154.275 A1136.49697
G1 X116.426 Y153.979 A1136.59761
G1 X115.393 Y153.483 A1136.74986
G1 X114.392 Y152.932 A1136.90170
G1 X113.421 Y152.326 A1137.05381
G1 X112.799 Y151.898 A1137.15426
G1 X111.888 Y151.206 A1137.30625
G1 X111.019 Y150.468 A1137.45783
G1 X110.190 Y149.682 A1137.60969
G1 X109.667 Y149.138 A1137.70998
G1 X108.913 Y148.280 A1137.86174
G1 X108.210 Y147.384 A1138.01309
G1 X107.557 Y146.452 A1138.16440
G1 X106.955 Y145.483 A1138.31599
G1 X106.586 Y144.824 A1138.41645
G1 X106.241 Y144.151 A1138.51691
G1 X105.767 Y143.112 A1138.66875
G1 X105.486 Y142.413 A1138.76883
G1 X105.109 Y141.338 A1138.92027
G1 X104.792 Y140.246 A1139.07135
G1 X104.536 Y139.139 A1139.22240
G1 X104.340 Y138.017 A1139.37377
G1 X104.244 Y137.268 A1139.47411
G1 X104.175 Y136.514 A1139.57479
G1 X104.134 Y135.757 A1139.67546
G1 X104.120 Y135.001 A1139.77607
G1 X104.137 Y134.161 A1139.88764
G1 X104.226 Y132.899 A1140.05579
G1 X104.392 Y131.645 A1140.22396
G1 X104.544 Y130.823 A1140.33510
G1 X104.830 Y129.613 A1140.50036
G1 X105.070 Y128.785 A1140.61486
G1 X105.486 Y127.587 A1140.78347
G1 X105.800 Y126.811 A1140.89467
G1 X106.332 Y125.666 A1141.06255
G1 X106.727 Y124.917 A1141.17501
G1 X107.150 Y124.189 A1141.28702
G1 X107.602 Y123.480 A1141.39869
G1 X108.338 Y122.445 A1141.56757
G1 X108.858 Y121.787 A1141.67893
G1 X109.695 Y120.831 A1141.84793
G1 X110.279 Y120.229 A1141.95937
G1 X111.211 Y119.362 A1142.12849
G1 X111.853 Y118.822 A1142.24001
G1 X112.868 Y118.053 A1142.40927
G1 X113.562 Y117.581 A1142.52089
G1 X114.651 Y116.918 A1142.69029
G1 X115.393 Y116.517 A1142.80239
G1 X116.154 Y116.145 A1142.91492
G1 X116.927 Y115.806 A1143.02711
G1 X118.120 Y115.352 A1143.19680
G1 X118.921 Y115.093 A1143.30871
G1 X120.156 Y114.763 A1143.47857
G1 X120.980 Y114.587 A1143.59059
G1 X122.243 Y114.384 A1143.76062
G1 X123.085 Y114.293 A1143.87315
G1 X123.931 Y114.236 A1143.98587
G1 X124.999 Y114.214 A1144.12785
G1 X126.060 Y114.245 A1144.26891
G1 X126.904 Y114.309 A1144.38142
G1 X128.177 Y114.471 A1144.55194
G1 X129.010 Y114.621 A1144.66440
G1 X130.260 Y114.914 A1144.83509
G1 X131.074 Y115.148 A1144.94767
G1 X132.289 Y115.567 A1145.11853
G1 X133.076 Y115.884 A1145.23122
G1 X134.243 Y116.426 A1145.40224
G1 X134.993 Y116.822 A1145.51503
G1 X136.100 Y117.482 A1145.68620
G1 X136.806 Y117.953 A1145.79909
G1 X137.840 Y118.723 A1145.97041
G1 X138.497 Y119.267 A1146.08378
G1 X139.133 Y119.840 A1146.19756
G1 X139.743 Y120.437 A1146.31100
G1 X140.618 Y121.385 A1146.48255
G1 X141.163 Y122.040 A1146.59568
G1 X141.930 Y123.065 A1146.76588
G1 X142.412 Y123.784 A1146.88093
G1 X142.860 Y124.515 A1146.99489
G1 X143.276 Y125.262 A1147.10850
G1 X143.845 Y126.423 A1147.28032
G1 X144.180 Y127.206 A1147.39361
G1 X144.628 Y128.420 A1147.56549
G1 X144.882 Y129.237 A1147.67920
G1 X145.102 Y130.064 A1147.79292
G1 X145.369 Y131.326 A1147.96448
G1 X145.557 Y132.603 A1148.13605
G1 X145.639 Y133.455 A1148.24980
G1 X145.685 Y134.313 A1148.36395
G1 X145.695 Y135.172 A1148.47809
G1 X145.670 Y136.030 A1148.59223
G1 X145.610 Y136.887 A1148.70634
G1 X145.511 Y137.768 A1148.82419
G1 X145.305 Y139.011 A1148.99167
G1 X145.017 Y140.269 A1149.16324
G1 X144.784 Y141.092 A1149.27696
G1 X144.516 Y141.905 A1149.39067
G1 X144.050 Y143.108 A1149.56215
G1 X143.511 Y144.280 A1149.73360
G1 X143.114 Y145.037 A1149.84723
G1 X142.684 Y145.780 A1149.96122
G1 X142.225 Y146.503 A1150.07520
G1 X141.737 Y147.205 A1150.18877
G1 X140.947 Y148.226 A1150.36041
G1 X140.392 Y148.872 A1150.47352
G1 X139.501 Y149.806 A1150.64513
G1 X138.946 Y150.333 A1150.74675
G1 X138.069 Y151.092 A1150.90103
G1 X137.468 Y151.565 A1151.00269
G1 X136.524 Y152.240 A1151.15686
G1 X135.600 Y152.820 A1151.30188
G1 X134.874 Y152.570 F7800.000
G1 A1149.30188 F2400.00000
G1 X121.465 Y151.053 F7800.000
G1 A1151.30188 F2400.00000
G1 F900
G1 X123.254 Y152.842 A1151.60498
G1 X124.287 Y152.910 A1151.72899
G1 X124.688 Y152.917 A1151.77698
G1 X121.886 Y150.115 A1152.25160
G1 X121.886 Y148.757 A1152.41432
G1 X126.013 Y152.884 A1153.11350
G1 X126.908 Y152.809 A1153.22105
G1 X127.248 Y152.761 A1153.26223
G1 X121.886 Y147.399 A1154.17064
G1 X121.886 Y146.041 A1154.33336
G1 X128.418 Y152.572 A1155.43990
G1 X129.521 Y152.317 A1155.57552
G1 X121.886 Y144.682 A1156.86892
G1 X121.886 Y143.324 A1157.03164
G1 X130.561 Y151.999 A1158.50126
G1 X131.559 Y151.639 A1158.62841
G1 X121.886 Y141.966 A1160.26721
G1 X121.886 Y140.607 A1160.42992
G1 X132.506 Y151.227 A1162.22906
G1 X133.410 Y150.773 A1162.35026
G1 X121.886 Y139.249 A1164.30255
G1 X121.886 Y137.891 A1164.46526
G1 X134.272 Y150.277 A1166.56364
G1 X135.094 Y149.740 A1166.68119
G1 X121.886 Y136.533 A1168.91871
G1 X121.886 Y135.174 A1169.08143
G1 X135.880 Y149.168 A1171.45218
G1 X136.623 Y148.553 A1171.56775
G1 X121.886 Y133.816 A1174.06445
G1 X121.886 Y132.458 A1174.22716
G1 X137.337 Y147.909 A1176.84479
G1 X138.007 Y147.220 A1176.95986
G1 X121.886 Y131.099 A1179.69097
G1 X121.886 Y129.741 A1179.85368
G1 X138.649 Y146.504 A1182.69350
G1 X139.246 Y145.743 A1182.80940
G1 X121.886 Y128.383 A1185.75036
G1 X121.886 Y127.025 A1185.91307
G1 X139.813 Y144.952 A1188.95021
G1 X140.336 Y144.116 A1189.06827
G1 X121.886 Y125.666 A1192.19396
G1 X121.886 Y124.308 A1192.35668
G1 X140.820 Y143.242 A1195.56430
G1 X141.258 Y142.322 A1195.68639
G1 X121.886 Y122.950 A1198.96823
G1 X121.886 Y121.591 A1199.13094
G1 X141.655 Y141.360 A1202.47998
G1 X141.818 Y140.939 A1202.53405
G1 X142.009 Y140.356 A1202.60753
G1 X121.886 Y120.233 A1206.01666
G1 X121.886 Y118.875 A1206.17938
G1 X142.302 Y139.291 A1209.63808
G1 X142.493 Y138.457 A1209.74048
G1 X142.540 Y138.171 A1209.77531
G1 X121.886 Y117.517 A1213.27435
G1 X121.886 Y117.344 A1213.29504
G1 X122.921 Y117.193 A1213.42030
G1 X142.715 Y136.987 A1216.77373
G1 X142.756 Y136.625 A1216.81742
G1 X142.813 Y135.727 A1216.92526
G1 X124.183 Y117.097 A1220.08139
G1 X124.987 Y117.081 A1220.17774
G1 X125.541 Y117.096 A1220.24412
G1 X142.818 Y134.374 A1223.17117
