; generated by PrusaSlicer 2.0.0+win64 on 2019-06-07 at 04:58:25

; 

; external perimeters extrusion width = 1.00mm
; perimeters extrusion width = 1.00mm
; infill extrusion width = 1.00mm
; solid infill extrusion width = 1.00mm
; top infill extrusion width = 1.00mm
; first layer extrusion width = 3.00mm

M107
M107
g92 z0
g1 f1000 z-310
g92 x0 y0 a0 z0
; Filament gcode
G21 ; set units to millimeters
G90 ; use absolute coordinates
G1 Z2.000 F7800.000
G1 A-2.00000 F2400.00000
G1 X15.807 Y14.510 F7800.000
G1 A0.00000 F2400.00000
G1 F1800
G1 X16.157 Y14.129 A0.06915
G1 X17.960 Y12.499 A0.39390
G1 X20.247 Y10.793 A0.77505
G1 X22.650 Y9.353 A1.14946
G1 X25.230 Y8.141 A1.53022
G1 X27.927 Y7.195 A1.91204
G1 X30.628 Y6.543 A2.28333
G1 X33.062 Y6.191 A2.61181
G1 X35.869 Y6.051 A2.98729
G1 X38.712 Y6.197 A3.36771
G1 X41.492 Y6.623 A3.74338
G1 X43.855 Y7.217 A4.06894
G1 X46.506 Y8.153 A4.44458
G1 X49.093 Y9.372 A4.82658
G1 X51.498 Y10.819 A5.20158
G1 X53.461 Y12.267 A5.52752
G1 X55.566 Y14.146 A5.90450
G1 X57.493 Y16.253 A6.28603
G1 X59.170 Y18.508 A6.66143
G1 X60.439 Y20.594 A6.98764
G1 X61.673 Y23.135 A7.36494
G1 X62.655 Y25.818 A7.74675
G1 X63.353 Y28.555 A8.12414
G1 X63.775 Y31.389 A8.50692
G1 X63.906 Y33.828 A8.83328
G1 X63.794 Y36.638 A9.20895
G1 X63.399 Y39.429 A9.58547
G1 X62.835 Y41.792 A9.91005
G1 X61.924 Y44.472 A10.28832
G1 X60.738 Y47.065 A10.66920
G1 X59.309 Y49.500 A11.04644
G1 X57.618 Y51.811 A11.42896
G1 X55.998 Y53.636 A11.75506
G1 X54.068 Y55.448 A12.10873
G1 X51.661 Y57.288 A12.51353
G1 X49.401 Y58.678 A12.86798
G1 X46.716 Y59.977 A13.26644
G1 X44.233 Y60.886 A13.61978
G1 X41.667 Y61.557 A13.97402
G1 X39.109 Y61.977 A14.32039
G1 X36.057 Y62.166 A14.72889
G1 X33.063 Y62.027 A15.12943
G1 X30.474 Y61.646 A15.47895
G1 X27.920 Y61.020 A15.83030
G1 X25.087 Y60.018 A16.23175
G1 X22.696 Y58.889 A16.58499
G1 X20.434 Y57.548 A16.93632
G1 X18.037 Y55.783 A17.33407
G1 X16.087 Y54.020 A17.68518
G1 X14.303 Y52.074 A18.03800
G1 X12.526 Y49.697 A18.43452
G1 X11.167 Y47.441 A18.78628
G1 X10.027 Y45.069 A19.13798
G1 X9.014 Y42.281 A19.53427
G1 X8.366 Y39.730 A19.88588
G1 X7.961 Y37.130 A20.23744
G1 X7.795 Y34.132 A20.63865
G1 X7.942 Y31.263 A21.02241
G1 X8.364 Y28.498 A21.39612
G1 X8.952 Y26.142 A21.72048
G1 X9.899 Y23.455 A22.10114
G1 X11.089 Y20.922 A22.47497
G1 X12.556 Y18.477 A22.85599
G1 X14.263 Y16.192 A23.23710
G1 X15.401 Y14.952 A23.46187
G1 A21.46187 F2400.00000
G1 X26.300 Y23.708 F7800.000
G1 A23.46187 F2400.00000
G1 F1800
G1 X26.841 Y23.229 A23.55841
G1 X27.241 Y22.910 A23.62684
G1 X27.954 Y22.397 A23.74414
G1 X28.432 Y22.087 A23.82029
G1 X29.194 Y21.649 A23.93762
G1 X29.723 Y21.380 A24.01697
G1 X30.745 Y20.937 A24.16579
G1 X31.626 Y20.628 A24.29051
G1 X32.147 Y20.475 A24.36311
G1 X33.240 Y20.224 A24.51285
G1 X34.163 Y20.082 A24.63765
G1 X34.704 Y20.026 A24.71031
G1 X35.247 Y19.993 A24.78305
G1 X36.172 Y19.984 A24.90659
G1 X37.284 Y20.052 A25.05549
G1 X37.980 Y20.142 A25.14920
G1 X38.717 Y20.274 A25.24920
G1 X39.603 Y20.487 A25.37103
G1 X40.093 Y20.632 A25.43924
G1 X40.976 Y20.942 A25.56428
G1 X41.449 Y21.136 A25.63252
G1 X42.295 Y21.535 A25.75759
G1 X42.746 Y21.777 A25.82585
G1 X43.547 Y22.260 A25.95097
G1 X43.971 Y22.547 A26.01925
G1 X44.719 Y23.110 A26.14440
G1 X45.111 Y23.438 A26.21270
G1 X45.798 Y24.076 A26.33789
G1 X46.155 Y24.442 A26.40621
G1 X46.773 Y25.147 A26.53143
G1 X47.107 Y25.570 A26.60347
G1 X47.458 Y26.055 A26.68344
G1 X47.923 Y26.771 A26.79748
G1 X48.369 Y27.560 A26.91862
G1 X48.614 Y28.048 A26.99153
G1 X49.055 Y29.083 A27.14189
G1 X49.359 Y29.970 A27.26720
G1 X49.510 Y30.495 A27.34012
G1 X49.644 Y31.051 A27.41658
G1 X49.763 Y31.651 A27.49830
G1 X49.889 Y32.518 A27.61534
G1 X49.938 Y33.032 A27.68425
G1 X49.978 Y33.969 A27.80957
G1 X49.974 Y34.515 A27.88251
G1 X49.945 Y35.086 A27.95896
G1 X49.889 Y35.696 A28.04077
G1 X49.764 Y36.563 A28.15773
G1 X49.665 Y37.069 A28.22664
G1 X49.438 Y37.979 A28.35196
G1 X49.282 Y38.494 A28.42391
G1 X49.080 Y39.067 A28.50510
G1 X48.746 Y39.881 A28.62261
G1 X48.260 Y40.862 A28.76889
G1 X47.785 Y41.671 A28.89416
G1 X47.503 Y42.098 A28.96251
G1 X46.948 Y42.853 A29.08775
G1 X46.603 Y43.275 A29.16063
G1 X46.238 Y43.686 A29.23396
G1 X45.605 Y44.330 A29.35471
G1 X45.245 Y44.662 A29.42014
G1 X44.625 Y45.183 A29.52824
G1 X44.258 Y45.464 A29.58999
G1 X43.591 Y45.928 A29.69853
G1 X42.902 Y46.352 A29.80668
G1 X42.480 Y46.586 A29.87113
G1 X41.771 Y46.937 A29.97681
G1 X41.025 Y47.257 A30.08524
G1 X40.583 Y47.422 A30.14838
G1 X39.822 Y47.668 A30.25520
G1 X39.066 Y47.867 A30.35963
G1 X38.302 Y48.024 A30.46386
G1 X37.500 Y48.142 A30.57208
G1 X37.013 Y48.191 A30.63746
G1 X35.974 Y48.238 A30.77646
G1 X35.454 Y48.233 A30.84595
G1 X34.447 Y48.168 A30.98081
G1 X33.643 Y48.063 A31.08907
G1 X32.875 Y47.919 A31.19346
G1 X32.116 Y47.734 A31.29786
G1 X31.647 Y47.596 A31.36319
G1 X30.885 Y47.334 A31.47088
G1 X30.135 Y47.028 A31.57903
G1 X29.719 Y46.836 A31.64026
G1 X29.001 Y46.463 A31.74838
G1 X28.331 Y46.067 A31.85240
G1 X27.658 Y45.617 A31.96048
G1 X27.289 Y45.345 A32.02167
G1 X26.661 Y44.836 A32.12971
G1 X26.084 Y44.314 A32.23367
G1 X25.516 Y43.739 A32.34168
G1 X25.210 Y43.399 A32.40283
G1 X24.677 Y42.751 A32.51489
G1 X24.403 Y42.384 A32.57603
G1 X23.947 Y41.712 A32.68460
G1 X23.566 Y41.080 A32.78309
G1 X23.312 Y40.613 A32.85421
G1 X22.965 Y39.893 A32.96099
G1 X22.665 Y39.170 A33.06550
G1 X22.420 Y38.481 A33.16320
G1 X22.263 Y37.967 A33.23509
G1 X22.067 Y37.193 A33.34175
G1 X21.919 Y36.430 A33.44558
G1 X21.808 Y35.630 A33.55348
G1 X21.763 Y35.144 A33.61863
G1 X21.737 Y34.661 A33.68334
G1 X21.730 Y33.828 A33.79462
G1 X21.776 Y32.925 A33.91539
G1 X21.828 Y32.414 A33.98402
G1 X21.955 Y31.580 A34.09671
G1 X22.075 Y30.991 A34.17695
G1 X22.307 Y30.101 A34.29995
G1 X22.460 Y29.616 A34.36783
G1 X22.785 Y28.743 A34.49225
G1 X22.988 Y28.272 A34.56083
G1 X23.364 Y27.508 A34.67461
G1 X23.651 Y26.990 A34.75379
G1 X24.142 Y26.209 A34.87696
G1 X24.433 Y25.792 A34.94488
G1 X25.006 Y25.057 A35.06938
G1 X25.361 Y24.647 A35.14184
G1 X25.865 Y24.121 A35.23916
G1 A33.23916 F2400.00000
G1 X24.596 Y21.784 F7800.000
G1 A35.23916 F2400.00000
G1 F1800
G1 X25.186 Y21.261 A35.34446
G1 X25.687 Y20.861 A35.43024
G1 X26.504 Y20.273 A35.56470
G1 X27.093 Y19.892 A35.65841
G1 X27.968 Y19.389 A35.79331
G1 X28.604 Y19.065 A35.88860
G1 X29.221 Y18.782 A35.97923
G1 X29.833 Y18.532 A36.06758
G1 X30.838 Y18.180 A36.20985
G1 X31.473 Y17.993 A36.29824
G1 X32.135 Y17.828 A36.38942
G1 X32.783 Y17.694 A36.47784
G1 X33.836 Y17.531 A36.62020
G1 X34.494 Y17.464 A36.70865
G1 X35.156 Y17.423 A36.79717
G1 X36.211 Y17.412 A36.93821
G1 X36.884 Y17.440 A37.02817
G1 X37.554 Y17.495 A37.11798
G1 X38.372 Y17.600 A37.22809
G1 X39.245 Y17.757 A37.34662
G1 X40.268 Y18.003 A37.48725
G1 X40.884 Y18.185 A37.57305
G1 X41.891 Y18.539 A37.71567
G1 X42.485 Y18.783 A37.80150
G1 X43.451 Y19.238 A37.94417
G1 X44.018 Y19.542 A38.03002
G1 X44.932 Y20.094 A38.17274
G1 X45.465 Y20.453 A38.25862
G1 X46.318 Y21.096 A38.40138
G1 X46.812 Y21.509 A38.48728
G1 X47.595 Y22.236 A38.63008
G1 X48.043 Y22.697 A38.71600
G1 X48.749 Y23.501 A38.85884
G1 X49.158 Y24.019 A38.94706
G1 X49.579 Y24.601 A39.04304
G1 X50.122 Y25.436 A39.17614
G1 X50.639 Y26.351 A39.31650
G1 X50.936 Y26.945 A39.40527
G1 X51.218 Y27.570 A39.49684
G1 X51.465 Y28.187 A39.58562
G1 X51.812 Y29.199 A39.72855
G1 X51.995 Y29.837 A39.81734
G1 X52.156 Y30.499 A39.90830
G1 X52.298 Y31.217 A40.00608
G1 X52.442 Y32.212 A40.14035
G1 X52.503 Y32.855 A40.22669
G1 X52.549 Y33.924 A40.36964
G1 X52.544 Y34.589 A40.45844
G1 X52.510 Y35.269 A40.54940
G1 X52.443 Y35.998 A40.64728
G1 X52.300 Y36.992 A40.78147
G1 X52.176 Y37.626 A40.86780
G1 X51.917 Y38.665 A41.01074
G1 X51.725 Y39.296 A41.09893
G1 X51.483 Y39.983 A41.19618
G1 X51.100 Y40.916 A41.33093
G1 X50.817 Y41.519 A41.42001
G1 X50.510 Y42.109 A41.50877
G1 X49.968 Y43.031 A41.65166
G1 X49.614 Y43.568 A41.73763
G1 X48.980 Y44.429 A41.88049
G1 X48.560 Y44.943 A41.96922
G1 X48.117 Y45.441 A42.05822
G1 X47.394 Y46.177 A42.19611
G1 X46.944 Y46.592 A42.27785
G1 X46.235 Y47.188 A42.40157
G1 X45.775 Y47.541 A42.47905
G1 X45.001 Y48.079 A42.60501
G1 X44.200 Y48.573 A42.73073
G1 X43.673 Y48.864 A42.81108
G1 X42.849 Y49.272 A42.93403
G1 X41.983 Y49.643 A43.05989
G1 X41.429 Y49.851 A43.13890
G1 X40.545 Y50.136 A43.26305
G1 X39.651 Y50.371 A43.38643
G1 X38.748 Y50.556 A43.50967
G1 X37.817 Y50.694 A43.63536
G1 X37.224 Y50.754 A43.71499
G1 X35.996 Y50.809 A43.87928
G1 X35.381 Y50.803 A43.96142
G1 X34.173 Y50.724 A44.12314
G1 X33.240 Y50.603 A44.24878
G1 X32.334 Y50.433 A44.37204
G1 X31.450 Y50.217 A44.49362
G1 X30.866 Y50.047 A44.57484
G1 X29.980 Y49.741 A44.70008
G1 X29.110 Y49.386 A44.82560
G1 X28.587 Y49.145 A44.90261
G1 X27.753 Y48.712 A45.02809
G1 X26.961 Y48.243 A45.15104
G1 X26.180 Y47.722 A45.27648
G1 X25.717 Y47.380 A45.35343
G1 X24.988 Y46.789 A45.47883
G1 X24.306 Y46.171 A45.60171
G1 X23.646 Y45.504 A45.72706
G1 X23.261 Y45.077 A45.80398
G1 X22.653 Y44.337 A45.93180
G1 X22.309 Y43.876 A46.00869
G1 X21.781 Y43.098 A46.13437
G1 X21.335 Y42.358 A46.24975
G1 X21.024 Y41.785 A46.33685
G1 X20.619 Y40.946 A46.46141
G1 X20.265 Y40.094 A46.58457
G1 X19.978 Y39.286 A46.69911
G1 X19.786 Y38.657 A46.78701
G1 X19.558 Y37.754 A46.91148
G1 X19.382 Y36.852 A47.03421
G1 X19.253 Y35.924 A47.15943
G1 X19.199 Y35.333 A47.23876
G1 X19.167 Y34.742 A47.31781
G1 X19.159 Y33.773 A47.44729
G1 X19.212 Y32.729 A47.58696
G1 X19.277 Y32.089 A47.67280
G1 X19.423 Y31.130 A47.80244
G1 X19.569 Y30.411 A47.90047
G1 X19.835 Y29.389 A48.04151
G1 X20.028 Y28.780 A48.12690
G1 X20.399 Y27.785 A48.26882
G1 X20.653 Y27.195 A48.35464
G1 X21.085 Y26.316 A48.48542
G1 X21.437 Y25.682 A48.58237
G1 X21.999 Y24.787 A48.72356
G1 X22.366 Y24.263 A48.80899
G1 X23.019 Y23.425 A48.95100
G1 X23.452 Y22.925 A49.03922
G1 X24.158 Y22.194 A49.17507
G1 A47.17507 F2400.00000
G1 X22.891 Y19.859 F7800.000
G1 A49.17507 F2400.00000
G1 F1800
G1 X23.530 Y19.293 A49.28913
G1 X24.133 Y18.812 A49.39225
G1 X25.054 Y18.149 A49.54389
G1 X25.754 Y17.696 A49.65515
G1 X26.743 Y17.128 A49.80762
G1 X27.485 Y16.749 A49.91885
G1 X28.199 Y16.423 A50.02382
G1 X28.921 Y16.128 A50.12796
G1 X30.050 Y15.732 A50.28777
G1 X30.798 Y15.512 A50.39195
G1 X31.562 Y15.321 A50.49717
G1 X32.326 Y15.163 A50.60138
G1 X33.509 Y14.980 A50.76130
G1 X34.285 Y14.901 A50.86555
G1 X35.064 Y14.853 A50.96984
G1 X36.251 Y14.841 A51.12838
G1 X37.042 Y14.873 A51.23418
G1 X37.824 Y14.937 A51.33899
G1 X38.763 Y15.058 A51.46552
G1 X39.773 Y15.240 A51.60256
G1 X40.933 Y15.518 A51.76200
G1 X41.675 Y15.738 A51.86538
G1 X42.806 Y16.135 A52.02559
G1 X43.522 Y16.429 A52.12900
G1 X44.607 Y16.941 A52.28926
G1 X45.290 Y17.307 A52.39271
G1 X46.317 Y17.927 A52.55303
G1 X46.959 Y18.360 A52.65651
G1 X47.918 Y19.082 A52.81687
G1 X48.512 Y19.580 A52.92038
G1 X49.392 Y20.396 A53.08078
G1 X49.932 Y20.952 A53.18432
G1 X50.724 Y21.855 A53.34477
G1 X51.209 Y22.468 A53.44917
G1 X51.700 Y23.147 A53.56117
G1 X52.320 Y24.102 A53.71333
G1 X52.909 Y25.142 A53.87291
G1 X53.259 Y25.842 A53.97754
G1 X53.584 Y26.563 A54.08320
G1 X53.875 Y27.290 A54.18784
G1 X54.265 Y28.427 A54.34840
G1 X54.481 Y29.180 A54.45305
G1 X54.667 Y29.947 A54.55851
G1 X54.832 Y30.783 A54.67236
G1 X54.996 Y31.905 A54.82386
G1 X55.069 Y32.678 A54.92761
G1 X55.121 Y33.879 A55.08820
G1 X55.114 Y34.663 A55.19287
G1 X55.075 Y35.451 A55.29833
G1 X54.996 Y36.300 A55.41228
G1 X54.835 Y37.422 A55.56369
G1 X54.686 Y38.184 A55.66744
G1 X54.395 Y39.350 A55.82801
G1 X54.168 Y40.098 A55.93244
G1 X53.886 Y40.898 A56.04574
G1 X53.454 Y41.951 A56.19774
G1 X53.121 Y42.660 A56.30249
G1 X52.759 Y43.355 A56.40711
G1 X52.150 Y44.390 A56.56762
G1 X51.724 Y45.038 A56.67120
G1 X51.012 Y46.005 A56.83168
G1 X50.516 Y46.611 A56.93627
G1 X49.996 Y47.197 A57.04094
G1 X49.183 Y48.025 A57.19596
G1 X48.643 Y48.522 A57.29401
G1 X47.845 Y49.193 A57.43335
G1 X47.291 Y49.618 A57.52656
G1 X46.410 Y50.230 A57.66995
G1 X45.497 Y50.793 A57.81324
G1 X44.867 Y51.142 A57.90949
G1 X43.926 Y51.607 A58.04972
G1 X42.940 Y52.030 A58.19301
G1 X42.275 Y52.279 A58.28788
G1 X41.267 Y52.604 A58.42936
G1 X40.237 Y52.875 A58.57169
G1 X39.194 Y53.089 A58.71395
G1 X38.134 Y53.246 A58.85709
G1 X37.435 Y53.316 A58.95098
G1 X36.727 Y53.361 A59.04579
G1 X36.017 Y53.380 A59.14059
G1 X35.308 Y53.373 A59.23538
G1 X34.599 Y53.340 A59.33015
G1 X33.899 Y53.281 A59.42399
G1 X32.838 Y53.143 A59.56701
G1 X31.792 Y52.947 A59.70914
G1 X30.783 Y52.701 A59.84791
G1 X30.086 Y52.497 A59.94500
G1 X29.075 Y52.149 A60.08780
G1 X28.085 Y51.745 A60.23069
G1 X27.454 Y51.453 A60.32348
G1 X26.505 Y50.961 A60.46632
G1 X25.591 Y50.420 A60.60821
G1 X24.703 Y49.826 A60.75100
G1 X24.144 Y49.414 A60.84373
G1 X23.314 Y48.742 A60.98647
G1 X22.527 Y48.029 A61.12827
G1 X21.777 Y47.269 A61.27097
G1 X21.312 Y46.754 A61.36364
G1 X20.630 Y45.924 A61.50723
G1 X20.214 Y45.368 A61.59988
G1 X19.615 Y44.484 A61.74265
G1 X19.103 Y43.636 A61.87492
G1 X18.735 Y42.958 A61.97802
G1 X18.272 Y41.999 A62.12035
G1 X17.865 Y41.019 A62.26216
G1 X17.536 Y40.092 A62.39355
G1 X17.309 Y39.348 A62.49745
G1 X17.048 Y38.315 A62.63973
G1 X16.845 Y37.275 A62.78136
G1 X16.699 Y36.218 A62.92390
G1 X16.635 Y35.521 A63.01740
G1 X16.596 Y34.823 A63.11080
G1 X16.587 Y33.718 A63.25848
G1 X16.648 Y32.532 A63.41705
G1 X16.726 Y31.765 A63.52009
G1 X16.891 Y30.680 A63.66669
G1 X17.064 Y29.831 A63.78251
G1 X17.364 Y28.678 A63.94160
G1 X17.596 Y27.944 A64.04449
G1 X18.012 Y26.826 A64.20392
G1 X18.318 Y26.118 A64.30697
G1 X18.806 Y25.125 A64.45475
G1 X19.223 Y24.374 A64.56948
G1 X19.856 Y23.365 A64.72867
G1 X20.298 Y22.734 A64.83161
G1 X21.033 Y21.792 A64.99114
G1 X21.542 Y21.204 A65.09512
G1 X22.080 Y20.631 A65.20015
G1 X22.451 Y20.267 A65.26953
G1 X23.706 Y20.114 F7800.000
G1 A63.26953 F2400.00000
G1 X48.370 Y29.463 F7800.000
G1 A65.26953 F2400.00000
G1 F1800
G1 X43.565 Y24.659 A66.22166
G1 X42.850 Y24.116 A66.34742
G1 X42.509 Y23.886 A66.40519
G1 X41.792 Y23.453 A66.52258
G1 X41.428 Y23.258 A66.58033
G1 X40.671 Y22.901 A66.69768
G1 X40.290 Y22.745 A66.75542
G1 X39.500 Y22.467 A66.87273
G1 X39.105 Y22.350 A66.93045
G1 X38.321 Y22.162 A67.04345
G1 X37.687 Y22.048 A67.13376
G1 X37.062 Y21.968 A67.22204
G1 X47.988 Y32.895 A69.38739
G1 X48.049 Y33.982 A69.54002
G1 X48.020 Y34.969 A69.67833
G1 X47.973 Y35.469 A69.74879
G1 X47.807 Y36.527 A69.89878
G1 X33.433 Y22.153 A72.74727
G1 X33.156 Y22.211 A72.78695
G1 X32.198 Y22.470 A72.92603
G1 X31.429 Y22.740 A73.04020
G1 X31.028 Y22.904 A73.10096
G1 X30.585 Y23.118 A73.16991
G1 X46.850 Y39.383 A76.39321
G1 X46.573 Y39.928 A76.47880
G1 X46.148 Y40.651 A76.59634
G1 X45.921 Y40.995 A76.65416
G1 X45.377 Y41.724 A76.78156
G1 X28.236 Y24.583 A80.17853
G1 X27.458 Y25.258 A80.32285
G1 X27.148 Y25.563 A80.38379
G1 X26.484 Y26.298 A80.52261
G1 X26.332 Y26.493 A80.55719
G1 X43.473 Y43.633 A83.95402
G1 X43.121 Y43.906 A84.01643
G1 X42.534 Y44.314 A84.11657
G1 X41.929 Y44.687 A84.21619
G1 X41.130 Y45.103 A84.34249
G1 X24.860 Y28.834 A87.56666
G1 X24.574 Y29.462 A87.66341
G1 X24.284 Y30.243 A87.78015
G1 X24.160 Y30.634 A87.83758
G1 X23.901 Y31.688 A87.98967
G1 X38.274 Y46.061 A90.83812
G1 X37.281 Y46.225 A90.97922
G1 X36.390 Y46.298 A91.10449
G1 X35.976 Y46.309 A91.16254
G1 X35.042 Y46.283 A91.29337
G1 X34.649 Y46.250 A91.34865
G1 X23.718 Y35.319 A93.51489
G1 X23.821 Y36.113 A93.62711
G1 X23.950 Y36.772 A93.72114
G1 X24.121 Y37.449 A93.81902
G1 X24.252 Y37.877 A93.88183
G1 X24.465 Y38.477 A93.97104
G1 X24.725 Y39.103 A94.06600
G1 X25.029 Y39.733 A94.16401
G1 X25.572 Y40.672 A94.31601
G1 X25.974 Y41.265 A94.41644
G1 X26.414 Y41.828 A94.51658
G1 X31.220 Y46.634 A95.46895
G1 Z4.000 F7800.000
G1 A93.46895 F2400.00000
G1 X22.204 Y19.145 F7800.000
G1 A95.46895 F2400.00000
G1 F600
G1 X22.899 Y18.537 A95.49634
G1 X23.829 Y17.810 A95.53137
G1 X24.553 Y17.299 A95.55766
G1 X25.600 Y16.642 A95.59431
G1 X26.324 Y16.237 A95.61892
G1 X27.061 Y15.863 A95.64346
G1 X27.816 Y15.518 A95.66807
G1 X28.965 Y15.063 A95.70473
G1 X29.754 Y14.796 A95.72943
G1 X30.944 Y14.460 A95.76611
G1 X31.756 Y14.275 A95.79081
G1 X32.974 Y14.062 A95.82750
G1 X33.799 Y13.961 A95.85213
G1 X34.626 Y13.894 A95.87676
G1 X35.732 Y13.859 A95.90958
