; generated by PrusaSlicer 2.0.0+win64 on 2019-06-09 at 04:42:39

; 

; external perimeters extrusion width = 2.00mm
; perimeters extrusion width = 2.00mm
; infill extrusion width = 2.00mm
; solid infill extrusion width = 2.00mm
; top infill extrusion width = 2.00mm
; first layer extrusion width = 3.00mm

M107
M107
g92 z0
g1 f1000 z-310
g92 x0 y0 a0 z0
; Filament gcode
G21 ; set units to millimeters
G90 ; use absolute coordinates
G1 Z4.000 F7800.000
G1 A-2.00000 F2400.00000
G1 X9.002 Y8.755 F7800.000
G1 A0.00000 F2400.00000
G1 F1800
G1 X10.430 Y7.535 A0.81959
G1 X12.400 Y6.068 A1.89122
G1 X13.955 Y5.061 A2.69931
G1 X15.724 Y4.066 A3.58481
G1 X17.558 Y3.182 A4.47316
G1 X19.273 Y2.482 A5.28128
G1 X21.622 Y1.700 A6.36145
G1 X23.434 Y1.229 A7.17816
G1 X25.393 Y0.846 A8.04933
G1 X27.681 Y0.559 A9.05508
G1 X29.529 Y0.444 A9.86320
G1 X31.369 Y0.440 A10.66558
G1 X33.833 Y0.596 A11.74289
G1 X35.695 Y0.841 A12.56247
G1 X37.668 Y1.225 A13.43936
G1 X39.896 Y1.819 A14.44511
G1 X41.652 Y2.406 A15.25323
G1 X43.522 Y3.163 A16.13299
G1 X45.594 Y4.172 A17.13877
G1 X47.206 Y5.085 A17.94686
G1 X48.907 Y6.193 A18.83237
G1 X50.732 Y7.569 A19.82956
G1 X52.134 Y8.768 A20.63479
G1 X53.597 Y10.185 A21.52317
G1 X54.966 Y11.692 A22.41154
G1 X56.124 Y13.138 A23.21967
G1 X57.441 Y15.006 A24.21685
G1 X58.493 Y16.742 A25.10236
G1 X59.354 Y18.382 A25.91050
G1 X60.296 Y20.486 A26.91628
G1 X60.993 Y22.379 A27.79606
G1 X61.524 Y24.153 A28.60421
G1 X62.044 Y26.392 A29.60712
G1 X62.366 Y28.383 A30.48692
G1 X62.550 Y30.246 A31.30366
G1 X62.629 Y32.701 A32.37528
G1 X62.566 Y34.552 A33.18343
G1 X62.391 Y36.403 A33.99445
G1 X62.031 Y38.680 A35.00024
G1 X61.585 Y40.626 A35.87143
G1 X61.056 Y42.422 A36.68817
G1 X60.199 Y44.745 A37.76837
G1 X59.446 Y46.437 A38.57650
G1 X58.506 Y48.236 A39.46202
G1 X57.452 Y49.978 A40.35040
G1 X56.396 Y51.500 A41.15853
G1 X54.862 Y53.427 A42.23300
G1 X53.601 Y54.811 A43.04974
G1 X52.273 Y56.102 A43.85786
G1 X50.398 Y57.699 A44.93231
G1 X48.896 Y58.816 A45.74904
G1 X47.212 Y59.912 A46.62595
G1 X45.198 Y61.036 A47.63170
G1 X43.528 Y61.836 A48.43981
G1 X41.665 Y62.590 A49.31671
G1 X39.474 Y63.308 A50.32246
G1 X37.681 Y63.774 A51.13058
G1 X35.683 Y64.162 A52.01893
G1 X33.421 Y64.444 A53.01323
G1 X31.572 Y64.558 A53.82132
G1 X29.562 Y64.559 A54.69823
G1 X27.262 Y64.401 A55.70399
G1 X25.419 Y64.159 A56.51495
G1 X23.427 Y63.771 A57.40044
G1 X21.219 Y63.180 A58.39763
G1 X19.469 Y62.595 A59.20285
G1 X17.582 Y61.830 A60.09121
G1 X15.527 Y60.829 A61.08840
G1 X13.916 Y59.916 A61.89648
G1 X12.210 Y58.804 A62.78484
G1 X10.577 Y57.587 A63.67322
G1 X9.169 Y56.393 A64.47849
G1 X7.511 Y54.801 A65.48138
G1 X6.151 Y53.304 A66.36402
G1 X4.997 Y51.863 A67.16929
G1 X3.681 Y49.995 A68.16647
G1 X2.628 Y48.259 A69.05198
G1 X1.767 Y46.619 A69.86013
G1 X0.825 Y44.515 A70.86590
G1 X0.129 Y42.623 A71.74568
G1 X-0.402 Y40.848 A72.55383
G1 X-0.923 Y38.609 A73.55674
G1 X-1.245 Y36.618 A74.43654
G1 X-1.429 Y34.755 A75.25328
G1 X-1.507 Y32.300 A76.32490
G1 X-1.444 Y30.449 A77.13305
G1 X-1.270 Y28.605 A77.94120
G1 X-0.914 Y26.347 A78.93840
G1 X-0.465 Y24.381 A79.81819
G1 X0.058 Y22.604 A80.62633
G1 X0.852 Y20.419 A81.64070
G1 X1.659 Y18.599 A82.50902
G1 X2.512 Y16.955 A83.31716
G1 X3.699 Y14.979 A84.32293
G1 X4.849 Y13.330 A85.19984
G1 X6.017 Y11.859 A86.01945
G1 X7.683 Y10.028 A87.09965
G1 X8.570 Y9.172 A87.63739
G1 A85.63739 F2400.00000
G1 X18.831 Y20.106 F7800.000
G1 A87.63739 F2400.00000
G1 F1800
G1 X19.084 Y19.861 A87.79103
G1 X19.917 Y19.151 A88.26849
G1 X20.794 Y18.497 A88.74594
G1 X21.711 Y17.900 A89.22337
G1 X22.665 Y17.363 A89.70081
G1 X23.651 Y16.888 A90.17824
G1 X24.665 Y16.477 A90.65566
G1 X25.704 Y16.132 A91.13308
G1 X26.762 Y15.855 A91.61050
G1 X27.836 Y15.645 A92.08790
G1 X28.922 Y15.505 A92.56531
G1 X29.991 Y15.437 A93.03263
G1 X31.245 Y15.444 A93.57982
G1 X32.200 Y15.505 A93.99739
G1 X33.285 Y15.645 A94.47480
G1 X34.359 Y15.855 A94.95221
G1 X35.418 Y16.132 A95.42962
G1 X36.456 Y16.477 A95.90704
G1 X37.471 Y16.888 A96.38446
G1 X38.456 Y17.363 A96.86189
G1 X39.410 Y17.900 A97.33933
G1 X40.327 Y18.497 A97.81677
G1 X41.204 Y19.151 A98.29422
G1 X42.037 Y19.861 A98.77167
G1 X42.823 Y20.622 A99.24914
G1 X43.559 Y21.432 A99.72662
G1 X44.242 Y22.288 A100.20410
G1 X44.868 Y23.186 A100.68159
G1 X45.424 Y24.104 A101.15000
G1 X45.991 Y25.204 A101.68986
G1 X46.384 Y26.093 A102.11398
G1 X46.762 Y27.120 A102.59150
G1 X47.074 Y28.169 A103.06902
G1 X47.317 Y29.237 A103.54655
G1 X47.492 Y30.317 A104.02408
G1 X47.597 Y31.407 A104.50160
G1 X47.632 Y32.501 A104.97914
G1 X47.597 Y33.576 A105.44857
G1 X47.474 Y34.790 A105.98114
G1 X47.317 Y35.765 A106.41162
G1 X47.077 Y36.814 A106.88138
G1 X46.727 Y37.978 A107.41151
G1 X46.384 Y38.908 A107.84408
G1 X45.941 Y39.909 A108.32159
G1 X45.435 Y40.879 A108.79910
G1 X44.868 Y41.815 A109.27660
G1 X44.242 Y42.713 A109.75409
G1 X43.559 Y43.569 A110.23157
G1 X42.823 Y44.379 A110.70904
G1 X42.037 Y45.140 A111.18652
G1 X41.204 Y45.850 A111.66398
G1 X40.327 Y46.504 A112.14142
G1 X39.410 Y47.101 A112.61886
G1 X38.456 Y47.638 A113.09630
G1 X37.471 Y48.113 A113.57373
G1 X36.470 Y48.518 A114.04454
G1 X35.334 Y48.891 A114.56621
G1 X34.359 Y49.146 A115.00589
G1 X33.285 Y49.356 A115.48330
G1 X32.200 Y49.496 A115.96071
G1 X31.108 Y49.566 A116.43812
G1 X30.014 Y49.566 A116.91551
G1 X28.922 Y49.496 A117.39292
G1 X27.836 Y49.356 A117.87033
G1 X26.762 Y49.146 A118.34774
G1 X25.704 Y48.869 A118.82516
G1 X24.680 Y48.529 A119.29587
G1 X23.572 Y48.075 A119.81817
G1 X22.665 Y47.638 A120.25733
G1 X21.711 Y47.101 A120.73477
G1 X20.794 Y46.504 A121.21222
G1 X19.917 Y45.850 A121.68965
G1 X19.084 Y45.140 A122.16712
G1 X18.298 Y44.379 A122.64459
G1 X17.562 Y43.569 A123.12206
G1 X16.880 Y42.713 A123.59954
G1 X16.254 Y41.815 A124.07703
G1 X15.695 Y40.894 A124.54696
G1 X15.140 Y39.817 A125.07563
G1 X14.737 Y38.908 A125.50945
G1 X14.359 Y37.881 A125.98697
G1 X14.048 Y36.832 A126.46448
G1 X13.804 Y35.765 A126.94201
G1 X13.630 Y34.684 A127.41954
G1 X13.525 Y33.595 A127.89707
G1 X13.490 Y32.501 A128.37460
G1 X13.525 Y31.407 A128.85213
G1 X13.630 Y30.317 A129.32967
G1 X13.804 Y29.237 A129.80719
G1 X14.048 Y28.169 A130.28472
G1 X14.359 Y27.120 A130.76224
G1 X14.737 Y26.093 A131.23976
G1 X15.180 Y25.092 A131.71727
G1 X15.686 Y24.122 A132.19477
G1 X16.254 Y23.186 A132.67227
G1 X16.880 Y22.288 A133.14976
G1 X17.562 Y21.432 A133.62724
G1 X18.400 Y20.523 A134.16667
G1 A132.16667 F2400.00000
G1 X17.341 Y18.567 F7800.000
G1 A134.16667 F2400.00000
G1 F1800
G1 X17.643 Y18.275 A134.35027
G1 X18.581 Y17.476 A134.88765
G1 X19.568 Y16.739 A135.42503
G1 X20.601 Y16.067 A135.96240
G1 X21.674 Y15.463 A136.49976
G1 X22.783 Y14.929 A137.03712
G1 X23.925 Y14.466 A137.57447
G1 X25.094 Y14.078 A138.11182
G1 X26.285 Y13.766 A138.64916
G1 X27.494 Y13.530 A139.18650
G1 X28.716 Y13.373 A139.72384
G1 X29.928 Y13.295 A140.25382
G1 X31.320 Y13.303 A140.86094
G1 X32.406 Y13.373 A141.33572
G1 X33.627 Y13.530 A141.87305
G1 X34.836 Y13.766 A142.41039
G1 X36.027 Y14.078 A142.94774
G1 X37.196 Y14.466 A143.48509
G1 X38.338 Y14.929 A144.02244
G1 X39.448 Y15.463 A144.55980
G1 X40.521 Y16.067 A145.09716
G1 X41.553 Y16.739 A145.63453
G1 X42.540 Y17.476 A146.17190
G1 X43.478 Y18.275 A146.70929
G1 X44.363 Y19.132 A147.24668
G1 X45.191 Y20.044 A147.78408
G1 X45.959 Y21.007 A148.32149
G1 X46.663 Y22.017 A148.85890
G1 X47.294 Y23.057 A149.38968
G1 X47.923 Y24.280 A149.98947
G1 X48.370 Y25.289 A150.47105
G1 X48.796 Y26.445 A151.00849
G1 X49.146 Y27.626 A151.54593
G1 X49.420 Y28.827 A152.08338
G1 X49.617 Y30.043 A152.62083
G1 X49.735 Y31.269 A153.15827
G1 X49.775 Y32.501 A153.69572
G1 X49.736 Y33.718 A154.22726
G1 X49.599 Y35.069 A154.81975
G1 X49.420 Y36.174 A155.30796
G1 X49.149 Y37.362 A155.83974
G1 X48.758 Y38.657 A156.42979
G1 X48.370 Y39.712 A156.92018
G1 X47.872 Y40.839 A157.45761
G1 X47.302 Y41.931 A157.99504
G1 X46.663 Y42.984 A158.53246
G1 X45.959 Y43.994 A159.06988
G1 X45.191 Y44.958 A159.60728
G1 X44.363 Y45.869 A160.14467
G1 X43.478 Y46.726 A160.68207
G1 X42.540 Y47.525 A161.21946
G1 X41.553 Y48.262 A161.75683
G1 X40.521 Y48.934 A162.29420
G1 X39.448 Y49.538 A162.83156
G1 X38.338 Y50.073 A163.36892
G1 X37.207 Y50.531 A163.90145
G1 X35.940 Y50.946 A164.48306
G1 X34.836 Y51.235 A164.98088
G1 X33.627 Y51.471 A165.51822
G1 X32.406 Y51.628 A166.05556
G1 X31.177 Y51.707 A166.59290
G1 X29.945 Y51.707 A167.13022
G1 X28.716 Y51.628 A167.66756
G1 X27.494 Y51.471 A168.20491
G1 X26.285 Y51.235 A168.74224
G1 X25.094 Y50.923 A169.27959
G1 X23.936 Y50.538 A169.81205
G1 X22.701 Y50.033 A170.39427
G1 X21.674 Y49.538 A170.89155
G1 X20.601 Y48.934 A171.42892
G1 X19.568 Y48.262 A171.96629
G1 X18.581 Y47.525 A172.50366
G1 X17.643 Y46.726 A173.04105
G1 X16.759 Y45.869 A173.57845
G1 X15.931 Y44.958 A174.11584
G1 X15.163 Y43.994 A174.65324
G1 X14.458 Y42.984 A175.19066
G1 X13.826 Y41.942 A175.72255
G1 X13.207 Y40.743 A176.31115
G1 X12.751 Y39.712 A176.80284
G1 X12.326 Y38.556 A177.34027
G1 X11.975 Y37.375 A177.87771
G1 X11.701 Y36.174 A178.41516
G1 X11.505 Y34.958 A178.95261
G1 X11.386 Y33.732 A179.49005
G1 X11.347 Y32.501 A180.02751
G1 X11.386 Y31.269 A180.56495
G1 X11.505 Y30.043 A181.10240
G1 X11.701 Y28.827 A181.63985
G1 X11.975 Y27.626 A182.17730
G1 X12.326 Y26.445 A182.71474
G1 X12.751 Y25.289 A183.25217
G1 X13.250 Y24.163 A183.78961
G1 X13.819 Y23.070 A184.32703
G1 X14.458 Y22.017 A184.86445
G1 X15.163 Y21.007 A185.40186
G1 X15.931 Y20.044 A185.93927
G1 X16.910 Y18.985 A186.56853
G1 A184.56853 F2400.00000
G1 X15.851 Y17.029 F7800.000
G1 A186.56853 F2400.00000
G1 F1800
G1 X16.203 Y16.689 A186.78209
G1 X17.245 Y15.801 A187.37940
G1 X18.342 Y14.982 A187.97670
G1 X19.490 Y14.235 A188.57400
G1 X20.683 Y13.563 A189.17129
G1 X21.916 Y12.969 A189.76858
G1 X23.185 Y12.455 A190.36586
G1 X24.484 Y12.024 A190.96314
G1 X25.809 Y11.677 A191.56041
G1 X27.152 Y11.415 A192.15768
G1 X28.510 Y11.240 A192.75495
G1 X29.866 Y11.153 A193.34759
G1 X31.395 Y11.162 A194.01464
G1 X32.611 Y11.240 A194.54663
G1 X33.969 Y11.415 A195.14389
G1 X35.313 Y11.677 A195.74116
G1 X36.637 Y12.024 A196.33844
G1 X37.936 Y12.455 A196.93572
G1 X39.205 Y12.969 A197.53300
G1 X40.439 Y13.563 A198.13029
G1 X41.632 Y14.235 A198.72758
G1 X42.779 Y14.982 A199.32487
G1 X43.876 Y15.801 A199.92218
G1 X44.919 Y16.689 A200.51949
G1 X45.902 Y17.641 A201.11680
G1 X46.822 Y18.655 A201.71413
G1 X47.676 Y19.725 A202.31146
G1 X48.459 Y20.848 A202.90879
G1 X49.164 Y22.011 A203.50196
G1 X49.856 Y23.355 A204.16166
G1 X50.356 Y24.485 A204.70071
G1 X50.829 Y25.770 A205.29807
G1 X51.219 Y27.083 A205.89543
G1 X51.523 Y28.417 A206.49279
G1 X51.742 Y29.769 A207.09016
G1 X51.873 Y31.132 A207.68752
G1 X51.917 Y32.501 A208.28489
G1 X51.874 Y33.861 A208.87854
G1 X51.723 Y35.348 A209.53095
G1 X51.523 Y36.584 A210.07689
G1 X51.221 Y37.911 A210.67068
G1 X50.790 Y39.337 A211.32065
G1 X50.356 Y40.516 A211.86886
G1 X49.802 Y41.768 A212.46622
G1 X49.169 Y42.982 A213.06356
G1 X48.459 Y44.153 A213.66091
G1 X47.676 Y45.276 A214.25824
G1 X46.822 Y46.346 A214.85557
G1 X45.902 Y47.360 A215.45289
G1 X44.919 Y48.313 A216.05021
G1 X43.876 Y49.200 A216.64752
G1 X42.779 Y50.019 A217.24482
G1 X41.632 Y50.766 A217.84212
G1 X40.439 Y51.438 A218.43941
G1 X39.205 Y52.032 A219.03670
G1 X37.943 Y52.543 A219.63094
G1 X36.546 Y53.001 A220.27248
G1 X35.313 Y53.324 A220.82844
G1 X33.969 Y53.586 A221.42571
G1 X32.611 Y53.761 A222.02299
G1 X31.245 Y53.849 A222.62026
G1 X29.876 Y53.849 A223.21752
G1 X28.510 Y53.761 A223.81479
G1 X27.152 Y53.586 A224.41206
G1 X25.809 Y53.324 A225.00933
G1 X24.484 Y52.977 A225.60660
G1 X23.192 Y52.548 A226.20080
G1 X21.830 Y51.990 A226.84296
G1 X20.683 Y51.438 A227.39836
G1 X19.490 Y50.766 A227.99566
G1 X18.342 Y50.019 A228.59295
G1 X17.245 Y49.200 A229.19025
G1 X16.203 Y48.313 A229.78756
G1 X15.219 Y47.360 A230.38488
G1 X14.299 Y46.346 A230.98220
G1 X13.445 Y45.276 A231.57953
G1 X12.662 Y44.153 A232.17687
G1 X11.957 Y42.989 A232.77073
G1 X11.275 Y41.668 A233.41925
G1 X10.765 Y40.516 A233.96881
G1 X10.292 Y39.231 A234.56616
G1 X9.903 Y37.919 A235.16352
G1 X9.598 Y36.584 A235.76089
G1 X9.380 Y35.232 A236.35825
G1 X9.248 Y33.869 A236.95562
G1 X9.204 Y32.501 A237.55299
G1 X9.248 Y31.132 A238.15036
G1 X9.380 Y29.769 A238.74772
G1 X9.598 Y28.417 A239.34509
G1 X9.903 Y27.083 A239.94245
G1 X10.292 Y25.770 A240.53981
G1 X10.765 Y24.485 A241.13717
G1 X11.319 Y23.233 A241.73452
G1 X11.952 Y22.019 A242.33187
G1 X12.662 Y20.848 A242.92921
G1 X13.445 Y19.725 A243.52654
G1 X14.299 Y18.655 A244.12387
G1 X15.219 Y17.641 A244.72120
G1 X15.420 Y17.447 A244.84318
G1 A242.84318 F2400.00000
G1 X14.762 Y15.102 F7800.000
G1 A244.84318 F2400.00000
G1 F1800
G1 X15.909 Y14.126 A245.50042
G1 X17.116 Y13.225 A246.15765
G1 X18.379 Y12.403 A246.81487
G1 X19.691 Y11.664 A247.47209
G1 X21.049 Y11.010 A248.12931
G1 X22.445 Y10.445 A248.78652
G1 X23.875 Y9.970 A249.44373
G1 X25.332 Y9.588 A250.10093
G1 X26.810 Y9.300 A250.75813
G1 X28.304 Y9.107 A251.41533
G1 X29.803 Y9.011 A252.07063
G1 X31.469 Y9.021 A252.79761
G1 X32.817 Y9.107 A253.38680
G1 X34.311 Y9.300 A254.04400
G1 X35.790 Y9.588 A254.70120
G1 X37.247 Y9.970 A255.35841
G1 X38.676 Y10.445 A256.01561
G1 X40.073 Y11.010 A256.67283
G1 X41.430 Y11.664 A257.33004
G1 X42.742 Y12.403 A257.98726
G1 X44.005 Y13.225 A258.64449
G1 X45.212 Y14.126 A259.30172
G1 X46.359 Y15.102 A259.95895
G1 X47.441 Y16.151 A260.61619
G1 X48.454 Y17.266 A261.27344
G1 X49.393 Y18.444 A261.93069
G1 X50.255 Y19.679 A262.58795
G1 X51.034 Y20.964 A263.24349
G1 X51.789 Y22.431 A263.96312
G1 X52.343 Y23.681 A264.55963
G1 X52.863 Y25.095 A265.21691
G1 X53.291 Y26.539 A265.87419
G1 X53.627 Y28.008 A266.53147
G1 X53.867 Y29.495 A267.18876
G1 X54.012 Y30.995 A267.84604
G1 X54.060 Y32.501 A268.50333
G1 X54.012 Y34.003 A269.15908
G1 X53.847 Y35.627 A269.87141
G1 X53.627 Y36.993 A270.47508
G1 X53.292 Y38.459 A271.13089
G1 X52.822 Y40.016 A271.84078
G1 X52.343 Y41.320 A272.44681
G1 X51.733 Y42.698 A273.10409
G1 X51.036 Y44.033 A273.76135
G1 X50.255 Y45.322 A274.41862
G1 X49.393 Y46.557 A275.07588
G1 X48.454 Y47.735 A275.73313
G1 X47.441 Y48.851 A276.39037
G1 X46.359 Y49.899 A277.04762
G1 X45.212 Y50.875 A277.70485
G1 X44.005 Y51.776 A278.36208
G1 X42.742 Y52.598 A279.01930
G1 X41.430 Y53.337 A279.67653
G1 X40.073 Y53.991 A280.33374
G1 X38.679 Y54.555 A280.98970
G1 X37.151 Y55.056 A281.69118
G1 X35.790 Y55.413 A282.30528
G1 X34.311 Y55.701 A282.96248
G1 X32.817 Y55.894 A283.61968
G1 X31.314 Y55.990 A284.27688
G1 X29.808 Y55.990 A284.93408
G1 X28.304 Y55.894 A285.59128
G1 X26.810 Y55.701 A286.24848
G1 X25.332 Y55.413 A286.90568
G1 X23.875 Y55.031 A287.56289
G1 X22.448 Y54.557 A288.21883
G1 X20.958 Y53.948 A288.92092
G1 X19.691 Y53.337 A289.53443
G1 X18.379 Y52.598 A290.19166
G1 X17.116 Y51.776 A290.84888
G1 X15.909 Y50.875 A291.50611
G1 X14.762 Y49.899 A292.16335
G1 X13.680 Y48.851 A292.82059
G1 X12.667 Y47.735 A293.47783
G1 X11.728 Y46.557 A294.13508
G1 X10.866 Y45.322 A294.79234
G1 X10.087 Y44.036 A295.44817
G1 X9.342 Y42.593 A296.15662
G1 X8.779 Y41.320 A296.76405
G1 X8.259 Y39.906 A297.42132
G1 X7.830 Y38.462 A298.07860
G1 X7.495 Y36.993 A298.73588
G1 X7.254 Y35.506 A299.39317
G1 X7.110 Y34.006 A300.05045
G1 X7.061 Y32.501 A300.70774
G1 X7.110 Y30.995 A301.36503
G1 X7.254 Y29.495 A302.02231
G1 X7.495 Y28.008 A302.67960
G1 X7.830 Y26.539 A303.33688
G1 X8.259 Y25.095 A303.99416
G1 X8.779 Y23.681 A304.65143
G1 X9.389 Y22.303 A305.30871
G1 X10.085 Y20.968 A305.96597
G1 X10.866 Y19.679 A306.62324
G1 X11.728 Y18.444 A307.28049
G1 X12.667 Y17.266 A307.93775
G1 X13.680 Y16.151 A308.59499
G1 X14.331 Y15.520 A308.99047
G1 X16.197 Y15.562 F7800.000
G1 A306.99047 F2400.00000
G1 X14.327 Y34.974 F7800.000
G1 A308.99047 F2400.00000
G1 F1800
G1 X26.866 Y47.513 A316.95471
G1 X27.120 Y47.580 A317.07236
G1 X28.093 Y47.769 A317.51755
G1 X29.076 Y47.896 A317.96275
G1 X30.065 Y47.960 A318.40794
G1 X30.431 Y47.960 A318.57205
G1 X15.101 Y32.630 A328.30891
G1 X15.128 Y31.509 A328.81217
G1 X15.224 Y30.523 A329.25750
G1 X15.347 Y29.758 A329.60520
G1 X33.304 Y47.716 A341.01090
G1 X34.002 Y47.580 A341.32993
G1 X34.880 Y47.349 A341.73766
G1 X35.766 Y47.059 A342.15638
G1 X16.005 Y27.299 A354.70741
