; generated by PrusaSlicer 2.0.0+win64 on 2019-06-05 at 09:50:35

; 

; external perimeters extrusion width = 1.13mm
; perimeters extrusion width = 4.00mm
; infill extrusion width = 1.13mm
; solid infill extrusion width = 1.13mm
; top infill extrusion width = 1.00mm
; first layer extrusion width = 3.00mm

M107
M107
g92 z0
g1 f1000 z-310
g92 x0 y0 a0 z0
; Filament gcode
G21 ; set units to millimeters
G90 ; use absolute coordinates
G1 Z4.000 F7800.000
G1 A-2.00000 F2400.00000
G1 X10.988 Y11.530 F7800.000
G1 A0.00000 F2400.00000
G1 F1800
G1 X13.103 Y9.594 A0.31268
G1 X15.444 Y7.851 A0.63109
G1 X17.951 Y6.355 A0.94949
G1 X20.549 Y5.142 A1.26218
G1 X22.883 Y4.307 A1.53256
G1 X25.705 Y3.588 A1.85023
G1 X28.547 Y3.164 A2.16363
G1 X31.443 Y3.027 A2.47989
G1 X34.319 Y3.182 A2.79400
G1 X36.771 Y3.546 A3.06438
G1 X39.549 Y4.228 A3.37633
G1 X42.300 Y5.206 A3.69474
G1 X44.936 Y6.459 A4.01315
G1 X47.382 Y7.941 A4.32512
G1 X49.373 Y9.418 A4.59548
G1 X51.507 Y11.332 A4.90816
G1 X53.468 Y13.486 A5.22585
G1 X55.170 Y15.785 A5.53782
G1 X56.453 Y17.906 A5.80819
G1 X57.702 Y20.486 A6.12087
G1 X58.700 Y23.223 A6.43856
G1 X59.406 Y26.001 A6.75124
G1 X59.835 Y28.889 A7.06964
G1 X59.967 Y31.364 A7.34002
G1 X59.853 Y34.222 A7.65198
G1 X59.451 Y37.067 A7.96537
G1 X58.757 Y39.889 A8.28235
G1 X57.939 Y42.236 A8.55344
G1 X56.750 Y44.837 A8.86540
G1 X55.274 Y47.356 A9.18380
G1 X53.550 Y49.712 A9.50221
G1 X51.636 Y51.838 A9.81418
G1 X49.644 Y53.660 A10.10864
G1 X47.495 Y55.282 A10.40231
G1 X44.890 Y56.865 A10.73478
G1 X42.461 Y58.026 A11.02846
G1 X39.933 Y58.954 A11.32212
G1 X36.988 Y59.711 A11.65387
G1 X33.931 Y60.154 A11.99069
G1 X31.637 Y60.271 A12.24127
G1 X28.598 Y60.140 A12.57301
G1 X25.934 Y59.756 A12.86661
G1 X23.317 Y59.123 A13.16029
G1 X20.447 Y58.116 A13.49203
G1 X18.008 Y56.975 A13.78571
G1 X15.688 Y55.609 A14.07938
G1 X13.233 Y53.812 A14.41113
G1 X11.231 Y52.012 A14.70481
G1 X9.407 Y50.032 A14.99848
G1 X7.580 Y47.600 A15.33023
G1 X6.186 Y45.296 A15.62391
G1 X5.015 Y42.872 A15.91758
G1 X3.973 Y40.014 A16.24932
G1 X3.307 Y37.399 A16.54371
G1 X2.891 Y34.738 A16.83746
G1 X2.724 Y31.675 A17.17203
G1 X2.867 Y28.793 A17.48674
G1 X3.221 Y26.340 A17.75712
G1 X3.891 Y23.559 A18.06907
G1 X4.860 Y20.798 A18.38820
G1 X6.100 Y18.163 A18.70589
G1 X7.576 Y15.705 A19.01857
G1 X9.045 Y13.708 A19.28895
G1 X10.589 Y11.978 A19.54190
G1 A17.54190 F2400.00000
G1 X19.903 Y20.803 F7800.000
G1 A19.54190 F2400.00000
G1 F1800
G1 X20.335 Y20.364 A19.60902
G1 X20.805 Y19.923 A19.67936
G1 X21.271 Y19.522 A19.74648
G1 X22.082 Y18.892 A19.85843
G1 X22.585 Y18.540 A19.92538
G1 X23.116 Y18.201 A19.99408
G1 X23.995 Y17.701 A20.10438
G1 X24.532 Y17.431 A20.16993
G1 X25.457 Y17.024 A20.28022
G1 X26.019 Y16.810 A20.34577
G1 X26.954 Y16.508 A20.45300
G1 X27.920 Y16.259 A20.56180
G1 X28.495 Y16.143 A20.62569
G1 X29.510 Y15.990 A20.73764
G1 X30.122 Y15.930 A20.80476
G1 X30.764 Y15.893 A20.87494
G1 X31.394 Y15.883 A20.94364
G1 X32.406 Y15.918 A21.05410
G1 X32.991 Y15.969 A21.11806
G1 X34.007 Y16.109 A21.23002
G1 X34.612 Y16.224 A21.29713
G1 X35.238 Y16.370 A21.36731
G1 X35.845 Y16.538 A21.43601
G1 X36.806 Y16.858 A21.54647
G1 X37.380 Y17.082 A21.61367
G1 X37.971 Y17.341 A21.68401
G1 X38.549 Y17.624 A21.75419
G1 X39.103 Y17.923 A21.82289
G1 X39.968 Y18.449 A21.93335
G1 X40.453 Y18.779 A21.99731
G1 X41.272 Y19.399 A22.10927
G1 X41.720 Y19.776 A22.17316
G1 X42.469 Y20.475 A22.28495
G1 X42.887 Y20.907 A22.35042
G1 X43.552 Y21.670 A22.46088
G1 X43.933 Y22.154 A22.52807
G1 X44.310 Y22.675 A22.59825
G1 X44.658 Y23.200 A22.66695
G1 X45.158 Y24.047 A22.77418
G1 X45.612 Y24.935 A22.88298
G1 X45.863 Y25.495 A22.94993
G1 X46.097 Y26.080 A23.01864
G1 X46.414 Y27.011 A23.12587
G1 X46.678 Y27.973 A23.23466
G1 X46.804 Y28.545 A23.29855
G1 X46.974 Y29.557 A23.41051
G1 X47.044 Y30.168 A23.47762
G1 X47.091 Y30.812 A23.54797
G1 X47.112 Y31.427 A23.61509
G1 X47.093 Y32.453 A23.72704
G1 X47.052 Y33.037 A23.79093
G1 X46.928 Y34.056 A23.90288
G1 X46.823 Y34.662 A23.97000
G1 X46.693 Y35.264 A24.03712
G1 X46.426 Y36.255 A24.14907
G1 X46.235 Y36.840 A24.21619
G1 X46.010 Y37.444 A24.28653
G1 X45.772 Y38.012 A24.35365
G1 X45.328 Y38.937 A24.46560
G1 X45.034 Y39.476 A24.53255
G1 X44.710 Y40.016 A24.60126
G1 X44.145 Y40.857 A24.71171
G1 X43.777 Y41.349 A24.77874
G1 X43.379 Y41.837 A24.84744
G1 X42.699 Y42.591 A24.95822
G1 X42.305 Y42.986 A25.01900
G1 X41.626 Y43.605 A25.11929
G1 X41.210 Y43.950 A25.17822
G1 X40.504 Y44.484 A25.27473
G1 X39.781 Y44.970 A25.36975
G1 X39.033 Y45.415 A25.46470
G1 X38.238 Y45.831 A25.56256
G1 X37.760 Y46.053 A25.62006
G1 X36.907 Y46.404 A25.72068
G1 X36.398 Y46.586 A25.77961
G1 X35.552 Y46.845 A25.87612
G1 X34.706 Y47.054 A25.97114
G1 X33.825 Y47.221 A26.06900
G1 X32.699 Y47.359 A26.19270
G1 X31.540 Y47.416 A26.31930
G1 X30.379 Y47.388 A26.44590
G1 X29.801 Y47.341 A26.50921
G1 X29.251 Y47.277 A26.56962
G1 X28.365 Y47.132 A26.66748
G1 X27.491 Y46.938 A26.76519
G1 X26.969 Y46.797 A26.82412
G1 X26.126 Y46.527 A26.92063
G1 X25.288 Y46.207 A27.01856
G1 X24.804 Y45.996 A27.07606
G1 X23.999 Y45.600 A27.17392
G1 X23.219 Y45.161 A27.27163
G1 X22.760 Y44.874 A27.33056
G1 X22.032 Y44.371 A27.42707
G1 X21.344 Y43.837 A27.52209
G1 X20.666 Y43.249 A27.61995
G1 X20.285 Y42.886 A27.67745
G1 X19.664 Y42.238 A27.77531
G1 X19.097 Y41.577 A27.87026
G1 X18.552 Y40.865 A27.96812
G1 X18.251 Y40.432 A28.02562
G1 X17.773 Y39.672 A28.12348
G1 X17.339 Y38.889 A28.22119
G1 X17.099 Y38.404 A28.28012
G1 X16.743 Y37.594 A28.37663
G1 X16.437 Y36.779 A28.47166
G1 X16.177 Y35.948 A28.56661
G1 X15.956 Y35.078 A28.66447
G1 X15.845 Y34.536 A28.72487
G1 X15.674 Y33.388 A28.85148
G1 X15.621 Y32.810 A28.91479
G1 X15.579 Y31.656 A29.04070
G1 X15.592 Y31.002 A29.11208
G1 X15.631 Y30.363 A29.18191
G1 X15.696 Y29.736 A29.25061
G1 X15.851 Y28.735 A29.36107
G1 X15.970 Y28.161 A29.42503
G1 X16.229 Y27.169 A29.53682
G1 X16.411 Y26.597 A29.60229
G1 X16.755 Y25.677 A29.70952
G1 X17.162 Y24.765 A29.81832
G1 X17.440 Y24.217 A29.88544
G1 X17.742 Y23.680 A29.95256
G1 X18.273 Y22.837 A30.06128
G1 X18.855 Y22.028 A30.17001
G1 X19.221 Y21.571 A30.23390
G1 X19.505 Y21.252 A30.28041
G1 A28.28041 F2400.00000
G1 X18.338 Y19.340 F7800.000
G1 A30.28041 F2400.00000
G1 F1800
G1 X18.839 Y18.831 A30.35828
G1 X19.373 Y18.330 A30.43818
G1 X19.914 Y17.864 A30.51605
G1 X20.811 Y17.167 A30.63995
G1 X21.395 Y16.759 A30.71771
G1 X22.010 Y16.367 A30.79719
G1 X22.984 Y15.813 A30.91943
G1 X23.619 Y15.494 A30.99693
G1 X24.644 Y15.042 A31.11917
G1 X25.308 Y14.789 A31.19666
G1 X26.358 Y14.450 A31.31697
G1 X27.440 Y14.172 A31.43889
G1 X28.122 Y14.033 A31.51473
G1 X29.245 Y13.864 A31.63862
G1 X29.956 Y13.794 A31.71649
G1 X30.686 Y13.752 A31.79629
G1 X31.415 Y13.741 A31.87577
G1 X32.536 Y13.780 A31.99811
G1 X33.229 Y13.840 A32.07400
G1 X34.354 Y13.995 A32.19790
G1 X35.055 Y14.128 A32.27577
G1 X35.768 Y14.295 A32.35556
G1 X36.470 Y14.489 A32.43504
G1 X37.534 Y14.844 A32.55739
G1 X38.200 Y15.103 A32.63530
G1 X38.871 Y15.397 A32.71520
G1 X39.528 Y15.718 A32.79500
G1 X40.169 Y16.065 A32.87448
G1 X41.128 Y16.648 A32.99682
G1 X41.703 Y17.039 A33.07271
G1 X42.608 Y17.725 A33.19661
G1 X43.141 Y18.173 A33.27244
G1 X43.971 Y18.947 A33.39624
G1 X44.464 Y19.457 A33.47369
G1 X45.202 Y20.302 A33.59603
G1 X45.644 Y20.864 A33.67395
G1 X46.072 Y21.457 A33.75374
G1 X46.474 Y22.064 A33.83322
G1 X47.035 Y23.014 A33.95354
G1 X47.544 Y24.009 A34.07545
G1 X47.835 Y24.660 A34.15321
G1 X48.106 Y25.337 A34.23269
G1 X48.462 Y26.381 A34.35301
G1 X48.758 Y27.458 A34.47492
G1 X48.908 Y28.137 A34.55076
G1 X49.095 Y29.258 A34.67465
G1 X49.177 Y29.967 A34.75252
G1 X49.230 Y30.698 A34.83242
G1 X49.254 Y31.411 A34.91029
G1 X49.233 Y32.547 A35.03419
G1 X49.185 Y33.241 A35.11003
G1 X49.048 Y34.368 A35.23393
G1 X48.926 Y35.072 A35.31180
G1 X48.775 Y35.770 A35.38967
G1 X48.479 Y36.866 A35.51356
G1 X48.258 Y37.545 A35.59143
G1 X48.002 Y38.232 A35.67133
G1 X47.726 Y38.890 A35.74920
G1 X47.234 Y39.914 A35.87310
G1 X46.893 Y40.540 A35.95087
G1 X46.518 Y41.165 A36.03035
G1 X45.893 Y42.096 A36.15269
G1 X45.466 Y42.667 A36.23050
G1 X45.005 Y43.232 A36.30998
G1 X44.252 Y44.066 A36.43253
G1 X43.785 Y44.534 A36.50462
G1 X43.032 Y45.221 A36.61584
G1 X42.540 Y45.629 A36.68555
G1 X41.748 Y46.228 A36.79383
G1 X40.927 Y46.780 A36.90173
G1 X40.078 Y47.286 A37.00959
G1 X39.186 Y47.752 A37.11927
G1 X38.619 Y48.016 A37.18752
G1 X37.674 Y48.404 A37.29895
G1 X37.072 Y48.619 A37.36865
G1 X36.123 Y48.910 A37.47694
G1 X35.163 Y49.147 A37.58483
G1 X34.175 Y49.334 A37.69452
G1 X32.883 Y49.493 A37.83649
G1 X31.566 Y49.558 A37.98029
G1 X30.248 Y49.526 A38.12409
G1 X29.591 Y49.473 A38.19600
G1 X28.953 Y49.398 A38.26609
G1 X27.960 Y49.236 A38.37577
G1 X26.979 Y49.018 A38.48536
G1 X26.362 Y48.851 A38.55507
G1 X25.417 Y48.549 A38.66335
G1 X24.477 Y48.189 A38.77308
G1 X23.903 Y47.939 A38.84133
G1 X23.001 Y47.495 A38.95102
G1 X22.125 Y47.003 A39.06061
G1 X21.583 Y46.664 A39.13032
G1 X20.767 Y46.100 A39.23860
G1 X19.985 Y45.493 A39.34650
G1 X19.225 Y44.834 A39.45619
G1 X18.772 Y44.403 A39.52444
G1 X18.077 Y43.677 A39.63413
G1 X17.433 Y42.926 A39.74198
G1 X16.822 Y42.127 A39.85167
G1 X16.464 Y41.614 A39.91992
G1 X15.929 Y40.762 A40.02961
G1 X15.442 Y39.883 A40.13920
G1 X15.158 Y39.311 A40.20890
G1 X14.759 Y38.402 A40.31719
G1 X14.411 Y37.476 A40.42509
G1 X14.116 Y36.532 A40.53294
G1 X13.868 Y35.557 A40.64263
G1 X13.739 Y34.928 A40.71271
G1 X13.546 Y33.624 A40.85651
G1 X13.485 Y32.967 A40.92842
G1 X13.449 Y32.311 A41.00009
G1 X13.437 Y31.654 A41.07181
G1 X13.452 Y30.915 A41.15236
G1 X13.496 Y30.187 A41.23194
G1 X13.571 Y29.462 A41.31142
G1 X13.743 Y28.354 A41.43376
G1 X13.884 Y27.672 A41.50965
G1 X14.171 Y26.574 A41.63344
G1 X14.386 Y25.898 A41.71089
G1 X14.773 Y24.864 A41.83120
G1 X15.228 Y23.844 A41.95312
G1 X15.551 Y23.207 A42.03099
G1 X15.901 Y22.585 A42.10885
G1 X16.497 Y21.639 A42.23072
G1 X17.149 Y20.732 A42.35259
G1 X17.584 Y20.190 A42.42842
G1 X17.940 Y19.789 A42.48688
G1 A40.48688 F2400.00000
G1 X16.773 Y17.877 F7800.000
G1 A42.48688 F2400.00000
G1 F1800
G1 X17.343 Y17.298 A42.57550
G1 X17.941 Y16.737 A42.66496
G1 X18.556 Y16.207 A42.75358
G1 X19.540 Y15.442 A42.88942
G1 X20.206 Y14.978 A42.97800
G1 X20.903 Y14.532 A43.06826
G1 X21.973 Y13.924 A43.20245
G1 X22.705 Y13.556 A43.29189
G1 X23.831 Y13.060 A43.42607
G1 X24.598 Y12.768 A43.51552
G1 X25.761 Y12.392 A43.64891
G1 X26.960 Y12.084 A43.78394
G1 X27.749 Y11.923 A43.87172
G1 X28.981 Y11.738 A44.00757
G1 X29.789 Y11.659 A44.09618
G1 X30.608 Y11.612 A44.18560
G1 X31.435 Y11.599 A44.27586
G1 X32.665 Y11.642 A44.41009
G1 X33.467 Y11.711 A44.49789
G1 X34.701 Y11.881 A44.63374
G1 X35.499 Y12.033 A44.72236
G1 X36.297 Y12.219 A44.81177
G1 X37.095 Y12.440 A44.90203
G1 X38.263 Y12.829 A45.03626
G1 X39.020 Y13.124 A45.12490
G1 X39.771 Y13.454 A45.21436
G1 X40.507 Y13.813 A45.30377
G1 X41.235 Y14.207 A45.39403
G1 X42.287 Y14.846 A45.52826
G1 X42.953 Y15.299 A45.61606
G1 X43.945 Y16.051 A45.75191
G1 X44.561 Y16.569 A45.83969
G1 X45.472 Y17.418 A45.97549
G1 X46.042 Y18.008 A46.06491
G1 X46.851 Y18.935 A46.19914
G1 X47.354 Y19.574 A46.28778
G1 X47.834 Y20.238 A46.37720
G1 X48.290 Y20.928 A46.46746
G1 X48.912 Y21.981 A46.60085
G1 X49.476 Y23.083 A46.73588
G1 X49.808 Y23.825 A46.82445
G1 X50.115 Y24.593 A46.91471
G1 X50.510 Y25.750 A47.04811
G1 X50.838 Y26.944 A47.18313
G1 X51.011 Y27.730 A47.27092
G1 X51.216 Y28.959 A47.40676
G1 X51.309 Y29.766 A47.49538
G1 X51.369 Y30.584 A47.58484
G1 X51.396 Y31.396 A47.67346
G1 X51.373 Y32.641 A47.80930
G1 X51.317 Y33.444 A47.89709
G1 X51.167 Y34.680 A48.03293
G1 X51.028 Y35.481 A48.12155
G1 X50.857 Y36.275 A48.21017
G1 X50.532 Y37.478 A48.34602
G1 X50.280 Y38.250 A48.43464
G1 X49.995 Y39.019 A48.52410
G1 X49.681 Y39.768 A48.61272
G1 X49.141 Y40.891 A48.74856
G1 X48.752 Y41.604 A48.83714
G1 X48.327 Y42.314 A48.92740
G1 X47.641 Y43.335 A49.06163
G1 X47.154 Y43.986 A49.15022
G1 X46.631 Y44.627 A49.24048
G1 X45.806 Y45.541 A49.37480
G1 X45.266 Y46.083 A49.45821
G1 X44.438 Y46.837 A49.58035
G1 X43.871 Y47.308 A49.66083
G1 X42.992 Y47.972 A49.78089
G1 X42.074 Y48.590 A49.90167
G1 X41.122 Y49.156 A50.02243
G1 X40.135 Y49.672 A50.14394
G1 X39.478 Y49.978 A50.22294
G1 X38.442 Y50.404 A50.34517
G1 X37.747 Y50.652 A50.42565
G1 X36.694 Y50.975 A50.54571
G1 X35.619 Y51.240 A50.66649
G1 X34.525 Y51.448 A50.78800
G1 X33.801 Y51.551 A50.86776
G1 X33.067 Y51.627 A50.94827
G1 X32.330 Y51.677 A51.02878
G1 X31.592 Y51.700 A51.10929
G1 X30.854 Y51.695 A51.18981
G1 X30.117 Y51.664 A51.27032
G1 X29.381 Y51.605 A51.35083
G1 X28.654 Y51.520 A51.43059
G1 X27.555 Y51.339 A51.55210
G1 X26.468 Y51.099 A51.67358
G1 X25.755 Y50.906 A51.75406
G1 X24.707 Y50.570 A51.87412
G1 X23.666 Y50.172 A51.99565
G1 X23.002 Y49.883 A52.07465
G1 X22.003 Y49.391 A52.19616
G1 X21.032 Y48.845 A52.31764
G1 X20.406 Y48.454 A52.39812
G1 X19.501 Y47.828 A52.51818
G1 X18.626 Y47.150 A52.63895
G1 X17.784 Y46.419 A52.76046
G1 X17.260 Y45.920 A52.83947
G1 X16.489 Y45.115 A52.96098
G1 X15.769 Y44.275 A53.08174
G1 X15.091 Y43.390 A53.20325
G1 X14.678 Y42.795 A53.28226
G1 X14.085 Y41.852 A53.40377
G1 X13.545 Y40.878 A53.52524
G1 X13.217 Y40.217 A53.60573
G1 X12.774 Y39.209 A53.72578
G1 X12.385 Y38.173 A53.84656
G1 X12.054 Y37.116 A53.96732
G1 X11.780 Y36.036 A54.08883
G1 X11.633 Y35.320 A54.16859
G1 X11.512 Y34.592 A54.24910
G1 X11.417 Y33.860 A54.32961
G1 X11.349 Y33.125 A54.41013
G1 X11.308 Y32.389 A54.49054
G1 X11.295 Y31.651 A54.57097
G1 X11.311 Y30.829 A54.66070
G1 X11.362 Y30.011 A54.75002
G1 X11.447 Y29.188 A54.84028
G1 X11.635 Y27.972 A54.97451
G1 X11.798 Y27.184 A55.06231
G1 X12.113 Y25.979 A55.19811
G1 X12.361 Y25.198 A55.28753
G1 X12.790 Y24.052 A55.42093
G1 X13.294 Y22.922 A55.55595
G1 X13.662 Y22.197 A55.64457
G1 X14.060 Y21.489 A55.73319
G1 X14.720 Y20.442 A55.86820
G1 X15.443 Y19.437 A56.00321
G1 X15.946 Y18.809 A56.09099
G1 X16.374 Y18.326 A56.16140
G1 X17.564 Y18.062 F7800.000
G1 A54.16140 F2400.00000
G1 X17.567 Y37.872 F7800.000
G1 A56.16140 F2400.00000
G1 F1800
G1 X25.133 Y45.438 A57.34711
G1 A55.34711 F2400.00000
G1 X29.420 Y46.648 F7800.000
G1 A57.34711 F2400.00000
G1 F1800
G1 X17.533 Y34.761 A59.21010
G1 X17.336 Y33.713 A59.32821
G1 X17.273 Y33.225 A59.38274
G1 X17.194 Y32.161 A59.50104
G1 X17.192 Y31.343 A59.59167
G1 X31.655 Y45.806 A61.85830
G1 X32.026 Y45.794 A61.89948
G1 X33.094 Y45.702 A62.01828
G1 X33.562 Y45.636 A62.07063
G1 X34.401 Y45.475 A62.16532
G1 X17.521 Y28.594 A64.81085
G1 X17.773 Y27.616 A64.92282
G1 X17.929 Y27.122 A64.98022
G1 X18.257 Y26.253 A65.08310
G1 X36.740 Y44.736 A67.97973
G1 X37.527 Y44.390 A68.07499
G1 X38.250 Y44.012 A68.16540
G1 X38.778 Y43.698 A68.23359
G1 X19.300 Y24.220 A71.28620
G1 X19.606 Y23.735 A71.34965
G1 X20.135 Y22.999 A71.45011
G1 X20.598 Y22.440 A71.53057
G1 X40.560 Y42.402 A74.65910
G1 X41.195 Y41.824 A74.75424
G1 X41.534 Y41.485 A74.80736
G1 X42.097 Y40.862 A74.90045
G1 X22.134 Y20.899 A78.02903
G1 X23.035 Y20.185 A78.15640
G1 X23.911 Y19.599 A78.27325
G1 X43.396 Y39.084 A81.32691
G1 X43.898 Y38.205 A81.43911
G1 X44.307 Y37.353 A81.54376
G1 X44.436 Y37.046 A81.58067
G1 X25.951 Y18.561 A84.47760
G1 X26.552 Y18.326 A84.54913
G1 X27.402 Y18.051 A84.64811
G1 X28.290 Y17.823 A84.74972
G1 X45.171 Y34.704 A87.39531
G1 X45.339 Y33.822 A87.49484
G1 X45.453 Y32.885 A87.59948
G1 X45.495 Y31.952 A87.70298
G1 X31.039 Y17.495 A89.96863
G1 X31.379 Y17.490 A90.00631
G1 X32.309 Y17.522 A90.10948
G1 X32.812 Y17.565 A90.16539
G1 X33.747 Y17.694 A90.27003
G1 X34.459 Y17.838 A90.35044
G1 X46.346 Y29.725 A92.21348
G1 A90.21348 F2400.00000
G1 X45.131 Y25.433 F7800.000
G1 A92.21348 F2400.00000
G1 F1800
G1 X37.562 Y17.863 A93.39975
G1 Z8.000 F7800.000
G1 A91.39975 F2400.00000
G1 X15.362 Y16.545 F7800.000
G1 A93.39975 F2400.00000
G1 F1800
G1 X15.668 Y16.222 A93.40590
G1 X16.639 Y15.294 A93.42448
G1 X17.323 Y14.704 A93.43698
G1 X18.030 Y14.143 A93.44946
G1 X19.123 Y13.362 A93.46805
G1 X19.884 Y12.876 A93.48053
G1 X20.664 Y12.422 A93.49302
G1 X21.858 Y11.805 A93.51160
G1 X22.683 Y11.432 A93.52413
G1 X23.932 Y10.941 A93.54270
G1 X24.789 Y10.654 A93.55520
G1 X25.656 Y10.402 A93.56768
G1 X26.964 Y10.094 A93.58627
G1 X27.855 Y9.932 A93.59879
