; generated by PrusaSlicer 2.0.0+win64 on 2019-05-29 at 18:56:25

; 

; external perimeters extrusion width = 1.13mm
; perimeters extrusion width = 1.13mm
; infill extrusion width = 1.13mm
; solid infill extrusion width = 1.13mm
; top infill extrusion width = 1.00mm
; first layer extrusion width = 1.05mm

M107
g92 z0
g1 f1000 z-305
g92 x0 y0 a0 z0
g1 f1000 z0.5
; Filament gcode
G21 ; set units to millimeters
G90 ; use absolute coordinates
G1 Z0.350 F7800.000
G1 A-2.00000 F2400.00000
G1 X16.864 Y16.870 F7800.000
G1 A0.00000 F2400.00000
G1 F1800
G1 X18.679 Y15.223 A0.34775
G1 X20.679 Y13.725 A0.70215
G1 X23.256 Y12.182 A1.12827
G1 X25.514 Y11.129 A1.48173
G1 X27.782 Y10.317 A1.82339
G1 X30.167 Y9.705 A2.17276
G1 X33.288 Y9.248 A2.62019
G1 X35.690 Y9.149 A2.96125
G1 X37.977 Y9.259 A3.28613
G1 X39.764 Y9.489 A3.54171
G1 X40.856 Y9.788 A3.70219
G1 X41.884 Y10.274 A3.86355
G1 X42.981 Y11.083 A4.05690
G1 X43.882 Y12.097 A4.24936
G1 X44.554 Y13.283 A4.44271
G1 X44.964 Y14.583 A4.63606
G1 X45.093 Y15.851 A4.81697
G1 X45.093 Y55.440 A10.43302
G1 X44.911 Y56.968 A10.65121
G1 X44.374 Y58.409 A10.86939
G1 X43.513 Y59.683 A11.08758
G1 X42.376 Y60.719 A11.30577
G1 X41.231 Y61.373 A11.49290
G1 X39.970 Y61.783 A11.68092
G1 X38.031 Y62.049 A11.95864
G1 X35.675 Y62.164 A12.29315
G1 X33.290 Y62.065 A12.63177
G1 X30.198 Y61.613 A13.07516
G1 X27.801 Y61.001 A13.42606
G1 X25.568 Y60.207 A13.76231
G1 X23.277 Y59.143 A14.12057
G1 X20.667 Y57.580 A14.55219
G1 X18.704 Y56.110 A14.90009
G1 X16.925 Y54.503 A15.24020
G1 X15.195 Y52.617 A15.60322
G1 X13.420 Y50.223 A16.02606
G1 X12.102 Y47.991 A16.39377
G1 X11.084 Y45.823 A16.73346
G1 X10.244 Y43.498 A17.08419
G1 X9.533 Y40.644 A17.50138
G1 X9.182 Y38.217 A17.84925
G1 X9.054 Y35.654 A18.21326
G1 X9.176 Y33.153 A18.56845
G1 X9.537 Y30.647 A18.92773
G1 X10.226 Y27.875 A19.33280
G1 X11.088 Y25.482 A19.69374
G1 X12.145 Y23.240 A20.04536
G1 X13.431 Y21.074 A20.40263
G1 X15.164 Y18.734 A20.81576
G1 X16.763 Y16.981 A21.15230
G1 A19.15230 F2400.00000
G1 X35.689 Y18.112 F7800.000
G1 A21.15230 F2400.00000
G1 F1800
G1 X36.131 Y18.125 A21.21497
G1 X36.131 Y53.188 A26.18900
G1 X35.663 Y53.201 A26.25543
G1 X34.899 Y53.189 A26.36380
G1 X34.141 Y53.143 A26.47148
G1 X33.353 Y53.061 A26.58395
G1 X32.641 Y52.956 A26.68603
G1 X31.948 Y52.824 A26.78614
G1 X31.128 Y52.631 A26.90563
G1 X30.413 Y52.428 A27.01099
G1 X29.650 Y52.174 A27.12516
G1 X28.954 Y51.908 A27.23084
G1 X28.273 Y51.614 A27.33599
G1 X27.540 Y51.259 A27.45154
G1 X26.896 Y50.910 A27.55543
G1 X26.117 Y50.438 A27.68472
G1 X25.572 Y50.077 A27.77745
G1 X25.049 Y49.700 A27.86886
G1 X24.398 Y49.189 A27.98628
G1 X23.772 Y48.647 A28.10372
G1 X23.245 Y48.148 A28.20675
G1 X22.665 Y47.548 A28.32509
G1 X22.114 Y46.921 A28.44350
G1 X21.584 Y46.253 A28.56441
G1 X20.881 Y45.256 A28.73752
G1 X20.433 Y44.535 A28.85796
G1 X20.022 Y43.795 A28.97797
G1 X19.702 Y43.153 A29.07971
G1 X19.356 Y42.371 A29.20105
G1 X19.095 Y41.704 A29.30262
G1 X18.821 Y40.897 A29.42357
G1 X18.584 Y40.067 A29.54602
G1 X18.329 Y38.927 A29.71179
G1 X18.188 Y38.071 A29.83479
G1 X18.105 Y37.368 A29.93520
G1 X18.034 Y36.363 A30.07811
G1 X18.017 Y35.657 A30.17833
G1 X18.035 Y34.915 A30.28360
G1 X18.098 Y34.006 A30.41286
G1 X18.183 Y33.272 A30.51772
G1 X18.332 Y32.371 A30.64721
G1 X18.596 Y31.201 A30.81740
G1 X18.803 Y30.475 A30.92453
G1 X19.091 Y29.620 A31.05247
G1 X19.363 Y28.925 A31.15834
G1 X19.664 Y28.241 A31.26447
G1 X20.063 Y27.440 A31.39131
G1 X20.424 Y26.793 A31.49642
G1 X20.895 Y26.035 A31.62302
G1 X21.614 Y25.018 A31.79971
G1 X22.089 Y24.424 A31.90764
G1 X22.668 Y23.762 A32.03241
G1 X23.186 Y23.224 A32.13832
G1 X23.816 Y22.626 A32.26154
G1 X24.384 Y22.136 A32.36795
G1 X24.972 Y21.670 A32.47437
G1 X25.665 Y21.173 A32.59535
G1 X26.296 Y20.761 A32.70227
G1 X26.868 Y20.419 A32.79677
G1 X27.462 Y20.096 A32.89271
G1 X28.221 Y19.723 A33.01263
G1 X28.981 Y19.394 A33.13019
G1 X29.684 Y19.127 A33.23682
G1 X30.464 Y18.870 A33.35331
G1 X31.137 Y18.680 A33.45250
G1 X31.829 Y18.515 A33.55348
G1 X32.584 Y18.367 A33.66265
G1 X33.382 Y18.248 A33.77707
G1 X34.139 Y18.170 A33.88507
G1 X34.929 Y18.123 A33.99734
G1 X35.540 Y18.114 A34.08391
G1 X37.106 Y17.204 F7800.000
G1 F1800
G1 X37.106 Y54.109 A39.31928
G1 X36.505 Y54.153 A39.40481
G1 X35.669 Y54.176 A39.52344
G1 X34.862 Y54.163 A39.63785
G1 X34.062 Y54.115 A39.75162
G1 X33.231 Y54.028 A39.87010
G1 X32.478 Y53.917 A39.97802
G1 X31.745 Y53.777 A40.08397
G1 X30.883 Y53.575 A40.20956
G1 X30.126 Y53.360 A40.32116
G1 X29.322 Y53.092 A40.44142
G1 X28.586 Y52.811 A40.55309
G1 X27.867 Y52.501 A40.66425
G1 X27.095 Y52.126 A40.78591
G1 X26.412 Y51.756 A40.89618
G1 X25.595 Y51.262 A41.03164
G1 X25.017 Y50.879 A41.13002
G1 X24.463 Y50.478 A41.22699
G1 X23.778 Y49.941 A41.35045
G1 X23.118 Y49.370 A41.47427
G1 X22.559 Y48.841 A41.58347
G1 X21.948 Y48.209 A41.70822
G1 X21.366 Y47.546 A41.83331
G1 X20.809 Y46.846 A41.96019
G1 X20.423 Y46.320 A42.05271
G1 X20.062 Y45.787 A42.14410
G1 X19.592 Y45.029 A42.27061
G1 X19.159 Y44.249 A42.39709
G1 X18.820 Y43.568 A42.50504
G1 X18.456 Y42.746 A42.63257
G1 X18.179 Y42.039 A42.74036
G1 X17.890 Y41.188 A42.86783
G1 X17.642 Y40.317 A42.99635
G1 X17.370 Y39.104 A43.17266
G1 X17.222 Y38.208 A43.30148
G1 X17.134 Y37.459 A43.40837
G1 X17.060 Y36.409 A43.55769
G1 X17.042 Y35.657 A43.66449
G1 X17.061 Y34.870 A43.77621
G1 X17.127 Y33.917 A43.91171
G1 X17.217 Y33.136 A44.02315
G1 X17.373 Y32.194 A44.15864
G1 X17.653 Y30.951 A44.33944
G1 X17.872 Y30.185 A44.45239
G1 X18.175 Y29.287 A44.58680
G1 X18.462 Y28.551 A44.69894
G1 X18.782 Y27.826 A44.81127
G1 X19.201 Y26.985 A44.94455
G1 X19.584 Y26.298 A45.05618
G1 X20.077 Y25.504 A45.18882
G1 X20.446 Y24.960 A45.28209
G1 X20.841 Y24.425 A45.37638
G1 X21.341 Y23.798 A45.49009
G1 X21.950 Y23.102 A45.62127
G1 X22.499 Y22.531 A45.73366
G1 X23.162 Y21.903 A45.86323
G1 X23.762 Y21.385 A45.97579
G1 X24.385 Y20.892 A46.08841
G1 X25.114 Y20.368 A46.21568
G1 X25.779 Y19.934 A46.32844
G1 X26.385 Y19.572 A46.42854
G1 X27.014 Y19.230 A46.53011
G1 X27.812 Y18.838 A46.65619
G1 X28.614 Y18.491 A46.78023
G1 X29.358 Y18.208 A46.89314
G1 X30.178 Y17.938 A47.01566
G1 X30.890 Y17.736 A47.12064
G1 X31.623 Y17.562 A47.22741
G1 X32.419 Y17.406 A47.34249
G1 X33.260 Y17.281 A47.46309
G1 X34.060 Y17.198 A47.57729
G1 X34.893 Y17.149 A47.69568
G1 X35.696 Y17.137 A47.80959
G1 X36.501 Y17.160 A47.92379
G1 X36.956 Y17.193 A47.98854
G1 X38.081 Y16.335 F7800.000
G1 F1800
G1 X38.081 Y54.978 A53.47042
G1 X37.394 Y55.066 A53.56866
G1 X36.553 Y55.127 A53.68820
G1 X35.674 Y55.151 A53.81294
G1 X34.825 Y55.137 A53.93340
G1 X33.982 Y55.087 A54.05326
G1 X33.109 Y54.996 A54.17774
G1 X32.316 Y54.879 A54.29152
G1 X31.542 Y54.731 A54.40330
G1 X30.638 Y54.519 A54.53498
G1 X29.839 Y54.292 A54.65282
G1 X28.994 Y54.011 A54.77918
G1 X28.219 Y53.714 A54.89684
G1 X27.461 Y53.387 A55.01400
G1 X26.651 Y52.994 A55.14177
G1 X25.927 Y52.602 A55.25843
G1 X25.073 Y52.086 A55.40006
G1 X24.462 Y51.681 A55.50408
G1 X23.876 Y51.257 A55.60662
G1 X23.158 Y50.693 A55.73612
G1 X22.464 Y50.093 A55.86632
G1 X21.873 Y49.534 A55.98169
G1 X21.231 Y48.869 A56.11285
G1 X20.618 Y48.171 A56.24461
G1 X20.035 Y47.438 A56.37746
G1 X19.626 Y46.882 A56.47533
G1 X19.244 Y46.317 A56.57214
G1 X18.751 Y45.523 A56.70472
G1 X18.296 Y44.704 A56.83767
G1 X17.938 Y43.983 A56.95183
G1 X17.556 Y43.121 A57.08555
G1 X17.263 Y42.373 A57.19956
G1 X16.960 Y41.478 A57.33357
G1 X16.699 Y40.566 A57.46814
G1 X16.543 Y39.925 A57.56175
G1 X16.411 Y39.281 A57.65504
G1 X16.256 Y38.344 A57.78967
G1 X16.163 Y37.551 A57.90304
G1 X16.086 Y36.456 A58.05877
G1 X16.067 Y35.657 A58.17215
G1 X16.087 Y34.824 A58.29031
G1 X16.156 Y33.827 A58.43205
G1 X16.252 Y33.001 A58.55007
G1 X16.415 Y32.016 A58.69158
G1 X16.550 Y31.357 A58.78713
G1 X16.711 Y30.700 A58.88301
G1 X16.941 Y29.895 A59.00178
G1 X17.258 Y28.954 A59.14265
G1 X17.562 Y28.177 A59.26107
G1 X17.899 Y27.412 A59.37960
G1 X18.338 Y26.530 A59.51932
G1 X18.743 Y25.803 A59.63747
G1 X19.260 Y24.973 A59.77615
G1 X19.650 Y24.397 A59.87487
G1 X20.067 Y23.831 A59.97456
G1 X20.593 Y23.173 A60.09405
G1 X21.231 Y22.443 A60.23163
G1 X21.812 Y21.839 A60.35050
G1 X22.508 Y21.180 A60.48643
G1 X23.141 Y20.633 A60.60513
G1 X23.798 Y20.113 A60.72394
G1 X24.562 Y19.564 A60.85750
G1 X25.262 Y19.107 A60.97610
G1 X25.902 Y18.725 A61.08180
G1 X26.566 Y18.364 A61.18901
G1 X27.403 Y17.953 A61.32126
G1 X28.247 Y17.587 A61.45178
G1 X29.032 Y17.289 A61.57097
G1 X29.893 Y17.005 A61.69951
G1 X30.644 Y16.793 A61.81028
G1 X31.416 Y16.609 A61.92283
G1 X32.253 Y16.445 A62.04383
G1 X33.137 Y16.313 A62.17062
G1 X33.981 Y16.226 A62.29101
G1 X34.858 Y16.174 A62.41551
G1 X35.703 Y16.162 A62.53549
G1 X36.550 Y16.186 A62.65570
G1 X37.386 Y16.246 A62.77450
G1 X37.932 Y16.316 A62.85265
G1 X37.553 Y17.184 F7800.000
G1 A60.85265 F2400.00000
G1 X35.839 Y20.423 F7800.000
G1 A62.85265 F2400.00000
G1 F1800
G1 X34.308 Y18.892 A63.16513
G1 X33.474 Y18.974 A63.28603
G1 X33.050 Y19.037 A63.34789
G1 X35.400 Y21.387 A63.82754
G1 X35.400 Y22.790 A64.02995
G1 X31.867 Y19.257 A64.75094
G1 X30.755 Y19.548 A64.91681
G1 X35.400 Y24.192 A65.86475
G1 X35.400 Y25.595 A66.06717
G1 X29.706 Y19.901 A67.22931
G1 X28.710 Y20.308 A67.38452
G1 X35.400 Y26.997 A68.74982
G1 X35.400 Y28.400 A68.95224
G1 X27.764 Y20.764 A70.51066
G1 X26.868 Y21.271 A70.65922
G1 X35.400 Y29.803 A72.40055
G1 X35.400 Y31.205 A72.60296
G1 X26.016 Y21.821 A74.51822
G1 X25.208 Y22.416 A74.66298
G1 X35.400 Y32.608 A76.74305
G1 X35.400 Y34.010 A76.94547
G1 X24.442 Y23.052 A79.18196
G1 X23.716 Y23.729 A79.32518
G1 X35.400 Y35.413 A81.70984
G1 X35.400 Y36.815 A81.91225
G1 X23.036 Y24.452 A84.43567
G1 X22.394 Y25.213 A84.57932
G1 X35.400 Y38.218 A87.23365
G1 X35.400 Y39.621 A87.43606
G1 X21.800 Y26.021 A90.21164
G1 X21.505 Y26.440 A90.28559
G1 X21.241 Y26.864 A90.35772
G1 X35.400 Y41.023 A93.24755
G1 X35.400 Y42.426 A93.44997
G1 X20.726 Y27.752 A96.44478
G1 X20.264 Y28.693 A96.59601
G1 X35.400 Y43.828 A99.68512
G1 X35.400 Y45.231 A99.88754
G1 X19.852 Y29.683 A103.06086
G1 X19.492 Y30.726 A103.22008
G1 X35.400 Y46.634 A106.46677
G1 X35.400 Y48.036 A106.66919
G1 X19.194 Y31.830 A109.97672
G1 X19.166 Y31.945 A109.99379
G1 X18.968 Y33.007 A110.14966
G1 X35.400 Y49.439 A113.50330
G1 X35.400 Y50.841 A113.70571
G1 X18.814 Y34.255 A117.09082
G1 X18.766 Y34.950 A117.19124
G1 X18.750 Y35.594 A117.28427
G1 X35.400 Y52.244 A120.68242
G1 X35.400 Y52.465 A120.71438
G1 X34.927 Y52.458 A120.78267
G1 X34.164 Y52.411 A120.89296
G1 X18.816 Y37.063 A124.02532
G1 X18.912 Y37.969 A124.15677
G1 X19.029 Y38.678 A124.26053
G1 X32.544 Y52.193 A127.01882
G1 X31.311 Y51.923 A127.20089
G1 X30.696 Y51.748 A127.29317
G1 X19.476 Y40.528 A129.58311
G1 X19.782 Y41.454 A129.72381
G1 X20.031 Y42.090 A129.82240
G1 X20.345 Y42.800 A129.93443
G1 X29.256 Y51.710 A131.75303
G1 A129.75303 F2400.00000
G1 X26.428 Y50.285 F7800.000
G1 A131.75303 F2400.00000
G1 F1800
G1 X20.939 Y44.796 A132.87328
G1 Z0.650 F7800.000
G1 X37.840 Y18.194
G1 F1800
G1 X39.106 Y18.405 A133.04385
G1 X40.098 Y18.637 A133.37646
G1 X40.786 Y18.835 A133.61051
G1 X41.732 Y19.158 A133.93669
G1 X42.405 Y19.426 A134.17328
G1 X43.068 Y19.722 A134.41049
G1 X43.942 Y20.164 A134.73019
G1 X44.564 Y20.517 A134.96358
G1 X45.369 Y21.028 A135.27490
G1 X46.239 Y21.648 A135.62375
G1 X46.803 Y22.097 A135.85928
G1 X47.524 Y22.727 A136.17196
G1 X48.050 Y23.234 A136.41039
G1 X48.555 Y23.764 A136.64963
G1 X49.173 Y24.476 A136.95739
G1 X49.620 Y25.043 A137.19326
G1 X50.152 Y25.791 A137.49292
G1 X50.765 Y26.763 A137.86822
G1 X51.117 Y27.395 A138.10439
G1 X51.532 Y28.225 A138.40727
G1 X51.825 Y28.890 A138.64476
G1 X52.156 Y29.749 A138.94539
G1 X52.389 Y30.446 A139.18531
G1 X52.591 Y31.152 A139.42486
G1 X52.797 Y32.026 A139.71803
G1 X53.002 Y33.195 A140.10586
G1 X53.106 Y34.087 A140.39891
G1 X53.156 Y34.814 A140.63679
G1 X53.176 Y35.726 A140.93473
G1 X53.159 Y36.454 A141.17259
G1 X53.092 Y37.365 A141.47073
G1 X53.008 Y38.081 A141.70634
G1 X52.803 Y39.255 A142.09551
G1 X52.599 Y40.130 A142.38885
G1 X52.400 Y40.829 A142.62621
G1 X52.107 Y41.700 A142.92620
G1 X51.841 Y42.386 A143.16637
G1 X51.546 Y43.058 A143.40593
G1 X51.141 Y43.873 A143.70328
G1 X50.570 Y44.873 A144.07919
G1 X50.077 Y45.635 A144.37566
G1 X49.532 Y46.385 A144.67839
G1 X49.073 Y46.958 A144.91803
G1 X48.592 Y47.510 A145.15710
G1 X47.953 Y48.174 A145.45787
G1 X47.313 Y48.775 A145.74450
G1 X46.515 Y49.450 A146.08586
G1 X45.814 Y49.980 A146.37292
G1 X45.255 Y50.363 A146.59404
G1 X44.497 Y50.836 A146.88603
G1 X43.709 Y51.273 A147.18002
G1 X43.105 Y51.574 A147.40043
G1 X42.276 Y51.940 A147.69653
G1 X41.428 Y52.264 A147.99276
G1 X40.542 Y52.550 A148.29701
G1 X39.669 Y52.784 A148.59197
G1 X39.106 Y52.904 A148.78002
G1 X38.780 Y52.974 A148.82435
G1 X37.864 Y53.120 A148.94763
G1 X37.198 Y53.195 A149.03668
G1 X36.544 Y53.243 A149.12376
G1 X35.319 Y53.268 A149.28667
G1 X34.667 Y53.248 A149.37336
G1 X33.858 Y53.187 A149.48118
G1 X32.928 Y53.072 A149.60575
G1 X32.005 Y52.908 A149.73033
G1 X31.085 Y52.692 A149.85599
G1 X30.158 Y52.421 A149.98430
G1 X29.551 Y52.214 A150.06955
G1 X28.635 Y51.852 A150.20047
G1 X28.054 Y51.591 A150.28515
G1 X27.145 Y51.129 A150.42060
G1 X26.301 Y50.641 A150.55016
G1 X25.774 Y50.302 A150.63349
G1 X24.962 Y49.725 A150.76583
G1 X24.467 Y49.338 A150.84934
G1 X23.719 Y48.695 A150.98047
G1 X23.015 Y48.018 A151.11037
G1 X22.348 Y47.302 A151.24028
G1 X21.723 Y46.551 A151.37023
G1 X21.132 Y45.756 A151.50186
G1 X20.782 Y45.236 A151.58521
G1 X20.261 Y44.378 A151.71854
G1 X19.960 Y43.828 A151.80192
G1 X19.520 Y42.926 A151.93529
G1 X19.272 Y42.350 A152.01869
G1 X18.922 Y41.423 A152.15042
G1 X18.624 Y40.479 A152.28189
G1 X18.453 Y39.830 A152.37119
G1 X18.250 Y38.890 A152.49889
G1 X18.144 Y38.258 A152.58412
G1 X18.059 Y37.611 A152.67087
G1 X17.963 Y36.315 A152.84362
G1 X17.951 Y35.488 A152.95354
G1 X17.985 Y34.563 A153.07656
G1 X18.044 Y33.846 A153.17211
G1 X18.132 Y33.140 A153.26666
G1 X18.326 Y32.042 A153.41491
G1 X18.482 Y31.362 A153.50761
G1 X18.784 Y30.303 A153.65400
G1 X19.151 Y29.265 A153.80037
G1 X19.422 Y28.607 A153.89488
G1 X19.726 Y27.949 A153.99123
G1 X20.056 Y27.304 A154.08756
G1 X20.406 Y26.685 A154.18204
G1 X21.003 Y25.745 A154.33000
G1 X21.422 Y25.156 A154.42610
G1 X22.096 Y24.303 A154.57066
G1 X22.568 Y23.766 A154.66563
G1 X23.333 Y22.980 A154.81138
G1 X23.843 Y22.506 A154.90397
G1 X24.696 Y21.792 A155.05183
G1 X25.265 Y21.364 A155.14641
G1 X25.854 Y20.959 A155.24141
G1 X26.796 Y20.378 A155.38851
G1 X27.421 Y20.036 A155.48321
G1 X28.061 Y19.719 A155.57818
G1 X29.058 Y19.287 A155.72265
G1 X29.713 Y19.041 A155.81558
G1 X30.733 Y18.717 A155.95778
G1 X31.415 Y18.537 A156.05159
G1 X32.228 Y18.362 A156.16203
G1 X33.274 Y18.192 A156.30288
G1 X33.977 Y18.114 A156.39699
G1 X35.021 Y18.051 A156.53594
G1 X35.739 Y18.043 A156.63134
G1 X36.457 Y18.065 A156.72691
G1 X37.691 Y18.175 A156.89154
G1 X37.977 Y17.138 F7800.000
G1 F1800
G1 X39.106 Y17.322 A157.04359
G1 X40.367 Y17.605 A157.46572
G1 X41.106 Y17.819 A157.71696
G1 X42.101 Y18.158 A158.06005
G1 X42.819 Y18.444 A158.31246
G1 X43.526 Y18.759 A158.56539
G1 X44.446 Y19.225 A158.90181
G1 X45.112 Y19.603 A159.15209
G1 X45.964 Y20.143 A159.48140
G1 X46.880 Y20.796 A159.84873
G1 X47.486 Y21.278 A160.10150
G1 X48.245 Y21.942 A160.43077
G1 X48.805 Y22.482 A160.68496
G1 X49.344 Y23.047 A160.93977
G1 X49.994 Y23.797 A161.26396
G1 X50.473 Y24.404 A161.51647
G1 X51.038 Y25.197 A161.83434
G1 X51.682 Y26.219 A162.22879
G1 X52.060 Y26.897 A162.48225
G1 X52.497 Y27.772 A162.80146
G1 X52.810 Y28.484 A163.05550
G1 X53.160 Y29.389 A163.37239
G1 X53.407 Y30.131 A163.62775
G1 X53.622 Y30.882 A163.88295
G1 X53.841 Y31.811 A164.19451
G1 X54.057 Y33.041 A164.60234
G1 X54.168 Y33.988 A164.91370
G1 X54.221 Y34.765 A165.16803
G1 X54.242 Y35.727 A165.48216
G1 X54.223 Y36.506 A165.73647
G1 X54.153 Y37.466 A166.05080
G1 X54.063 Y38.235 A166.30383
G1 X53.848 Y39.468 A166.71244
G1 X53.631 Y40.397 A167.02404
G1 X53.418 Y41.145 A167.27788
G1 X53.109 Y42.063 A167.59411
G1 X52.826 Y42.793 A167.84976
G1 X52.512 Y43.509 A168.10500
G1 X52.082 Y44.375 A168.42075
G1 X51.481 Y45.427 A168.81646
G1 X50.956 Y46.238 A169.13198
G1 X50.379 Y47.032 A169.45226
