; generated by PrusaSlicer 2.0.0+win64 on 2019-05-28 at 21:30:47

; 

; external perimeters extrusion width = 1.13mm
; perimeters extrusion width = 1.13mm
; infill extrusion width = 1.13mm
; solid infill extrusion width = 1.13mm
; top infill extrusion width = 1.00mm
; first layer extrusion width = 1.05mm

M107
G28 ; home all axes
G1 Z-307 F5000 ; lift nozzle
g92 Z0
; Filament gcode
G21 ; set units to millimeters
G90 ; use absolute coordinates
G1 Z0.500 F7800.000
G1 A-2.00000 F2400.00000
G1 X32.587 Y23.247 F7800.000
G1 A0.00000 F2400.00000
G1 F1800
G1 X33.964 Y21.476 A0.43963
G1 X35.302 Y20.016 A0.82765
G1 X36.564 Y18.818 A1.16873
G1 X38.377 Y17.346 A1.62638
G1 X40.145 Y16.143 A2.04543
G1 X42.178 Y15.000 A2.50241
G1 X44.174 Y14.092 A2.93218
G1 X46.185 Y13.371 A3.35086
G1 X47.850 Y12.908 A3.68943
G1 X50.000 Y12.477 A4.11915
G1 X52.151 Y12.229 A4.54347
G1 X54.336 Y12.159 A4.97197
G1 X56.867 Y12.303 A5.46864
G1 X59.751 Y12.778 A6.04155
G1 X61.181 Y13.323 A6.34135
G1 X62.443 Y14.188 A6.64116
G1 X63.092 Y14.844 A6.82205
G1 X63.645 Y15.591 A7.00416
G1 X64.085 Y16.410 A7.18628
G1 X64.401 Y17.277 A7.36717
G1 X64.592 Y18.186 A7.54929
G1 X64.650 Y19.114 A7.73141
G1 X64.575 Y20.040 A7.91352
G1 X64.370 Y20.940 A8.09441
G1 X64.029 Y21.825 A8.28022
G1 X47.048 Y57.492 A16.02149
G1 X46.416 Y58.337 A16.22817
G1 X45.656 Y59.067 A16.43485
G1 X44.786 Y59.665 A16.64153
G1 X43.832 Y60.113 A16.84820
G1 X42.811 Y60.402 A17.05611
G1 X41.763 Y60.519 A17.26278
G1 X40.709 Y60.465 A17.46946
G1 X39.679 Y60.240 A17.67614
G1 X38.514 Y59.757 A17.92329
G1 X37.455 Y59.049 A18.17285
G1 X35.665 Y57.456 A18.64256
G1 X33.999 Y55.672 A19.12082
G1 X32.643 Y53.940 A19.55193
G1 X31.380 Y52.007 A20.00439
G1 X30.307 Y50.002 A20.45003
G1 X29.346 Y47.742 A20.93123
G1 X28.660 Y45.624 A21.36754
G1 X28.193 Y43.649 A21.76524
G1 X27.913 Y41.930 A22.10647
G1 X27.719 Y39.645 A22.55590
G1 X27.718 Y37.468 A22.98250
G1 X27.907 Y35.221 A23.42441
G1 X28.285 Y33.008 A23.86443
G1 X28.849 Y30.837 A24.30404
G1 X29.584 Y28.751 A24.73742
G1 X30.338 Y27.044 A25.10306
G1 X31.378 Y25.106 A25.53406
G1 X32.505 Y23.373 A25.93921
G1 A23.93921 F2400.00000
G1 X54.569 Y21.042 F7800.000
G1 A25.93921 F2400.00000
G1 F1800
G1 X40.826 Y49.991 A32.21901
G1 X40.328 Y49.385 A32.37286
G1 X39.868 Y48.773 A32.52276
G1 X39.437 Y48.145 A32.67217
G1 X39.034 Y47.500 A32.82112
G1 X38.662 Y46.840 A32.96963
G1 X38.318 Y46.166 A33.11795
G1 X38.058 Y45.598 A33.24029
G1 X37.676 Y44.656 A33.43950
G1 X37.429 Y43.949 A33.58623
G1 X37.212 Y43.225 A33.73444
G1 X37.027 Y42.493 A33.88229
G1 X36.873 Y41.756 A34.02981
G1 X36.751 Y41.012 A34.17754
G1 X36.683 Y40.458 A34.28704
G1 X36.596 Y39.333 A34.50817
G1 X36.578 Y38.593 A34.65313
G1 X36.592 Y37.842 A34.80039
G1 X36.639 Y37.093 A34.94742
G1 X36.717 Y36.348 A35.09425
G1 X36.828 Y35.604 A35.24166
G1 X36.925 Y35.094 A35.34341
G1 X37.199 Y33.932 A35.57727
G1 X37.407 Y33.228 A35.72110
G1 X37.650 Y32.521 A35.86773
G1 X37.922 Y31.824 A36.01428
G1 X38.224 Y31.140 A36.16079
G1 X38.800 Y30.018 A36.40808
G1 X39.423 Y28.986 A36.64417
G1 X39.835 Y28.381 A36.78756
G1 X40.282 Y27.783 A36.93395
G1 X40.754 Y27.203 A37.08041
G1 X41.250 Y26.644 A37.22698
G1 X41.774 Y26.103 A37.37449
G1 X42.142 Y25.752 A37.47429
G1 X43.096 Y24.924 A37.72172
G1 X43.643 Y24.499 A37.85739
G1 X44.222 Y24.086 A37.99685
G1 X44.821 Y23.695 A38.13698
G1 X45.438 Y23.327 A38.27783
G1 X46.074 Y22.983 A38.41951
G1 X46.722 Y22.667 A38.56067
G1 X47.641 Y22.272 A38.75680
G1 X48.311 Y22.021 A38.89703
G1 X49.005 Y21.795 A39.03995
G1 X49.710 Y21.597 A39.18343
G1 X50.528 Y21.406 A39.34804
G1 X51.251 Y21.272 A39.49219
G1 X51.898 Y21.179 A39.62040
G1 X52.942 Y21.079 A39.82589
G1 X53.544 Y21.048 A39.94394
G1 X54.419 Y21.042 A40.11537
G1 X56.014 Y20.196 F7800.000
G1 F1800
G1 X41.085 Y51.645 A46.93749
G1 X40.643 Y51.196 A47.06103
G1 X40.100 Y50.592 A47.21999
G1 X39.587 Y49.968 A47.37848
G1 X39.102 Y49.324 A47.53645
G1 X38.648 Y48.661 A47.69390
G1 X38.224 Y47.981 A47.85087
G1 X37.831 Y47.286 A48.00738
G1 X37.469 Y46.576 A48.16360
G1 X37.193 Y45.972 A48.29378
G1 X36.793 Y44.989 A48.50168
G1 X36.532 Y44.239 A48.65714
G1 X36.303 Y43.476 A48.81334
G1 X36.108 Y42.705 A48.96916
G1 X35.946 Y41.929 A49.12463
G1 X35.818 Y41.146 A49.28009
G1 X35.745 Y40.552 A49.39741
G1 X35.654 Y39.381 A49.62756
G1 X35.635 Y38.595 A49.78147
G1 X35.650 Y37.804 A49.93667
G1 X35.699 Y37.014 A50.09162
G1 X35.782 Y36.229 A50.24637
G1 X35.898 Y35.447 A50.40140
G1 X36.002 Y34.897 A50.51095
G1 X36.288 Y33.690 A50.75406
G1 X36.509 Y32.942 A50.90694
G1 X36.764 Y32.196 A51.06148
G1 X37.052 Y31.462 A51.21593
G1 X37.370 Y30.741 A51.37033
G1 X37.720 Y30.032 A51.52524
G1 X37.982 Y29.549 A51.63305
G1 X38.629 Y28.477 A51.87844
G1 X39.067 Y27.834 A52.03088
G1 X39.538 Y27.203 A52.18515
G1 X40.036 Y26.592 A52.33951
G1 X40.559 Y26.003 A52.49398
G1 X41.110 Y25.434 A52.64909
G1 X41.508 Y25.054 A52.75690
G1 X42.497 Y24.195 A53.01373
G1 X43.080 Y23.743 A53.15820
G1 X43.690 Y23.307 A53.30523
G1 X44.322 Y22.895 A53.45296
G1 X44.973 Y22.507 A53.60146
G1 X45.643 Y22.145 A53.75082
G1 X46.328 Y21.810 A53.90027
G1 X47.290 Y21.397 A54.10532
G1 X48.000 Y21.131 A54.25392
G1 X48.731 Y20.893 A54.40458
G1 X49.475 Y20.684 A54.55606
G1 X50.334 Y20.483 A54.72893
G1 X51.098 Y20.341 A54.88113
G1 X51.787 Y20.243 A55.01756
G1 X52.873 Y20.139 A55.23135
G1 X53.516 Y20.106 A55.35760
G1 X54.411 Y20.100 A55.53299
G1 X55.192 Y20.129 A55.68619
G1 X55.864 Y20.184 A55.81825
G1 X57.411 Y19.450 F7800.000
G1 F1800
G1 X41.380 Y53.221 A63.14391
G1 X40.575 Y52.472 A63.35946
G1 X39.956 Y51.842 A63.53257
G1 X39.386 Y51.207 A63.69970
G1 X38.846 Y50.551 A63.86628
G1 X38.336 Y49.874 A64.03232
G1 X37.859 Y49.177 A64.19782
G1 X37.413 Y48.463 A64.36281
G1 X37.000 Y47.732 A64.52732
G1 X36.620 Y46.986 A64.69142
G1 X36.327 Y46.345 A64.82945
G1 X35.911 Y45.321 A65.04603
G1 X35.635 Y44.530 A65.21024
G1 X35.395 Y43.728 A65.37442
G1 X35.189 Y42.917 A65.53821
G1 X35.019 Y42.101 A65.70163
G1 X34.884 Y41.279 A65.86482
G1 X34.807 Y40.645 A65.98995
G1 X34.712 Y39.429 A66.22913
G1 X34.692 Y38.598 A66.39199
G1 X34.708 Y37.765 A66.55512
G1 X34.759 Y36.936 A66.71800
G1 X34.846 Y36.110 A66.88067
G1 X34.968 Y35.289 A67.04331
G1 X35.080 Y34.701 A67.16067
G1 X35.376 Y33.448 A67.41303
G1 X35.610 Y32.655 A67.57496
G1 X35.879 Y31.871 A67.73740
G1 X36.181 Y31.100 A67.89975
G1 X36.516 Y30.342 A68.06206
G1 X36.882 Y29.598 A68.22453
G1 X37.164 Y29.080 A68.34016
G1 X37.836 Y27.967 A68.59484
G1 X38.300 Y27.286 A68.75632
G1 X38.795 Y26.623 A68.91849
G1 X39.317 Y25.981 A69.08074
G1 X39.868 Y25.362 A69.24312
G1 X40.445 Y24.765 A69.40582
G1 X40.873 Y24.357 A69.52165
G1 X41.899 Y23.467 A69.78787
G1 X42.516 Y22.987 A69.94114
G1 X43.159 Y22.529 A70.09575
G1 X43.822 Y22.095 A70.25108
G1 X44.507 Y21.687 A70.40723
G1 X45.212 Y21.306 A70.56427
G1 X45.935 Y20.953 A70.72199
G1 X46.938 Y20.522 A70.93597
G1 X47.689 Y20.241 A71.09293
G1 X48.457 Y19.990 A71.25135
G1 X49.240 Y19.771 A71.41081
G1 X50.141 Y19.561 A71.59195
G1 X50.945 Y19.411 A71.75220
G1 X51.675 Y19.306 A71.89685
G1 X52.804 Y19.199 A72.11895
G1 X53.489 Y19.163 A72.25339
G1 X54.426 Y19.157 A72.43708
G1 X55.248 Y19.188 A72.59832
G1 X56.076 Y19.255 A72.76108
G1 X56.905 Y19.358 A72.92468
G1 X57.264 Y19.423 A72.99619
G1 X56.648 Y20.097 F7800.000
G1 A70.99619 F2400.00000
G1 X53.509 Y22.613 F7800.000
G1 A72.99619 F2400.00000
G1 F1800
G1 X52.708 Y21.812 A73.22037
G1 X51.982 Y21.881 A73.36469
G1 X51.500 Y21.950 A73.46095
G1 X52.758 Y23.208 A73.81275
G1 X52.325 Y24.120 A74.01263
G1 X50.373 Y22.168 A74.55872
G1 X49.304 Y22.445 A74.77720
G1 X51.891 Y25.033 A75.50117
G1 X51.458 Y25.946 A75.70105
G1 X48.295 Y22.782 A76.58612
G1 X47.338 Y23.172 A76.79045
G1 X51.025 Y26.858 A77.82194
G1 X50.592 Y27.771 A78.02182
G1 X46.421 Y23.601 A79.18866
G1 X45.555 Y24.080 A79.38454
G1 X50.158 Y28.684 A80.67247
G1 X49.725 Y29.596 A80.87235
G1 X44.728 Y24.600 A82.27037
G1 X43.944 Y25.161 A82.46124
G1 X49.292 Y30.509 A83.95763
G1 X48.859 Y31.422 A84.15751
G1 X43.204 Y25.767 A85.73972
G1 X42.489 Y26.398 A85.92837
G1 X48.425 Y32.334 A87.58928
G1 X47.992 Y33.247 A87.78916
G1 X41.819 Y27.074 A89.51642
G1 X41.188 Y27.789 A89.70509
G1 X47.559 Y34.160 A91.48751
G1 X47.126 Y35.073 A91.68739
G1 X40.596 Y28.543 A93.51420
G1 X40.411 Y28.792 A93.57560
G1 X40.041 Y29.334 A93.70540
G1 X46.692 Y35.985 A95.56628
G1 X46.259 Y36.898 A95.76616
G1 X39.533 Y30.172 A97.64803
G1 X39.065 Y31.050 A97.84487
G1 X45.826 Y37.811 A99.73643
G1 X45.393 Y38.723 A99.93631
G1 X38.633 Y31.964 A101.82749
G1 X38.256 Y32.933 A102.03314
G1 X44.959 Y39.636 A103.90868
G1 X44.526 Y40.549 A104.10856
G1 X37.930 Y33.953 A105.95400
G1 X37.665 Y35.034 A106.17417
G1 X44.093 Y41.461 A107.97256
G1 X43.660 Y42.374 A108.17243
G1 X37.458 Y36.173 A109.90756
G1 X37.329 Y37.389 A110.14962
G1 X43.226 Y43.287 A111.79970
G1 X42.793 Y44.199 A111.99958
G1 X37.288 Y38.694 A113.53996
G1 X37.302 Y39.297 A113.65925
G1 X37.366 Y40.118 A113.82230
G1 X42.360 Y45.112 A115.21950
G1 X41.927 Y46.025 A115.41938
G1 X37.579 Y41.677 A116.63588
G1 X37.716 Y42.334 A116.76868
G1 X38.023 Y43.467 A117.00098
G1 X41.493 Y46.938 A117.97191
G1 X41.060 Y47.850 A118.17179
G1 X38.060 Y44.850 A119.01129
G1 Z1.000 F7800.000
G1 X56.716 Y20.988
G1 F3600
G1 X57.729 Y21.170 A119.23008
G1 X58.656 Y21.388 A119.54089
G1 X59.599 Y21.666 A119.86201
G1 X60.535 Y21.999 A120.18644
G1 X61.719 Y22.510 A120.60728
G1 X62.591 Y22.955 A120.92715
G1 X63.412 Y23.432 A121.23720
G1 X64.197 Y23.946 A121.54354
G1 X64.850 Y24.420 A121.80720
G1 X65.590 Y25.015 A122.11724
G1 X66.287 Y25.639 A122.42250
G1 X66.765 Y26.108 A122.64139
G1 X67.397 Y26.786 A122.94382
G1 X67.835 Y27.301 A123.16466
G1 X68.387 Y28.012 A123.45843
G1 X68.886 Y28.726 A123.74294
G1 X69.451 Y29.636 A124.09276
G1 X69.875 Y30.408 A124.38046
G1 X70.258 Y31.195 A124.66613
G1 X70.537 Y31.843 A124.89654
G1 X70.846 Y32.655 A125.18004
G1 X71.068 Y33.329 A125.41185
G1 X71.298 Y34.146 A125.68924
G1 X71.486 Y34.959 A125.96144
G1 X71.708 Y36.281 A126.39928
G1 X71.786 Y37.012 A126.63917
G1 X71.844 Y37.947 A126.94503
G1 X71.856 Y38.666 A127.18007
G1 X71.834 Y39.416 A127.42507
G1 X71.781 Y40.168 A127.67101
G1 X71.685 Y40.999 A127.94445
G1 X71.549 Y41.826 A128.21787
G1 X71.415 Y42.482 A128.43674
G1 X71.253 Y43.138 A128.65718
G1 X71.041 Y43.865 A128.90448
G1 X70.775 Y44.652 A129.17575
G1 X70.502 Y45.352 A129.42099
G1 X70.200 Y46.040 A129.66650
G1 X69.835 Y46.779 A129.93558
G1 X69.432 Y47.506 A130.20710
G1 X69.079 Y48.088 A130.42945
G1 X68.705 Y48.651 A130.65008
G1 X68.215 Y49.327 A130.92272
G1 X67.747 Y49.914 A131.16769
G1 X67.256 Y50.480 A131.41244
G1 X66.675 Y51.090 A131.68754
G1 X66.137 Y51.609 A131.93153
G1 X65.489 Y52.176 A132.21266
G1 X64.982 Y52.587 A132.42593
G1 X64.467 Y52.971 A132.63568
G1 X63.851 Y53.394 A132.87963
G1 X63.116 Y53.853 A133.16273
G1 X62.468 Y54.217 A133.40522
G1 X61.807 Y54.553 A133.64733
G1 X61.000 Y54.917 A133.93648
G1 X60.149 Y55.250 A134.23497
G1 X59.047 Y55.610 A134.61340
G1 X58.151 Y55.846 A134.91604
G1 X57.432 Y56.000 A135.15617
G1 X56.709 Y56.122 A135.39556
G1 X55.770 Y56.236 A135.70448
G1 X54.808 Y56.300 A136.01912
G1 X53.767 Y56.312 A136.35912
G1 X52.791 Y56.269 A136.67795
G1 X52.068 Y56.201 A136.91529
G1 X51.351 Y56.104 A137.15155
G1 X50.347 Y55.917 A137.48495
G1 X49.328 Y55.666 A137.82770
G1 X48.519 Y55.421 A138.10361
G1 X47.520 Y55.058 A138.45064
G1 X46.871 Y54.785 A138.68067
G1 X45.873 Y54.303 A139.04245
G1 X45.255 Y53.965 A139.27243
G1 X44.304 Y53.378 A139.63733
G1 X43.727 Y52.979 A139.86649
G1 X42.923 Y52.361 A140.19760
G1 X42.294 Y51.831 A140.37240
G1 X41.759 Y51.335 A140.52758
G1 X41.254 Y50.826 A140.67998
G1 X40.505 Y49.989 A140.91870
G1 X40.063 Y49.441 A141.06844
G1 X39.403 Y48.531 A141.30745
G1 X39.019 Y47.940 A141.45736
G1 X38.455 Y46.966 A141.69664
G1 X38.127 Y46.325 A141.84959
G1 X37.820 Y45.659 A142.00547
G1 X37.546 Y44.993 A142.15854
G1 X37.171 Y43.930 A142.39826
G1 X36.971 Y43.252 A142.54861
G1 X36.708 Y42.154 A142.78855
G1 X36.578 Y41.458 A142.93903
G1 X36.430 Y40.339 A143.17915
G1 X36.372 Y39.619 A143.33261
G1 X36.343 Y38.884 A143.48898
G1 X36.345 Y38.162 A143.64250
G1 X36.406 Y37.033 A143.88290
G1 X36.481 Y36.328 A144.03363
G1 X36.659 Y35.211 A144.27412
G1 X36.806 Y34.517 A144.42491
G1 X37.099 Y33.424 A144.66548
G1 X37.321 Y32.736 A144.81918
G1 X37.577 Y32.045 A144.97577
G1 X37.862 Y31.366 A145.13236
G1 X38.174 Y30.699 A145.28896
G1 X38.513 Y30.045 A145.44555
G1 X38.873 Y29.418 A145.59926
G1 X39.486 Y28.467 A145.83986
G1 X39.901 Y27.891 A145.99067
G1 X40.609 Y27.008 A146.23120
G1 X41.081 Y26.478 A146.38225
G1 X41.850 Y25.699 A146.61488
G1 X42.318 Y25.269 A146.74994
G1 X43.098 Y24.616 A146.96626
G1 X43.605 Y24.230 A147.10182
G1 X44.443 Y23.653 A147.31802
G1 X44.984 Y23.316 A147.45350
G1 X45.860 Y22.825 A147.66698
G1 X46.751 Y22.390 A147.87777
G1 X47.675 Y22.000 A148.09105
G1 X48.272 Y21.781 A148.22632
G1 X49.240 Y21.475 A148.44200
G1 X49.854 Y21.312 A148.57714
G1 X50.845 Y21.097 A148.79263
G1 X52.136 Y20.905 A149.07028
G1 X53.440 Y20.808 A149.34816
G1 X54.265 Y20.799 A149.52369
G1 X55.443 Y20.846 A149.77418
G1 X56.568 Y20.969 A150.01473
G1 X56.872 Y19.977 F7800.000
G1 F3600
G1 X58.178 Y20.225 A150.29734
G1 X58.918 Y20.399 A150.54550
G1 X59.915 Y20.693 A150.88510
G1 X60.901 Y21.043 A151.22661
G1 X61.534 Y21.303 A151.44994
G1 X62.163 Y21.588 A151.67552
G1 X63.081 Y22.057 A152.01209
G1 X63.949 Y22.562 A152.34014
G1 X64.778 Y23.104 A152.66345
G1 X65.472 Y23.608 A152.94337
G1 X66.252 Y24.235 A153.27050
G1 X66.987 Y24.892 A153.59225
G1 X67.498 Y25.394 A153.82626
G1 X68.161 Y26.106 A154.14370
G1 X68.629 Y26.656 A154.37955
G1 X69.211 Y27.405 A154.68926
G1 X69.740 Y28.163 A154.99128
G1 X70.334 Y29.120 A155.35894
G1 X70.784 Y29.938 A155.66379
G1 X71.188 Y30.769 A155.96546
G1 X71.485 Y31.459 A156.21078
G1 X71.810 Y32.313 A156.50906
G1 X72.046 Y33.030 A156.75569
G1 X72.289 Y33.893 A157.04840
G1 X72.488 Y34.752 A157.33652
G1 X72.723 Y36.153 A157.80024
G1 X72.805 Y36.926 A158.05393
G1 X72.866 Y37.906 A158.37482
G1 X72.879 Y38.673 A158.62514
G1 X72.855 Y39.467 A158.88459
G1 X72.799 Y40.262 A159.14475
G1 X72.698 Y41.141 A159.43371
G1 X72.555 Y42.011 A159.72168
G1 X72.412 Y42.708 A159.95385
G1 X72.240 Y43.403 A160.18776
G1 X72.017 Y44.172 A160.44907
G1 X71.736 Y45.002 A160.73517
G1 X71.447 Y45.743 A160.99505
G1 X71.127 Y46.472 A161.25509
G1 X70.742 Y47.253 A161.53951
G1 X70.317 Y48.020 A161.82560
G1 X69.942 Y48.637 A162.06138
G1 X69.545 Y49.235 A162.29571
G1 X69.029 Y49.946 A162.58277
G1 X68.533 Y50.568 A162.84235
G1 X68.013 Y51.168 A163.10169
G1 X67.401 Y51.811 A163.39172
G1 X66.829 Y52.362 A163.65091
G1 X66.148 Y52.958 A163.94637
G1 X65.609 Y53.395 A164.17282
G1 X65.062 Y53.803 A164.39564
G1 X64.412 Y54.250 A164.65336
G1 X63.637 Y54.733 A164.95152
G1 X62.950 Y55.119 A165.20877
G1 X62.249 Y55.475 A165.46554
G1 X61.397 Y55.860 A165.77094
G1 X60.503 Y56.210 A166.08447
G1 X59.327 Y56.594 A166.48833
G1 X58.388 Y56.841 A166.80549
G1 X57.624 Y57.004 A167.06052
G1 X56.856 Y57.135 A167.31479
G1 X55.865 Y57.255 A167.64078
G1 X54.848 Y57.322 A167.97362
G1 X53.750 Y57.335 A168.33207
G1 X52.721 Y57.290 A168.66849
G1 X51.951 Y57.218 A168.92089
G1 X51.188 Y57.114 A169.17228
G1 X50.131 Y56.917 A169.52367
G1 X49.057 Y56.652 A169.88483
G1 X48.196 Y56.391 A170.17841
G1 X47.147 Y56.011 A170.54285
G1 X46.450 Y55.717 A170.78980
G1 X45.405 Y55.213 A171.16870
G1 X44.741 Y54.849 A171.41600
G1 X43.745 Y54.234 A171.79816
G1 X43.124 Y53.806 A172.04443
G1 X42.474 Y53.306 A172.31209
G1 X41.614 Y52.595 A172.54935
G1 X41.048 Y52.070 A172.71346
G1 X40.510 Y51.528 A172.87592
G1 X39.726 Y50.652 A173.12581
G1 X39.250 Y50.063 A173.28674
G1 X38.559 Y49.110 A173.53693
G1 X38.147 Y48.475 A173.69805
G1 X37.557 Y47.455 A173.94854
G1 X37.207 Y46.772 A174.11158
G1 X36.883 Y46.068 A174.27642
G1 X36.591 Y45.358 A174.43959
G1 X36.198 Y44.245 A174.69055
G1 X35.983 Y43.516 A174.85213
G1 X35.707 Y42.367 A175.10331
G1 X35.568 Y41.619 A175.26502
G1 X35.412 Y40.447 A175.51640
G1 X35.350 Y39.680 A175.67998
G1 X35.320 Y38.903 A175.84535
G1 X35.322 Y38.133 A176.00901
G1 X35.386 Y36.951 A176.26067
G1 X35.467 Y36.193 A176.42266
G1 X35.653 Y35.024 A176.67443
G1 X35.811 Y34.278 A176.83648
