; generated by PrusaSlicer 2.0.0+win64 on 2019-06-12 at 06:43:38

; 

; external perimeters extrusion width = 2.80mm
; perimeters extrusion width = 2.80mm
; infill extrusion width = 2.80mm
; solid infill extrusion width = 2.80mm
; top infill extrusion width = 2.80mm
; first layer extrusion width = 3.00mm

M73 P0 R20
M73 Q0 S20
M201 X1000 Y1000 Z1000 E5000 ; sets maximum accelerations, mm/sec^2
M203 X200 Y200 Z12 E120 ; sets maximum feedrates, mm/sec
M204 P1250 R1250 T1250 ; sets acceleration (P, T) and retract acceleration (R), mm/sec^2
M205 X8.00 Y8.00 Z0.40 E1.50 ; sets the jerk limits, mm/sec
M205 S0 T0 ; sets the minimum extruding and travel feed rate, mm/sec
M107
M190 S40 ; set bed temperature and wait for it to be reached
M104 S40 ; set temperature
M115 U3.7.1 ; tell printer latest fw version
G90 ; use absolute coordinates
M83 ; extruder relative mode

G1 Y-3.0 F1000.0 ; go outside print area
G92 E0.0
G1 X60.0 E9.0 F1000.0 ; intro line
M73 Q0 S20
M73 P0 R20
G1 X100.0 E12.5 F1000.0 ; intro line
G92 E0.0
M221 S95
; Filament gcode
M109 S40 ; set temperature and wait for it to be reached
G21 ; set units to millimeters
G90 ; use absolute coordinates
M83 ; use relative distances for extrusion
;BEFORE_LAYER_CHANGE
G92 E0.0
;4


G1 E-0.80000 F2100.00000
G1 Z0.600 F7800.000
G1 Z4.000
;AFTER_LAYER_CHANGE
;4
G1 Z4.600
G1 X41.414 Y131.187
G1 Z4.000
G1 E0.80000 F2100.00000
G1 F1800
G1 X43.096 Y130.479 E79.61670
G1 X45.404 Y129.679 E106.53745
G1 X47.189 Y129.190 E80.76326
G1 X49.136 Y128.782 E86.78182
G1 X51.392 Y128.466 E99.38078
G1 X53.218 Y128.325 E79.90399
G1 X55.141 Y128.292 E83.91615
G1 X57.488 Y128.409 E102.53048
G1 X59.321 Y128.618 E80.47644
G1 X61.292 Y128.966 E87.35542
G1 X63.499 Y129.512 E99.18235
G1 X65.245 Y130.059 E79.81429
G1 X67.140 Y130.784 E88.50093
G1 X68.967 Y131.618 E87.64093
G1 X70.583 Y132.479 E79.90361
G1 X72.524 Y133.672 E99.38007
G1 X74.149 Y134.830 E87.06887
G1 X75.588 Y135.994 E80.76378
G1 X77.368 Y137.638 E105.67775
G1 X78.639 Y138.975 E80.47784
G1 X79.823 Y140.381 E80.19126
G1 X81.179 Y142.211 E99.38008
G1 X82.247 Y143.873 E86.20933
G1 X83.154 Y145.495 E81.04983
G1 X84.205 Y147.708 E106.91326
G1 X84.877 Y149.396 E79.24158
G1 X85.459 Y151.160 E81.04915
G1 X86.067 Y153.514 E106.05483
G1 X86.409 Y155.311 E79.81495
G1 X86.663 Y157.310 E87.92665
G1 X86.792 Y159.321 E87.92784
G1 X86.796 Y161.153 E79.90363
G1 X86.642 Y163.603 E107.10964
G1 X86.404 Y165.439 E80.76385
G1 X86.027 Y167.399 E87.06703
G1 X85.446 Y169.601 E99.38249
G1 X84.868 Y171.346 E80.18992
G1 X84.129 Y173.193 E86.78051
G1 X83.138 Y175.253 E99.75666
G1 X82.245 Y176.850 E79.81513
G1 X81.158 Y178.539 E87.64096
G1 X79.806 Y180.359 E98.89497
G1 X78.627 Y181.757 E79.81579
G1 X77.245 Y183.206 E87.35409
G1 X75.568 Y184.741 E99.18245
G1 X74.146 Y185.892 E79.81444
G1 X72.504 Y187.060 E87.92930
G1 X70.791 Y188.123 E87.92743
G1 X69.179 Y188.992 E79.90349
G1 X67.117 Y189.945 E99.09326
G1 X65.247 Y190.660 E87.35532
G1 X63.499 Y191.208 E79.90300
G1 X61.294 Y191.753 E99.09400
G1 X59.316 Y192.102 E87.64146
G1 X57.490 Y192.310 E80.18997
G1 X55.136 Y192.427 E102.81664
G1 X53.220 Y192.395 E83.63031
G1 X51.394 Y192.253 E79.90199
G1 X49.131 Y191.937 E99.66889
G1 X47.191 Y191.530 E86.49494
G1 X45.399 Y191.039 E81.04997
G1 X43.092 Y190.239 E106.53685
G1 X41.398 Y189.525 E80.19063
G1 X39.593 Y188.629 E87.92671
G1 X37.847 Y187.622 E87.92836
G1 X36.320 Y186.611 E79.90222
G1 X34.380 Y185.138 E106.25250
G1 X32.978 Y183.919 E81.04964
G1 X31.675 Y182.642 E79.61698
G1 X30.046 Y180.822 E106.53805
G1 X28.905 Y179.365 E80.76315
G1 X27.773 Y177.721 E87.06746
G1 X26.611 Y175.762 E99.38166
G1 X25.772 Y174.127 E80.18947
G1 X24.972 Y172.298 E87.06910
G1 X24.202 Y170.153 E99.46744
G1 X23.690 Y168.396 E79.81610
G1 X23.247 Y166.430 E87.92817
G1 X22.900 Y164.197 E98.60942
M73 Q5 S19
G1 X22.731 Y162.375 E79.81497
M73 P5 R19
G1 X22.667 Y160.361 E87.92850
G1 X22.730 Y158.346 E87.92689
G1 X22.900 Y156.523 E79.90435
G1 X23.248 Y154.285 E98.80724
G1 X23.690 Y152.325 E87.64112
G1 X24.202 Y150.567 E79.90419
G1 X24.974 Y148.417 E99.66645
G1 X25.774 Y146.589 E87.06771
G1 X26.610 Y144.959 E79.90418
G1 X27.772 Y143.000 E99.38142
G1 X28.904 Y141.356 E87.06791
G1 X30.045 Y139.898 E80.76315
G1 X31.679 Y138.074 E106.82309
G1 X32.991 Y136.788 E80.19044
G1 X34.515 Y135.469 E87.92758
G1 X36.118 Y134.247 E87.92751
G1 X37.641 Y133.229 E79.90347
G1 X39.748 Y132.009 E106.25078
G1 X40.876 Y131.453 E54.87382
G1 F6240
G1 X43.053 Y130.498 E-0.76000
G1 E-0.04000 F2100.00000
G1 Z4.600 F7800.000
G1 X57.472 Y179.378
G1 Z4.000
G1 E0.80000 F2100.00000
G1 F1800
G1 X56.261 Y179.513 E53.19314
G1 X55.043 Y179.571 E53.19264
G1 X53.824 Y179.552 E53.19310
G1 X52.608 Y179.455 E53.19302
G1 X51.402 Y179.282 E53.19256
G1 X50.208 Y179.032 E53.19274
G1 X49.033 Y178.707 E53.19312
G1 X47.881 Y178.308 E53.19305
G1 X46.756 Y177.837 E53.19310
G1 X45.664 Y177.296 E53.19286
G1 X44.608 Y176.686 E53.19319
G1 X43.593 Y176.011 E53.19309
G1 X42.623 Y175.273 E53.19289
G1 X41.701 Y174.474 E53.19352
G1 X40.845 Y173.631 E52.44065
G1 X39.928 Y172.595 E60.35078
G1 X39.266 Y171.752 E46.77456
G1 X38.574 Y170.748 E53.19329
G1 X37.948 Y169.701 E53.19344
G1 X37.389 Y168.618 E53.19296
G1 X36.900 Y167.501 E53.19306
G1 X36.483 Y166.355 E53.19378
G1 X36.140 Y165.185 E53.19358
G1 X35.871 Y163.996 E53.19303
G1 X35.679 Y162.792 E53.19371
G1 X35.563 Y161.578 E53.19355
G1 X35.524 Y160.360 E53.19333
G1 X35.563 Y159.141 E53.19333
G1 X35.679 Y157.927 E53.19351
G1 X35.871 Y156.723 E53.19371
G1 X36.140 Y155.534 E53.19307
G1 X36.483 Y154.364 E53.19332
G1 X36.900 Y153.218 E53.19376
G1 X37.382 Y152.118 E52.40734
G1 X38.027 Y150.885 E60.70828
G1 X38.574 Y149.972 E46.44995
G1 X39.266 Y148.967 E53.19365
G1 X40.019 Y148.009 E53.19325
G1 X40.832 Y147.100 E53.19320
G1 X41.701 Y146.245 E53.19285
G1 X42.623 Y145.447 E53.19331
G1 X43.593 Y144.708 E53.19300
G1 X44.608 Y144.033 E53.19315
G1 X45.664 Y143.423 E53.19293
G1 X46.756 Y142.882 E53.19308
G1 X47.881 Y142.411 E53.19308
G1 X49.033 Y142.012 E53.19300
G1 X50.208 Y141.687 E53.19290
G1 X51.402 Y141.437 E53.19276
G1 X52.608 Y141.264 E53.19295
G1 X53.805 Y141.169 E52.39167
G1 X55.201 Y141.156 E60.86903
G1 X56.261 Y141.206 E46.30389
G1 X57.472 Y141.341 E53.19274
G1 X58.673 Y141.553 E53.19274
G1 X59.858 Y141.840 E53.19334
G1 X61.022 Y142.202 E53.19279
G1 X62.161 Y142.637 E53.19294
G1 X63.270 Y143.144 E53.19277
G1 X64.345 Y143.720 E53.19348
G1 X65.381 Y144.363 E53.19309
G1 X66.374 Y145.070 E53.19236
G1 X67.320 Y145.839 E53.19349
G1 X68.216 Y146.666 E53.19366
G1 X69.057 Y147.548 E53.19230
G1 X69.841 Y148.482 E53.19343
G1 X70.564 Y149.464 E53.19391
G1 X71.223 Y150.490 E53.19319
G1 X71.816 Y151.555 E53.19282
G1 X72.340 Y152.656 E53.19285
G1 X72.793 Y153.788 E53.19400
G1 X73.174 Y154.946 E53.19397
G1 X73.480 Y156.127 E53.19278
G1 X73.711 Y157.324 E53.19336
G1 X73.865 Y158.533 E53.19388
G1 X73.942 Y159.750 E53.19319
G1 X73.942 Y160.969 E53.19338
G1 X73.865 Y162.186 E53.19319
G1 X73.711 Y163.395 E53.19375
G1 X73.480 Y164.593 E53.19340
G1 X73.174 Y165.773 E53.19286
G1 X72.793 Y166.931 E53.19411
G1 X72.340 Y168.063 E53.19386
G1 X71.816 Y169.164 E53.19281
G1 X71.223 Y170.229 E53.19282
G1 X70.573 Y171.241 E52.44075
G1 X69.747 Y172.350 E60.35616
G1 X69.057 Y173.171 E46.77016
G1 X68.216 Y174.053 E53.19252
G1 X67.320 Y174.881 E53.19357
G1 X66.374 Y175.649 E53.19351
G1 X65.381 Y176.357 E53.19217
G1 X64.345 Y176.999 E53.19329
G1 X63.285 Y177.567 E52.44995
G1 X62.026 Y178.134 E60.25962
G1 X61.022 Y178.517 E46.85625
G1 X59.858 Y178.879 E53.19333
G1 X58.673 Y179.166 E53.19288
G1 X58.063 Y179.274 E27.01580
G1 F6240
G1 X56.261 Y179.513 E-0.58137
G1 X55.703 Y179.540 E-0.17863
G1 E-0.04000 F2100.00000
G1 Z4.600 F7800.000
G1 X57.844 Y181.487
G1 Z4.000
G1 E0.80000 F2100.00000
G1 F1800
G1 X56.431 Y181.649 E62.08518
G1 X55.077 Y181.714 E59.12468
G1 X53.722 Y181.692 E59.12496
G1 X52.371 Y181.585 E59.12490
G1 X51.029 Y181.392 E59.12464
G1 X49.703 Y181.114 E59.12478
G1 X48.397 Y180.753 E59.12495
G1 X47.116 Y180.310 E59.12489
M73 Q10 S18
G1 X45.866 Y179.786 E59.12504
M73 P10 R18
G1 X44.652 Y179.185 E59.12488
G1 X43.478 Y178.507 E59.12498
G1 X42.350 Y177.756 E59.12499
G1 X41.272 Y176.936 E59.12493
G1 X40.247 Y176.048 E59.12531
G1 X39.289 Y175.105 E58.65118
G1 X38.283 Y173.967 E66.28280
G1 X37.540 Y173.022 E52.42778
G1 X36.772 Y171.906 E59.12518
G1 X36.076 Y170.743 E59.12545
G1 X35.455 Y169.539 E59.12485
G1 X34.911 Y168.297 E59.12501
G1 X34.448 Y167.024 E59.12561
G1 X34.066 Y165.723 E59.12538
G1 X33.767 Y164.401 E59.12505
G1 X33.553 Y163.063 E59.12552
G1 X33.424 Y161.714 E59.12531
G1 X33.381 Y160.360 E59.12530
G1 X33.424 Y159.005 E59.12530
G1 X33.553 Y157.656 E59.12527
G1 X33.767 Y156.318 E59.12552
G1 X34.066 Y154.996 E59.12505
G1 X34.448 Y153.696 E59.12525
G1 X34.911 Y152.422 E59.12550
G1 X35.450 Y151.191 E58.63027
G1 X36.158 Y149.838 E66.64043
G1 X36.772 Y148.813 E52.09083
G1 X37.540 Y147.697 E59.12538
G1 X38.378 Y146.632 E59.12510
G1 X39.282 Y145.622 E59.12513
G1 X40.247 Y144.671 E59.12486
G1 X41.272 Y143.784 E59.12519
G1 X42.350 Y142.963 E59.12491
G1 X43.478 Y142.212 E59.12511
G1 X44.652 Y141.535 E59.12484
G1 X45.866 Y140.933 E59.12496
G1 X47.116 Y140.409 E59.12502
G1 X48.397 Y139.966 E59.12487
G1 X49.703 Y139.605 E59.12481
G1 X51.029 Y139.327 E59.12476
G1 X52.371 Y139.134 E59.12495
G1 X53.710 Y139.028 E58.62029
G1 X55.241 Y139.013 E66.80094
G1 X56.431 Y139.070 E51.93922
G1 X57.777 Y139.220 E59.12472
G1 X59.112 Y139.456 E59.12472
G1 X60.429 Y139.775 E59.12514
G1 X61.723 Y140.177 E59.12478
G1 X62.989 Y140.661 E59.12490
G1 X64.222 Y141.224 E59.12469
G1 X65.416 Y141.864 E59.12525
G1 X66.568 Y142.579 E59.12503
G1 X67.672 Y143.365 E59.12459
G1 X68.724 Y144.219 E59.12518
G1 X69.719 Y145.139 E59.12546
G1 X70.654 Y146.120 E59.12445
G1 X71.525 Y147.158 E59.12529
G1 X72.329 Y148.249 E59.12559
G1 X73.062 Y149.389 E59.12508
G1 X73.720 Y150.573 E59.12496
G1 X74.303 Y151.797 E59.12488
G1 X74.807 Y153.055 E59.12559
G1 X75.229 Y154.343 E59.12567
G1 X75.570 Y155.654 E59.12490
G1 X75.826 Y156.985 E59.12526
G1 X75.998 Y158.330 E59.12560
G1 X76.084 Y159.682 E59.12513
G1 X76.084 Y161.037 E59.12533
G1 X75.998 Y162.390 E59.12517
G1 X75.826 Y163.734 E59.12547
G1 X75.570 Y165.065 E59.12522
G1 X75.229 Y166.376 E59.12499
G1 X74.807 Y167.664 E59.12580
G1 X74.303 Y168.922 E59.12549
G1 X73.720 Y170.146 E59.12484
G1 X73.062 Y171.330 E59.12496
G1 X72.335 Y172.461 E58.65129
G1 X71.427 Y173.679 E66.28794
G1 X70.654 Y174.600 E52.42333
G1 X69.719 Y175.580 E59.12470
G1 X68.724 Y176.500 E59.12534
G1 X67.672 Y177.354 E59.12529
G1 X66.568 Y178.141 E59.12441
G1 X65.416 Y178.855 E59.12511
G1 X64.231 Y179.490 E58.65701
G1 X62.847 Y180.112 E66.19166
G1 X61.723 Y180.542 E52.51300
G1 X60.429 Y180.944 E59.12508
G1 X59.112 Y181.264 E59.12489
G1 X58.435 Y181.383 E29.98190
G1 F6240
G1 X56.431 Y181.649 E-0.64655
G1 X56.076 Y181.666 E-0.11345
G1 E-0.04000 F2100.00000
G1 Z4.600 F7800.000
G1 X58.216 Y183.596
G1 Z4.000
G1 E0.80000 F2100.00000
G1 F1800
G1 X56.600 Y183.785 E70.97769
G1 X55.111 Y183.856 E65.05671
G1 X53.620 Y183.832 E65.05683
G1 X52.133 Y183.714 E65.05679
G1 X50.657 Y183.502 E65.05672
G1 X49.198 Y183.197 E65.05678
G1 X47.761 Y182.799 E65.05682
G1 X46.351 Y182.312 E65.05676
G1 X44.976 Y181.735 E65.05695
G1 X43.640 Y181.073 E65.05684
G1 X42.349 Y180.328 E65.05687
G1 X41.107 Y179.502 E65.05689
G1 X39.920 Y178.599 E65.05694
G1 X38.794 Y177.622 E65.05710
G1 X37.734 Y176.579 E64.86171
G1 X36.638 Y175.339 E72.21483
G1 X35.815 Y174.293 E58.08107
G1 X34.969 Y173.064 E65.05704
G1 X34.203 Y171.785 E65.05736
G1 X33.520 Y170.460 E65.05680
G1 X32.922 Y169.093 E65.05700
G1 X32.412 Y167.692 E65.05735
G1 X31.992 Y166.261 E65.05723
G1 X31.663 Y164.807 E65.05706
G1 X31.428 Y163.334 E65.05729
G1 X31.286 Y161.850 E65.05720
G1 X31.239 Y160.360 E65.05718
G1 X31.286 Y158.869 E65.05722
G1 X31.428 Y157.385 E65.05711
G1 X31.663 Y155.912 E65.05729
G1 X31.992 Y154.458 E65.05706
G1 X32.412 Y153.027 E65.05713
G1 X32.922 Y151.626 E65.05728
G1 X33.518 Y150.264 E64.85317
M73 Q15 S17
G1 X34.289 Y148.790 E72.57254
M73 P15 R17
G1 X34.969 Y147.655 E57.73174
G1 X35.815 Y146.427 E65.05715
G1 X36.737 Y145.254 E65.05698
G1 X37.731 Y144.143 E65.05703
G1 X38.794 Y143.097 E65.05681
G1 X39.920 Y142.121 E65.05710
G1 X41.107 Y141.218 E65.05683
G1 X42.349 Y140.392 E65.05701
G1 X43.640 Y139.646 E65.05681
G1 X44.976 Y138.984 E65.05686
G1 X46.351 Y138.408 E65.05694
G1 X47.761 Y137.920 E65.05677
G1 X49.198 Y137.523 E65.05672
G1 X50.657 Y137.217 E65.05676
G1 X52.133 Y137.005 E65.05685
G1 X53.615 Y136.887 E64.84895
G1 X55.282 Y136.871 E72.73289
G1 X56.600 Y136.934 E57.57447
G1 X58.082 Y137.099 E65.05675
G1 X59.551 Y137.358 E65.05670
G1 X61.000 Y137.710 E65.05693
G1 X62.424 Y138.153 E65.05676
G1 X63.817 Y138.685 E65.05693
G1 X65.173 Y139.304 E65.05661
G1 X66.488 Y140.009 E65.05702
G1 X67.755 Y140.795 E65.05696
G1 X68.969 Y141.660 E65.05674
G1 X70.127 Y142.600 E65.05693
G1 X71.222 Y143.612 E65.05723
G1 X72.251 Y144.691 E65.05663
G1 X73.210 Y145.833 E65.05707
G1 X74.094 Y147.034 E65.05729
G1 X74.900 Y148.289 E65.05705
G1 X75.625 Y149.592 E65.05707
G1 X76.266 Y150.938 E65.05690
G1 X76.820 Y152.322 E65.05722
G1 X77.285 Y153.739 E65.05732
G1 X77.660 Y155.182 E65.05703
G1 X77.942 Y156.647 E65.05716
G1 X78.131 Y158.126 E65.05732
G1 X78.225 Y159.614 E65.05711
G1 X78.225 Y161.105 E65.05719
G1 X78.131 Y162.593 E65.05715
G1 X77.942 Y164.073 E65.05719
G1 X77.660 Y165.537 E65.05712
G1 X77.285 Y166.980 E65.05707
G1 X76.820 Y168.397 E65.05749
G1 X76.266 Y169.781 E65.05718
G1 X75.625 Y171.128 E65.05686
G1 X74.900 Y172.431 E65.05703
G1 X74.096 Y173.681 E64.86185
G1 X73.107 Y175.009 E72.21985
G1 X72.251 Y176.028 E58.07646
G1 X71.222 Y177.107 E65.05679
G1 X70.127 Y178.119 E65.05714
G1 X68.969 Y179.060 E65.05707
G1 X67.755 Y179.924 E65.05661
G1 X66.488 Y180.711 E65.05700
G1 X65.177 Y181.413 E64.86413
G1 X63.669 Y182.091 E72.12361
G1 X62.424 Y182.567 E58.16976
G1 X61.000 Y183.009 E65.05688
G1 X59.551 Y183.361 E65.05687
G1 X58.807 Y183.492 E32.94795
G1 X57.205 Y182.321 F7800.000
G1 F6240
G1 X56.600 Y183.785 E-0.71172
G1 X56.449 Y183.792 E-0.04828
G1 E-0.04000 F2100.00000
G1 Z4.600 F7800.000
G1 X46.535 Y177.011
G1 Z4.000
G1 E0.80000 F2100.00000
G1 F1800
G1 X38.080 Y168.556 E535.19865
G1 F6240
G1 X39.761 Y170.236 E-0.76000
G1 E-0.04000 F2100.00000
G1 Z4.600 F7800.000
G1 X36.502 Y163.870
G1 Z4.000
G1 E0.80000 F2100.00000
G1 F1800
G1 X49.917 Y177.285 E849.13760
G1 X50.587 Y177.470 E31.13194
G1 X51.681 Y177.699 E50.00694
G1 X52.786 Y177.858 E50.00683
G1 X53.667 Y177.928 E39.53397
G1 X37.165 Y161.426 E1044.55488
G1 X37.131 Y160.360 E47.76120
G1 X37.167 Y159.243 E50.00761
G1 X37.247 Y158.401 E37.85519
G1 X56.695 Y177.849 E1231.01256
M73 Q20 S16
M73 P20 R16
G1 X57.244 Y177.787 E24.72873
G1 X58.344 Y177.593 E50.00693
G1 X59.312 Y177.359 E44.57280
G1 X37.740 Y155.787 E1365.47879
G1 X38.010 Y154.866 E42.96403
G1 X38.392 Y153.816 E50.00829
G1 X38.540 Y153.479 E16.43742
G1 X61.617 Y176.556 E1460.74779
G1 X62.576 Y176.125 E47.07051
G1 X63.686 Y175.518 E56.61852
G1 X39.582 Y151.415 E1525.71279
G1 X39.926 Y150.841 E29.96128
G1 X40.560 Y149.920 E50.00828
G1 X40.839 Y149.565 E20.24478
G1 X65.536 Y174.261 E1563.24906
G1 X66.268 Y173.666 E42.23307
G1 X67.187 Y172.805 E56.36053
G1 X42.296 Y147.914 E1575.58820
M73 Q25 S15
M73 P25 R15
G1 X42.792 Y147.426 E31.14998
G1 X43.636 Y146.694 E50.00772
G1 X43.947 Y146.458 E17.46875
G1 X68.638 Y171.149 E1562.94406
G1 X69.252 Y170.325 E45.99502
G1 X69.900 Y169.304 E54.13269
G1 X45.797 Y145.201 E1525.68272
G1 X46.423 Y144.840 E32.33613
G1 X47.424 Y144.344 E50.00751
G1 X47.863 Y144.160 E21.30961
G1 X70.941 Y167.237 E1460.77621
G1 X71.283 Y166.382 E41.25479
G1 X71.632 Y165.320 E50.00863
G1 X71.734 Y164.924 E18.31224
G1 X50.174 Y143.363 E1364.77389
G1 X50.587 Y143.249 E19.19978
G1 X51.681 Y143.020 E50.00696
G1 X52.780 Y142.862 E49.69573
G1 X72.230 Y162.312 E1231.15878
M73 Q30 S14
M73 P30 R14
G1 X72.265 Y162.033 E12.57957
G1 X72.336 Y160.918 E50.00751
G1 X72.336 Y159.801 E50.00776
G1 X72.303 Y159.278 E23.45036
G1 X55.818 Y142.793 E1043.49041
G1 X56.133 Y142.808 E14.14783
G1 X57.244 Y142.932 E50.00709
G1 X58.344 Y143.126 E50.00700
