; generated by PrusaSlicer 2.0.0+win64 on 2019-06-09 at 08:12:06

; 

; external perimeters extrusion width = 1.00mm
; perimeters extrusion width = 1.00mm
; infill extrusion width = 1.00mm
; solid infill extrusion width = 1.00mm
; top infill extrusion width = 1.00mm
; first layer extrusion width = 3.00mm

M107
M107
g92 z0
g1 f1000 z-310
g92 x0 y0 a0 z0
; Filament gcode
G21 ; set units to millimeters
G90 ; use absolute coordinates
G1 Z2.000 F7800.000
G1 A-2.00000 F2400.00000
G1 X8.231 Y7.373 F7800.000
G1 A0.00000 F2400.00000
G1 F1800
G1 X8.943 Y6.577 A0.27967
G1 X10.264 Y5.283 A0.76377
G1 X11.798 Y3.956 A1.29500
G1 X13.412 Y2.727 A1.82624
G1 X14.937 Y1.706 A2.30684
G1 X17.068 Y0.473 A2.95145
G1 X18.738 Y-0.351 A3.43904
G1 X20.429 Y-1.063 A3.91964
G1 X22.755 Y-1.870 A4.56426
G1 X24.557 Y-2.364 A5.05359
G1 X26.510 Y-2.773 A5.57610
G1 X28.790 Y-3.092 A6.17886
G1 X30.626 Y-3.234 A6.66121
G1 X32.555 Y-3.267 A7.16626
G1 X34.927 Y-3.148 A7.78821
G1 X36.764 Y-2.939 A8.27230
G1 X38.755 Y-2.588 A8.80179
G1 X40.979 Y-2.038 A9.40164
G1 X42.734 Y-1.487 A9.88340
G1 X44.635 Y-0.760 A10.41638
G1 X46.475 Y0.080 A10.94587
G1 X48.100 Y0.946 A11.42822
G1 X50.056 Y2.148 A12.02923
G1 X51.692 Y3.313 A12.55523
G1 X53.140 Y4.484 A13.04282
G1 X54.939 Y6.145 A13.68394
G1 X56.216 Y7.490 A14.16979
G1 X57.403 Y8.899 A14.65214
G1 X58.774 Y10.748 A15.25490
G1 X59.848 Y12.421 A15.77566
G1 X60.757 Y14.047 A16.26325
G1 X61.820 Y16.284 A16.91195
G1 X62.493 Y17.975 A17.38847
G1 X63.079 Y19.749 A17.87780
G1 X63.693 Y22.129 A18.52127
G1 X64.037 Y23.936 A19.00302
G1 X64.293 Y25.948 A19.53425
G1 X64.422 Y27.966 A20.06374
G1 X64.426 Y29.808 A20.54609
G1 X64.272 Y32.278 A21.19419
G1 X64.031 Y34.132 A21.68352
G1 X63.653 Y36.098 A22.20777
G1 X63.065 Y38.323 A22.81054
G1 X62.487 Y40.072 A23.29289
G1 X61.743 Y41.931 A23.81713
G1 X60.741 Y44.013 A24.42222
G1 X59.843 Y45.618 A24.90399
G1 X58.749 Y47.319 A25.43347
G1 X57.386 Y49.152 A26.03158
G1 X56.200 Y50.559 A26.51334
G1 X54.809 Y52.017 A27.04108
G1 X53.119 Y53.563 A27.64094
G1 X51.688 Y54.720 A28.12269
G1 X50.041 Y55.893 A28.65219
G1 X48.312 Y56.966 A29.18517
G1 X46.696 Y57.837 A29.66578
G1 X44.619 Y58.797 A30.26503
G1 X42.730 Y59.519 A30.79452
G1 X40.979 Y60.068 A31.27513
G1 X38.751 Y60.619 A31.87614
G1 X36.766 Y60.969 A32.40388
G1 X34.929 Y61.179 A32.88798
G1 X32.550 Y61.297 A33.51167
G1 X30.622 Y61.264 A34.01672
G1 X28.785 Y61.122 A34.49907
G1 X26.506 Y60.803 A35.10183
G1 X24.553 Y60.393 A35.62433
G1 X22.757 Y59.901 A36.11192
G1 X20.425 Y59.092 A36.75828
G1 X18.722 Y58.374 A37.24237
G1 X16.904 Y57.472 A37.77361
G1 X15.147 Y56.458 A38.30485
G1 X13.617 Y55.445 A38.78544
G1 X11.656 Y53.957 A39.43006
G1 X10.251 Y52.735 A39.91765
G1 X8.940 Y51.450 A40.39825
G1 X7.294 Y49.611 A41.04461
G1 X6.146 Y48.145 A41.53220
G1 X5.010 Y46.496 A42.05645
G1 X3.836 Y44.516 A42.65920
G1 X2.996 Y42.877 A43.14156
G1 X2.190 Y41.037 A43.66756
G1 X1.412 Y38.869 A44.27090
G1 X0.897 Y37.102 A44.75266
G1 X0.452 Y35.130 A45.28215
G1 X0.102 Y32.872 A45.88026
G1 X-0.068 Y31.041 A46.36202
G1 X-0.132 Y29.013 A46.89326
G1 X-0.068 Y26.985 A47.42449
G1 X0.102 Y25.158 A47.90509
G1 X0.452 Y22.903 A48.50261
G1 X0.899 Y20.924 A49.03385
G1 X1.412 Y19.162 A49.51445
G1 X2.189 Y16.995 A50.11720
G1 X2.995 Y15.155 A50.64320
G1 X3.835 Y13.516 A51.12555
G1 X5.009 Y11.536 A51.72831
G1 X6.145 Y9.887 A52.25256
G1 X7.296 Y8.416 A52.74190
G1 X8.031 Y7.596 A53.03002
G1 A51.03002 F2400.00000
G1 X19.602 Y15.628 F7800.000
G1 A53.03002 F2400.00000
G1 F1800
G1 X20.641 Y14.723 A53.39092
G1 X21.507 Y14.064 A53.67589
G1 X22.467 Y13.424 A53.97799
G1 X23.554 Y12.802 A54.30593
G1 X24.529 Y12.319 A54.59083
G1 X25.603 Y11.869 A54.89583
G1 X26.704 Y11.488 A55.20083
G1 X27.826 Y11.177 A55.50582
G1 X28.966 Y10.939 A55.81082
G1 X30.119 Y10.773 A56.11582
G1 X31.269 Y10.682 A56.41791
G1 X32.522 Y10.666 A56.74594
G1 X33.608 Y10.718 A57.03076
G1 X34.766 Y10.847 A57.33576
G1 X35.913 Y11.049 A57.64076
G1 X37.045 Y11.324 A57.94575
G1 X38.157 Y11.670 A58.25075
G1 X39.245 Y12.085 A58.55575
G1 X40.304 Y12.569 A58.86074
G1 X41.331 Y13.119 A59.16574
G1 X42.321 Y13.733 A59.47074
G1 X43.270 Y14.409 A59.77573
G1 X44.174 Y15.143 A60.08073
G1 X45.029 Y15.934 A60.38573
G1 X45.833 Y16.777 A60.69072
G1 X46.582 Y17.669 A60.99572
G1 X47.272 Y18.607 A61.30072
G1 X47.902 Y19.587 A61.60572
G1 X48.468 Y20.604 A61.91071
G1 X48.969 Y21.656 A62.21571
G1 X49.402 Y22.737 A62.52071
G1 X49.765 Y23.844 A62.82571
G1 X50.058 Y24.971 A63.13070
G1 X50.278 Y26.115 A63.43570
G1 X50.426 Y27.270 A63.74070
G1 X50.499 Y28.433 A64.04570
G1 X50.499 Y29.598 A64.35069
G1 X50.426 Y30.760 A64.65569
G1 X50.278 Y31.915 A64.96069
G1 X50.060 Y33.048 A65.26289
G1 X49.742 Y34.257 A65.58997
G1 X49.402 Y35.293 A65.87564
G1 X48.973 Y36.364 A66.17786
G1 X48.433 Y37.490 A66.50481
G1 X47.902 Y38.444 A66.79058
G1 X47.272 Y39.424 A67.09558
G1 X46.582 Y40.362 A67.40058
G1 X45.840 Y41.246 A67.70283
G1 X44.976 Y42.146 A68.02958
G1 X44.174 Y42.887 A68.31553
G1 X43.270 Y43.621 A68.62053
G1 X42.321 Y44.297 A68.92552
G1 X41.331 Y44.911 A69.23052
G1 X40.304 Y45.461 A69.53552
G1 X39.245 Y45.945 A69.84052
G1 X38.157 Y46.361 A70.14551
G1 X37.045 Y46.707 A70.45051
G1 X35.913 Y46.981 A70.75550
G1 X34.766 Y47.183 A71.06050
G1 X33.608 Y47.312 A71.36550
G1 X32.445 Y47.368 A71.67050
G1 X31.280 Y47.349 A71.97549
G1 X30.119 Y47.257 A72.28049
G1 X28.966 Y47.091 A72.58549
G1 X27.836 Y46.855 A72.88775
G1 X26.635 Y46.519 A73.21433
G1 X25.603 Y46.162 A73.50043
G1 X24.538 Y45.716 A73.80269
G1 X23.422 Y45.158 A74.12933
G1 X22.476 Y44.612 A74.41538
G1 X21.507 Y43.967 A74.72038
G1 X20.580 Y43.261 A75.02538
G1 X19.707 Y42.506 A75.32762
G1 X18.821 Y41.627 A75.65440
G1 X18.093 Y40.814 A75.94032
G1 X17.373 Y39.898 A76.24532
G1 X16.712 Y38.939 A76.55032
G1 X16.114 Y37.939 A76.85532
G1 X15.580 Y36.904 A77.16031
G1 X15.113 Y35.837 A77.46531
G1 X14.715 Y34.743 A77.77031
G1 X14.387 Y33.625 A78.07531
G1 X14.130 Y32.489 A78.38030
G1 X13.948 Y31.349 A78.68249
G1 X13.833 Y30.105 A79.00973
G1 X13.799 Y29.015 A79.29525
G1 X13.836 Y27.851 A79.60025
G1 X13.946 Y26.692 A79.90525
G1 X14.130 Y25.541 A80.21024
G1 X14.387 Y24.405 A80.51524
G1 X14.715 Y23.288 A80.82024
G1 X15.113 Y22.193 A81.12524
G1 X15.580 Y21.126 A81.43023
G1 X16.114 Y20.091 A81.73523
G1 X16.712 Y19.092 A82.04023
G1 X17.373 Y18.132 A82.34523
G1 X18.093 Y17.217 A82.65022
G1 X18.869 Y16.349 A82.95522
G1 X19.388 Y15.838 A83.14568
G1 A81.14568 F2400.00000
G1 X17.798 Y13.796 F7800.000
G1 A83.14568 F2400.00000
G1 F1800
G1 X19.022 Y12.724 A83.57176
G1 X20.015 Y11.968 A83.89835
G1 X21.115 Y11.237 A84.24431
G1 X22.343 Y10.533 A84.61499
G1 X23.460 Y9.979 A84.94151
G1 X24.685 Y9.466 A85.28925
G1 X25.940 Y9.032 A85.63699
G1 X27.220 Y8.678 A85.98472
G1 X28.520 Y8.406 A86.33246
G1 X29.834 Y8.217 A86.68019
G1 X31.151 Y8.112 A87.02615
G1 X32.567 Y8.094 A87.39692
G1 X33.812 Y8.154 A87.72336
G1 X35.132 Y8.301 A88.07109
G1 X36.440 Y8.532 A88.41883
G1 X37.730 Y8.845 A88.76657
G1 X38.998 Y9.239 A89.11430
G1 X40.239 Y9.713 A89.46204
G1 X41.447 Y10.265 A89.80977
G1 X42.617 Y10.892 A90.15751
G1 X43.746 Y11.592 A90.50525
G1 X44.827 Y12.362 A90.85298
G1 X45.858 Y13.199 A91.20072
G1 X46.833 Y14.100 A91.54845
G1 X47.750 Y15.062 A91.89619
G1 X48.603 Y16.079 A92.24393
G1 X49.391 Y17.148 A92.59166
G1 X50.109 Y18.265 A92.93940
G1 X50.754 Y19.426 A93.28714
G1 X51.325 Y20.625 A93.63487
G1 X51.819 Y21.858 A93.98261
G1 X52.233 Y23.119 A94.33035
G1 X52.567 Y24.405 A94.67808
G1 X52.818 Y25.709 A95.02582
G1 X52.986 Y27.026 A95.37355
G1 X53.070 Y28.351 A95.72129
G1 X53.070 Y29.679 A96.06903
G1 X52.986 Y31.004 A96.41676
G1 X52.818 Y32.322 A96.76450
G1 X52.568 Y33.619 A97.11052
G1 X52.209 Y34.985 A97.48034
G1 X51.819 Y36.173 A97.80767
G1 X51.328 Y37.399 A98.15370
G1 X50.717 Y38.672 A98.52339
G1 X50.109 Y39.765 A98.85083
G1 X49.391 Y40.882 A99.19857
G1 X48.603 Y41.951 A99.54631
G1 X47.754 Y42.964 A99.89236
G1 X46.777 Y43.982 A100.26185
G1 X45.858 Y44.831 A100.58947
G1 X44.827 Y45.668 A100.93721
G1 X43.746 Y46.438 A101.28494
G1 X42.617 Y47.139 A101.63268
G1 X41.447 Y47.766 A101.98042
G1 X40.239 Y48.317 A102.32815
G1 X38.998 Y48.791 A102.67589
G1 X37.730 Y49.186 A103.02362
G1 X36.440 Y49.499 A103.37136
G1 X35.132 Y49.729 A103.71910
G1 X33.812 Y49.876 A104.06683
G1 X32.486 Y49.940 A104.41457
G1 X31.158 Y49.919 A104.76231
G1 X29.834 Y49.813 A105.11004
G1 X28.520 Y49.624 A105.45778
G1 X27.226 Y49.354 A105.80384
G1 X25.868 Y48.974 A106.17316
G1 X24.685 Y48.564 A106.50094
G1 X23.466 Y48.054 A106.84700
G1 X22.204 Y47.423 A107.21638
G1 X21.120 Y46.797 A107.54411
G1 X20.015 Y46.062 A107.89185
G1 X18.958 Y45.258 A108.23958
G1 X17.959 Y44.392 A108.58563
G1 X16.957 Y43.399 A108.95515
G1 X16.122 Y42.467 A109.28275
G1 X15.302 Y41.423 A109.63048
G1 X14.549 Y40.329 A109.97822
G1 X13.866 Y39.190 A110.32596
G1 X13.258 Y38.010 A110.67369
G1 X12.726 Y36.793 A111.02143
G1 X12.271 Y35.545 A111.36917
G1 X11.897 Y34.271 A111.71690
G1 X11.605 Y32.976 A112.06464
G1 X11.396 Y31.671 A112.41065
G1 X11.266 Y30.264 A112.78064
G1 X11.226 Y29.015 A113.10781
G1 X11.269 Y27.688 A113.45554
G1 X11.395 Y26.366 A113.80328
G1 X11.605 Y25.055 A114.15102
G1 X11.897 Y23.759 A114.49875
G1 X12.271 Y22.485 A114.84649
G1 X12.726 Y21.237 A115.19423
G1 X13.258 Y20.021 A115.54196
G1 X13.866 Y18.840 A115.88970
G1 X14.549 Y17.701 A116.23743
G1 X15.302 Y16.607 A116.58517
G1 X16.122 Y15.563 A116.93291
G1 X17.008 Y14.574 A117.28064
G1 X17.584 Y14.006 A117.49247
G1 A115.49247 F2400.00000
G1 X15.995 Y11.964 F7800.000
G1 A117.49247 F2400.00000
G1 F1800
G1 X16.207 Y11.755 A117.57054
G1 X17.404 Y10.725 A117.98388
G1 X18.523 Y9.873 A118.35210
G1 X19.762 Y9.049 A118.74192
G1 X21.132 Y8.264 A119.15534
G1 X22.392 Y7.639 A119.52348
G1 X23.767 Y7.063 A119.91395
G1 X25.176 Y6.576 A120.30443
G1 X26.613 Y6.178 A120.69490
G1 X28.073 Y5.873 A121.08538
G1 X29.549 Y5.661 A121.47585
G1 X31.033 Y5.543 A121.86567
G1 X32.612 Y5.523 A122.27918
G1 X34.016 Y5.590 A122.64724
G1 X35.498 Y5.755 A123.03771
G1 X36.966 Y6.014 A123.42819
G1 X38.416 Y6.366 A123.81866
G1 X39.839 Y6.808 A124.20914
G1 X41.232 Y7.340 A124.59961
G1 X42.589 Y7.960 A124.99009
G1 X43.903 Y8.664 A125.38056
G1 X45.170 Y9.450 A125.77104
G1 X46.385 Y10.315 A126.16151
G1 X47.542 Y11.256 A126.55199
G1 X48.638 Y12.267 A126.94246
G1 X49.667 Y13.347 A127.33294
G1 X50.625 Y14.489 A127.72341
G1 X51.509 Y15.690 A128.11389
G1 X52.316 Y16.944 A128.50437
G1 X53.041 Y18.247 A128.89484
G1 X53.681 Y19.594 A129.28532
G1 X54.236 Y20.978 A129.67579
G1 X54.701 Y22.395 A130.06627
G1 X55.075 Y23.838 A130.45674
G1 X55.358 Y25.302 A130.84722
G1 X55.546 Y26.781 A131.23769
G1 X55.641 Y28.270 A131.62817
G1 X55.641 Y29.761 A132.01865
G1 X55.546 Y31.249 A132.40912
G1 X55.358 Y32.728 A132.79960
G1 X55.076 Y34.190 A133.18944
G1 X54.675 Y35.714 A133.60200
G1 X54.236 Y37.052 A133.97098
G1 X53.682 Y38.434 A134.36083
G1 X53.001 Y39.854 A134.77326
G1 X52.316 Y41.086 A135.14236
G1 X51.509 Y42.341 A135.53284
G1 X50.625 Y43.541 A135.92332
G1 X49.668 Y44.682 A136.31317
G1 X48.578 Y45.818 A136.72541
G1 X47.542 Y46.775 A137.09470
G1 X46.385 Y47.715 A137.48518
G1 X45.170 Y48.580 A137.87565
G1 X43.903 Y49.366 A138.26613
G1 X42.589 Y50.070 A138.65660
G1 X41.232 Y50.690 A139.04708
G1 X39.839 Y51.222 A139.43755
G1 X38.416 Y51.665 A139.82803
G1 X36.966 Y52.016 A140.21850
G1 X35.498 Y52.275 A140.60898
G1 X34.016 Y52.440 A140.99945
G1 X32.526 Y52.511 A141.38993
G1 X31.035 Y52.488 A141.78040
G1 X29.549 Y52.370 A142.17088
G1 X28.073 Y52.157 A142.56135
G1 X26.616 Y51.852 A142.95121
G1 X25.100 Y51.428 A143.36327
G1 X23.767 Y50.967 A143.73274
G1 X22.394 Y50.392 A144.12259
G1 X20.986 Y49.688 A144.53471
G1 X19.764 Y48.983 A144.90412
G1 X18.523 Y48.157 A145.29460
G1 X17.336 Y47.254 A145.68507
G1 X16.211 Y46.279 A146.07493
G1 X15.092 Y45.171 A146.48718
G1 X14.152 Y44.120 A146.85646
G1 X13.230 Y42.948 A147.24693
G1 X12.385 Y41.720 A147.63741
G1 X11.619 Y40.440 A148.02788
G1 X10.936 Y39.115 A148.41836
G1 X10.338 Y37.749 A148.80883
G1 X9.828 Y36.348 A149.19931
G1 X9.408 Y34.917 A149.58979
G1 X9.079 Y33.462 A149.98026
G1 X8.844 Y31.992 A150.37010
G1 X8.699 Y30.423 A150.78283
G1 X8.654 Y29.015 A151.15164
G1 X8.702 Y27.525 A151.54212
G1 X8.843 Y26.040 A151.93260
G1 X9.079 Y24.568 A152.32307
G1 X9.408 Y23.113 A152.71355
G1 X9.828 Y21.683 A153.10402
G1 X10.338 Y20.281 A153.49450
G1 X10.936 Y18.915 A153.88497
G1 X11.619 Y17.590 A154.27545
G1 X12.385 Y16.310 A154.66592
G1 X13.230 Y15.082 A155.05640
G1 X14.152 Y13.910 A155.44688
G1 X15.146 Y12.799 A155.83735
G1 X15.781 Y12.174 A156.07055
G1 X16.283 Y12.040 F7800.000
G1 A154.07055 F2400.00000
G1 X14.671 Y30.789 F7800.000
G1 A156.07055 F2400.00000
G1 F1800
G1 X29.013 Y45.131 A161.69862
G1 X29.301 Y45.192 A161.78045
G1 X30.333 Y45.340 A162.06968
G1 X31.372 Y45.423 A162.35890
G1 X32.414 Y45.439 A162.64813
G1 X33.139 Y45.405 A162.84936
G1 X15.759 Y28.025 A169.66949
G1 X15.860 Y26.936 A169.97305
G1 X16.024 Y25.906 A170.26228
G1 X16.305 Y24.718 A170.60112
G1 X36.453 Y44.866 A178.50773
G1 X37.526 Y44.538 A178.81918
G1 X38.500 Y44.166 A179.10841
G1 X39.258 Y43.819 A179.33986
G1 X17.347 Y21.908 A187.93850
G1 X17.800 Y21.029 A188.21282
G1 X18.335 Y20.135 A188.50206
G1 X18.780 Y19.488 A188.71977
G1 X41.679 Y42.387 A197.70579
G1 X42.101 Y42.086 A197.84969
G1 X42.910 Y41.429 A198.13892
G1 X43.766 Y40.622 A198.46539
G1 X20.547 Y17.403 A207.57708
G1 X20.998 Y16.959 A207.75274
G1 X21.854 Y16.222 A208.06620
G1 X22.629 Y15.632 A208.33635
G1 X45.532 Y38.535 A217.32389
G1 X45.683 Y38.330 A217.39468
G1 X46.247 Y37.453 A217.68391
G1 X46.719 Y36.603 A217.95363
G1 X46.957 Y36.108 A218.10619
G1 X25.058 Y14.208 A226.70001
G1 X25.330 Y14.073 A226.78427
G1 X26.291 Y13.671 A227.07351
G1 X27.276 Y13.330 A227.36273
G1 X27.868 Y13.166 A227.53316
G1 X48.000 Y33.298 A235.43344
G1 X48.179 Y32.620 A235.62791
G1 X48.373 Y31.610 A235.91332
G1 X48.505 Y30.577 A236.20255
G1 X48.543 Y29.988 A236.36622
G1 X31.178 Y12.623 A243.18054
G1 X32.488 Y12.595 A243.54414
G1 X33.455 Y12.641 A243.81289
G1 X34.491 Y12.756 A244.10211
G1 X35.308 Y12.900 A244.33213
G1 X49.644 Y27.236 A249.95795
G1 A247.95795 F2400.00000
G1 X48.286 Y22.026 F7800.000
G1 A249.95795 F2400.00000
G1 F1800
G1 X39.149 Y12.889 A253.54352
G1 A251.54352 F2400.00000
G1 X16.025 Y35.996 F7800.000
G1 A253.54352 F2400.00000
G1 F1800
G1 X25.175 Y45.146 A257.13422
G1 Z4.000 F7800.000
G1 A255.13422 F2400.00000
G1 X16.575 Y12.596 F7800.000
G1 A257.13422 F2400.00000
G1 F600
G1 X17.434 Y11.808 A257.20199
G1 X18.656 Y10.833 A257.29287
G1 X19.942 Y9.945 A257.38375
G1 X21.287 Y9.148 A257.47463
G1 X22.683 Y8.446 A257.56550
G1 X24.124 Y7.841 A257.65638
G1 X25.604 Y7.338 A257.74726
G1 X27.115 Y6.938 A257.83814
G1 X28.650 Y6.643 A257.92902
G1 X30.202 Y6.454 A258.01990
G1 X31.680 Y6.378 A258.10594
G1 X33.323 Y6.400 A258.20147
G1 X34.883 Y6.535 A258.29252
G1 X36.427 Y6.777 A258.38340
G1 X37.951 Y7.125 A258.47428
G1 X39.447 Y7.577 A258.56515
G1 X40.909 Y8.131 A258.65603
G1 X42.329 Y8.785 A258.74691
G1 X43.700 Y9.535 A258.83779
G1 X45.016 Y10.378 A258.92867
G1 X46.205 Y11.261 A259.01474
G1 X47.457 Y12.324 A259.11024
G1 X48.573 Y13.422 A259.20129
G1 X49.610 Y14.592 A259.29217
G1 X50.563 Y15.830 A259.38305
G1 X51.429 Y17.132 A259.47392
G1 X52.203 Y18.490 A259.56480
G1 X52.845 Y19.825 A259.65093
G1 X53.459 Y21.347 A259.74638
G1 X53.938 Y22.838 A259.83743
G1 X54.312 Y24.356 A259.92830
G1 X54.581 Y25.896 A260.01918
G1 X54.742 Y27.450 A260.11006
G1 X54.796 Y29.013 A260.20094
G1 X54.742 Y30.575 A260.29182
G1 X54.581 Y32.129 A260.38270
G1 X54.312 Y33.669 A260.47357
G1 X53.938 Y35.187 A260.56445
G1 X53.460 Y36.675 A260.65533
G1 X52.881 Y38.127 A260.74621
G1 X52.237 Y39.463 A260.83245
G1 X51.430 Y40.891 A260.92779
G1 X50.563 Y42.195 A261.01883
G1 X49.610 Y43.433 A261.10971
G1 X48.626 Y44.544 A261.19598
G1 X47.461 Y45.697 A261.29129
G1 X46.271 Y46.715 A261.38233
G1 X45.016 Y47.647 A261.47321
G1 X43.700 Y48.490 A261.56409
G1 X42.329 Y49.240 A261.65497
G1 X40.909 Y49.894 A261.74585
G1 X39.447 Y50.448 A261.83673
G1 X37.951 Y50.900 A261.92760
G1 X36.427 Y51.248 A262.01848
G1 X34.883 Y51.490 A262.10936
G1 X33.326 Y51.625 A262.20024
G1 X31.763 Y51.652 A262.29112
G1 X30.202 Y51.571 A262.38199
