; generated by PrusaSlicer 2.0.0+win64 on 2019-06-05 at 04:05:50

; 

; external perimeters extrusion width = 1.13mm
; perimeters extrusion width = 1.13mm
; infill extrusion width = 1.13mm
; solid infill extrusion width = 1.13mm
; top infill extrusion width = 1.00mm
; first layer extrusion width = 1.05mm

M107
g92 z0
g1 f1000 z-310
g92 x0 y0 a0 z0
; Filament gcode
G21 ; set units to millimeters
G90 ; use absolute coordinates
G1 Z1.500 F7800.000
G1 A-2.00000 F2400.00000
G1 X23.944 Y17.902 F7800.000
G1 A0.00000 F2400.00000
G1 F1800
G1 X25.169 Y16.264 A0.92904
G1 X26.736 Y14.534 A1.98868
G1 X28.731 Y12.708 A3.21690
G1 X30.940 Y11.062 A4.46774
G1 X33.306 Y9.650 A5.71859
G1 X35.763 Y8.503 A6.94964
G1 X37.959 Y7.718 A8.00893
G1 X40.623 Y7.039 A9.25726
G1 X43.305 Y6.639 A10.48830
G1 X46.038 Y6.509 A11.73063
G1 X48.758 Y6.656 A12.96732
G1 X51.065 Y6.999 A14.02658
G1 X53.693 Y7.643 A15.25509
G1 X56.282 Y8.564 A16.50307
G1 X58.770 Y9.747 A17.75388
G1 X61.084 Y11.149 A18.98205
G1 X62.958 Y12.539 A20.04164
G1 X64.971 Y14.345 A21.26981
G1 X66.821 Y16.378 A22.51778
G1 X68.431 Y18.552 A23.74598
G1 X69.639 Y20.548 A24.80554
G1 X70.820 Y22.988 A26.03656
G1 X71.762 Y25.570 A27.28447
G1 X72.427 Y28.192 A28.51264
G1 X72.788 Y30.497 A29.57187
G1 X72.956 Y33.241 A30.82015
G1 X72.849 Y35.943 A32.04830
G1 X72.470 Y38.628 A33.27932
G1 X71.813 Y41.297 A34.52723
G1 X71.043 Y43.505 A35.58930
G1 X69.918 Y45.966 A36.81784
G1 X68.529 Y48.338 A38.06577
G1 X66.903 Y50.561 A39.31654
G1 X65.093 Y52.571 A40.54472
G1 X63.213 Y54.290 A41.70146
G1 X61.184 Y55.821 A42.85521
G1 X58.727 Y57.314 A44.16102
G1 X56.440 Y58.407 A45.31197
G1 X54.055 Y59.283 A46.46577
G1 X51.269 Y59.999 A47.77157
G1 X48.383 Y60.418 A49.09597
G1 X46.223 Y60.527 A50.07795
G1 X43.350 Y60.403 A51.38375
G1 X40.838 Y60.041 A52.53587
G1 X38.375 Y59.445 A53.68685
G1 X35.661 Y58.493 A54.99265
G1 X33.365 Y57.419 A56.14366
G1 X31.175 Y56.130 A57.29746
G1 X28.854 Y54.431 A58.60330
G1 X26.964 Y52.732 A59.75715
G1 X25.247 Y50.868 A60.90817
G1 X23.520 Y48.569 A62.21399
G1 X22.204 Y46.394 A63.36785
G1 X21.100 Y44.107 A64.52107
G1 X20.117 Y41.410 A65.82470
G1 X19.489 Y38.947 A66.97854
G1 X19.097 Y36.439 A68.13125
G1 X18.936 Y33.538 A69.45061
G1 X19.074 Y30.820 A70.68623
G1 X19.407 Y28.511 A71.74556
G1 X20.041 Y25.881 A72.97413
G1 X20.954 Y23.281 A74.22499
G1 X22.123 Y20.794 A75.47302
G1 X23.584 Y18.383 A76.75321
G1 A74.75321 F2400.00000
G1 X38.957 Y16.214 F7800.000
G1 A76.75321 F2400.00000
G1 F1800
G1 X39.651 Y15.949 A77.09065
G1 X40.750 Y15.594 A77.61516
G1 X41.869 Y15.306 A78.13967
G1 X42.597 Y15.158 A78.47711
G1 X43.750 Y14.985 A79.00622
G1 X44.499 Y14.911 A79.34826
G1 X45.254 Y14.868 A79.69153
G1 X46.275 Y14.859 A80.15494
G1 X47.174 Y14.895 A80.56351
G1 X47.930 Y14.960 A80.90808
G1 X48.677 Y15.056 A81.25011
G1 X49.824 Y15.262 A81.77922
G1 X50.548 Y15.431 A82.11665
G1 X51.658 Y15.750 A82.64115
G1 X52.746 Y16.137 A83.16565
G1 X53.433 Y16.422 A83.50308
G1 X54.485 Y16.922 A84.03218
G1 X55.148 Y17.280 A84.37421
G1 X55.804 Y17.670 A84.72085
G1 X56.438 Y18.082 A85.06412
G1 X57.265 Y18.679 A85.52732
G1 X57.968 Y19.241 A85.93608
G1 X58.531 Y19.735 A86.27603
G1 X59.367 Y20.547 A86.80512
G1 X59.873 Y21.091 A87.14255
G1 X60.616 Y21.979 A87.66828
G1 X61.218 Y22.790 A88.12681
G1 X61.715 Y23.532 A88.53227
G1 X62.234 Y24.404 A88.99329
G1 X62.655 Y25.200 A89.40214
G1 X62.977 Y25.879 A89.74333
G1 X63.368 Y26.821 A90.20641
G1 X63.671 Y27.669 A90.61528
G1 X63.892 Y28.384 A90.95522
G1 X64.177 Y29.514 A91.48431
G1 X64.322 Y30.243 A91.82174
G1 X64.491 Y31.396 A92.35083
G1 X64.561 Y32.139 A92.68949
G1 X64.607 Y33.157 A93.15255
G1 X64.604 Y34.048 A93.55684
G1 X64.535 Y35.206 A94.08385
G1 X64.452 Y35.955 A94.42587
G1 X64.338 Y36.702 A94.76913
G1 X64.136 Y37.702 A95.23221
G1 X63.914 Y38.575 A95.64109
G1 X63.694 Y39.301 A95.98564
G1 X63.446 Y40.012 A96.32766
G1 X63.007 Y41.091 A96.85675
G1 X62.687 Y41.774 A97.19878
G1 X62.340 Y42.442 A97.54081
G1 X61.752 Y43.448 A98.06990
G1 X61.342 Y44.071 A98.40856
G1 X60.742 Y44.896 A98.87170
G1 X60.177 Y45.597 A99.28052
G1 X59.680 Y46.159 A99.62093
G1 X58.897 Y46.960 A100.12967
G1 X58.228 Y47.572 A100.54149
G1 X57.614 Y48.087 A100.90525
G1 X56.788 Y48.712 A101.37545
G1 X55.933 Y49.287 A101.84337
G1 X55.040 Y49.819 A102.31543
G1 X54.450 Y50.134 A102.61912
G1 X53.510 Y50.582 A103.09230
G1 X52.669 Y50.930 A103.50513
G1 X51.916 Y51.203 A103.86881
G1 X50.926 Y51.506 A104.33901
G1 X49.917 Y51.756 A104.81108
G1 X49.261 Y51.886 A105.11477
G1 X48.224 Y52.044 A105.59098
G1 X47.564 Y52.113 A105.89232
G1 X46.414 Y52.174 A106.41506
G1 X45.495 Y52.177 A106.83242
G1 X44.355 Y52.112 A107.35090
G1 X43.427 Y52.012 A107.77471
G1 X42.767 Y51.910 A108.07823
G1 X41.745 Y51.703 A108.55141
G1 X40.864 Y51.476 A108.96444
G1 X40.090 Y51.240 A109.33208
G1 X39.454 Y51.017 A109.63806
G1 X38.481 Y50.624 A110.11428
G1 X37.873 Y50.346 A110.41798
G1 X36.949 Y49.870 A110.89006
G1 X36.060 Y49.348 A111.35800
G1 X35.200 Y48.777 A111.82704
G1 X34.469 Y48.235 A112.24019
G1 X33.848 Y47.729 A112.60358
G1 X33.079 Y47.036 A113.07380
G1 X32.352 Y46.305 A113.54174
G1 X31.666 Y45.534 A114.01079
G1 X31.097 Y44.823 A114.42399
G1 X30.626 Y44.176 A114.78733
G1 X30.054 Y43.302 A115.26170
G1 X29.713 Y42.727 A115.56540
G1 X29.222 Y41.800 A116.04163
G1 X28.936 Y41.195 A116.34534
G1 X28.535 Y40.236 A116.81743
G1 X28.188 Y39.256 A117.28951
G1 X27.993 Y38.616 A117.59322
G1 X27.738 Y37.608 A118.06531
G1 X27.540 Y36.597 A118.53326
G1 X27.397 Y35.567 A119.00534
G1 X27.297 Y34.216 A119.62048
G1 X27.288 Y33.129 A120.11404
G1 X27.319 Y32.385 A120.45241
G1 X27.426 Y31.224 A120.98153
G1 X27.533 Y30.479 A121.32358
G1 X27.671 Y29.735 A121.66686
G1 X27.907 Y28.741 A122.13062
G1 X28.155 Y27.885 A122.53548
G1 X28.489 Y26.925 A122.99717
G1 X28.823 Y26.098 A123.40204
G1 X29.253 Y25.177 A123.86372
G1 X29.673 Y24.382 A124.27198
G1 X30.055 Y23.734 A124.61319
G1 X30.614 Y22.880 A125.07690
G1 X31.144 Y22.153 A125.48519
G1 X31.618 Y21.561 A125.82978
G1 X32.112 Y20.992 A126.17183
G1 X32.921 Y20.153 A126.70095
G1 X33.465 Y19.643 A127.03962
G1 X34.244 Y18.982 A127.50326
G1 X34.957 Y18.434 A127.91161
G1 X35.579 Y18.000 A128.25619
G1 X36.214 Y17.594 A128.59824
G1 X37.227 Y17.018 A129.12735
G1 X37.890 Y16.684 A129.46480
G1 X38.408 Y16.456 A129.72147
G1 X38.680 Y15.540 F7800.000
G1 F1800
G1 X39.409 Y15.262 A130.07582
G1 X40.547 Y14.894 A130.61893
G1 X41.706 Y14.596 A131.16204
G1 X42.471 Y14.441 A131.51639
G1 X43.660 Y14.262 A132.06241
G1 X44.443 Y14.185 A132.41966
G1 X45.230 Y14.140 A132.77770
G1 X46.286 Y14.131 A133.25726
G1 X47.220 Y14.168 A133.68149
G1 X48.007 Y14.236 A134.04035
G1 X48.788 Y14.336 A134.39760
G1 X49.971 Y14.549 A134.94361
G1 X50.731 Y14.726 A135.29795
G1 X51.881 Y15.057 A135.84105
G1 X53.008 Y15.457 A136.38415
G1 X53.729 Y15.756 A136.73849
G1 X54.814 Y16.272 A137.28450
G1 X55.507 Y16.646 A137.64175
G1 X56.189 Y17.051 A138.00191
G1 X56.850 Y17.481 A138.35994
G1 X57.706 Y18.099 A138.83929
G1 X58.436 Y18.683 A139.26372
G1 X59.025 Y19.200 A139.61965
G1 X59.888 Y20.038 A140.16565
G1 X60.419 Y20.609 A140.51999
G1 X61.188 Y21.528 A141.06386
G1 X61.813 Y22.370 A141.54022
G1 X62.331 Y23.143 A141.96259
G1 X62.869 Y24.048 A142.44052
G1 X63.306 Y24.874 A142.86504
G1 X63.642 Y25.584 A143.22175
G1 X64.047 Y26.559 A143.70098
G1 X64.362 Y27.439 A144.12552
G1 X64.593 Y28.188 A144.48144
G1 X64.888 Y29.354 A145.02744
G1 X65.040 Y30.119 A145.38177
G1 X65.214 Y31.309 A145.92777
G1 X65.287 Y32.088 A146.28288
G1 X65.335 Y33.142 A146.76209
G1 X65.332 Y34.071 A147.18374
G1 X65.261 Y35.268 A147.72842
G1 X65.174 Y36.050 A148.08566
G1 X65.055 Y36.830 A148.44369
G1 X64.846 Y37.864 A148.92290
G1 X64.616 Y38.770 A149.34745
G1 X64.386 Y39.526 A149.70629
G1 X64.127 Y40.269 A150.06353
G1 X63.674 Y41.383 A150.60953
G1 X63.340 Y42.096 A150.96677
G1 X62.978 Y42.794 A151.32402
G1 X62.371 Y43.832 A151.87002
G1 X61.941 Y44.486 A152.22514
G1 X61.320 Y45.339 A152.70441
G1 X60.733 Y46.067 A153.12891
G1 X60.214 Y46.654 A153.48513
G1 X59.404 Y47.483 A154.01121
G1 X58.709 Y48.120 A154.43942
G1 X58.068 Y48.657 A154.81881
G1 X57.212 Y49.304 A155.30643
G1 X56.323 Y49.902 A155.79261
G1 X55.398 Y50.453 A156.28141
G1 X54.779 Y50.784 A156.60032
G1 X53.806 Y51.248 A157.08983
G1 X52.933 Y51.609 A157.51871
G1 X52.147 Y51.893 A157.89802
G1 X51.121 Y52.208 A158.38564
G1 X50.076 Y52.467 A158.87445
G1 X49.387 Y52.604 A159.19336
G1 X48.317 Y52.766 A159.68479
G1 X47.621 Y52.839 A160.00221
G1 X46.435 Y52.902 A160.54162
G1 X45.476 Y52.905 A160.97725
G1 X44.296 Y52.837 A161.51399
G1 X43.333 Y52.734 A161.95367
G1 X42.639 Y52.627 A162.27247
G1 X41.582 Y52.413 A162.76198
G1 X40.667 Y52.177 A163.19107
G1 X39.863 Y51.932 A163.57281
G1 X39.197 Y51.698 A163.89317
G1 X38.194 Y51.293 A164.38461
G1 X37.555 Y51.001 A164.70353
G1 X36.598 Y50.508 A165.19234
G1 X35.674 Y49.966 A165.67854
G1 X34.781 Y49.373 A166.16544
G1 X34.022 Y48.810 A166.59464
G1 X33.375 Y48.283 A166.97366
G1 X32.577 Y47.564 A167.46130
G1 X31.822 Y46.804 A167.94750
G1 X31.109 Y46.003 A168.43441
G1 X30.519 Y45.265 A168.86366
G1 X30.027 Y44.591 A169.24262
G1 X29.435 Y43.687 A169.73289
G1 X29.078 Y43.083 A170.05182
G1 X28.571 Y42.127 A170.54327
G1 X28.270 Y41.492 A170.86219
G1 X27.855 Y40.498 A171.35102
G1 X27.496 Y39.484 A171.83984
G1 X27.292 Y38.811 A172.15877
G1 X27.027 Y37.768 A172.64760
G1 X26.821 Y36.717 A173.13381
G1 X26.673 Y35.651 A173.62263
G1 X26.608 Y34.946 A173.94418
G1 X26.569 Y34.239 A174.26543
G1 X26.560 Y33.117 A174.77488
G1 X26.592 Y32.336 A175.12982
G1 X26.702 Y31.139 A175.67586
G1 X26.815 Y30.360 A176.03313
G1 X26.959 Y29.585 A176.39117
G1 X27.202 Y28.556 A176.87108
G1 X27.461 Y27.664 A177.29285
G1 X27.807 Y26.668 A177.77145
G1 X28.155 Y25.807 A178.19323
G1 X28.601 Y24.852 A178.67181
G1 X29.038 Y24.027 A179.09575
G1 X29.436 Y23.350 A179.45248
G1 X30.015 Y22.466 A179.93234
G1 X30.565 Y21.711 A180.35630
G1 X31.059 Y21.094 A180.71517
G1 X31.575 Y20.500 A181.07243
G1 X32.410 Y19.635 A181.61846
G1 X32.981 Y19.100 A181.97359
G1 X33.786 Y18.416 A182.45338
G1 X34.527 Y17.847 A182.87740
G1 X35.175 Y17.394 A183.23627
G1 X35.838 Y16.971 A183.59353
G1 X36.883 Y16.376 A184.13956
G1 X37.580 Y16.025 A184.49391
G1 X38.131 Y15.782 A184.76749
G1 X38.386 Y14.874 F7800.000
G1 F1800
G1 X39.168 Y14.575 A185.14719
G1 X40.345 Y14.194 A185.70890
G1 X41.543 Y13.887 A186.27061
G1 X42.344 Y13.724 A186.64187
G1 X43.570 Y13.539 A187.20479
G1 X44.386 Y13.459 A187.57727
G1 X45.206 Y13.412 A187.95007
G1 X46.298 Y13.402 A188.44577
G1 X47.266 Y13.442 A188.88568
G1 X48.084 Y13.512 A189.25882
G1 X48.898 Y13.616 A189.63129
G1 X50.118 Y13.835 A190.19421
G1 X50.915 Y14.021 A190.56546
G1 X52.103 Y14.363 A191.12716
G1 X53.269 Y14.778 A191.68886
G1 X54.024 Y15.091 A192.06010
G1 X55.144 Y15.623 A192.62302
G1 X55.866 Y16.013 A192.99549
G1 X56.573 Y16.433 A193.36917
G1 X57.262 Y16.881 A193.74196
G1 X58.146 Y17.519 A194.23745
G1 X58.903 Y18.124 A194.67755
G1 X59.519 Y18.665 A195.04946
G1 X60.408 Y19.529 A195.61238
G1 X60.965 Y20.128 A195.98362
G1 X61.760 Y21.076 A196.54564
G1 X62.409 Y21.950 A197.03983
G1 X62.947 Y22.754 A197.47911
G1 X63.504 Y23.691 A197.97395
G1 X63.958 Y24.547 A198.41414
G1 X64.308 Y25.289 A198.78637
G1 X64.726 Y26.296 A199.28175
G1 X65.053 Y27.209 A199.72195
G1 X65.294 Y27.992 A200.09386
G1 X65.598 Y29.194 A200.65677
G1 X65.757 Y29.995 A201.02801
G1 X65.937 Y31.222 A201.59091
G1 X66.014 Y32.037 A201.96248
G1 X66.064 Y33.127 A202.45783
G1 X66.060 Y34.093 A202.89684
G1 X65.987 Y35.330 A203.45919
G1 X65.896 Y36.145 A203.83165
G1 X65.773 Y36.957 A204.20444
G1 X65.556 Y38.026 A204.69980
G1 X65.317 Y38.966 A205.14002
G1 X65.079 Y39.752 A205.51314
G1 X64.809 Y40.527 A205.88560
G1 X64.341 Y41.675 A206.44851
G1 X63.994 Y42.418 A206.82097
G1 X63.616 Y43.146 A207.19343
G1 X62.989 Y44.216 A207.75634
G1 X62.540 Y44.900 A208.12791
G1 X61.898 Y45.782 A208.62333
G1 X61.290 Y46.537 A209.06349
G1 X60.747 Y47.150 A209.43553
G1 X59.910 Y48.006 A209.97896
G1 X59.189 Y48.668 A210.42355
G1 X58.522 Y49.227 A210.81857
G1 X57.635 Y49.897 A211.32361
G1 X56.713 Y50.517 A211.82806
G1 X55.756 Y51.087 A212.33360
G1 X55.107 Y51.434 A212.66772
G1 X54.102 Y51.913 A213.17356
G1 X53.196 Y52.288 A213.61850
G1 X52.378 Y52.584 A214.01342
G1 X51.315 Y52.910 A214.51848
G1 X50.234 Y53.178 A215.02402
G1 X49.512 Y53.321 A215.35815
G1 X48.409 Y53.488 A215.86480
G1 X47.679 Y53.565 A216.19830
G1 X46.456 Y53.630 A216.75438
G1 X45.456 Y53.633 A217.20827
G1 X44.236 Y53.563 A217.76328
G1 X43.238 Y53.456 A218.21882
G1 X42.511 Y53.344 A218.55291
G1 X41.419 Y53.123 A219.05876
G1 X40.470 Y52.879 A219.50390
G1 X39.636 Y52.624 A219.89974
G1 X38.940 Y52.380 A220.23448
G1 X37.906 Y51.962 A220.74113
G1 X37.237 Y51.656 A221.07527
G1 X36.247 Y51.146 A221.58083
G1 X35.288 Y50.584 A222.08529
G1 X34.362 Y49.969 A222.59004
G1 X33.575 Y49.384 A223.03530
G1 X32.901 Y48.836 A223.42993
G1 X32.074 Y48.091 A223.93500
G1 X31.291 Y47.303 A224.43947
G1 X30.552 Y46.473 A224.94423
G1 X29.940 Y45.707 A225.38954
G1 X29.428 Y45.005 A225.78412
G1 X28.817 Y44.072 A226.29029
G1 X28.443 Y43.439 A226.62444
G1 X27.920 Y42.453 A227.13110
G1 X27.605 Y41.788 A227.46524
G1 X27.176 Y40.760 A227.97081
G1 X26.804 Y39.711 A228.47637
G1 X26.590 Y39.007 A228.81052
G1 X26.316 Y37.927 A229.31609
G1 X26.103 Y36.837 A229.82055
G1 X25.950 Y35.734 A230.32612
G1 X25.882 Y34.999 A230.66136
G1 X25.841 Y34.262 A230.99648
G1 X25.832 Y33.105 A231.52183
G1 X25.865 Y32.288 A231.89334
G1 X25.979 Y31.053 A232.45628
G1 X26.096 Y30.241 A232.82876
G1 X26.246 Y29.434 A233.20157
G1 X26.498 Y28.371 A233.69764
G1 X26.767 Y27.443 A234.13632
G1 X27.125 Y26.412 A234.63182
G1 X27.487 Y25.516 A235.07051
G1 X27.949 Y24.528 A235.56600
G1 X28.402 Y23.672 A236.00560
G1 X28.817 Y22.965 A236.37786
G1 X29.416 Y22.052 A236.87387
G1 X29.986 Y21.269 A237.31350
G1 X30.500 Y20.627 A237.68665
G1 X31.038 Y20.008 A238.05914
G1 X31.898 Y19.116 A238.62207
G1 X32.496 Y18.556 A238.99366
G1 X33.328 Y17.849 A239.48960
G1 X34.096 Y17.259 A239.92929
G1 X34.770 Y16.789 A240.30244
G1 X35.461 Y16.347 A240.67492
G1 X36.539 Y15.734 A241.23785
G1 X37.269 Y15.366 A241.60911
G1 X37.837 Y15.116 A241.89115
G1 X39.048 Y15.386 F7800.000
G1 A239.89115 F2400.00000
G1 X56.278 Y18.239 F7800.000
G1 A241.89115 F2400.00000
G1 F1800
G1 X61.211 Y23.171 A245.10612
G1 A243.10612 F2400.00000
G1 X62.611 Y25.616 F7800.000
G1 A245.10612 F2400.00000
G1 F1800
G1 X54.598 Y17.604 A250.32906
G1 X54.238 Y17.409 A250.51769
G1 X53.211 Y16.921 A251.04191
G1 X52.629 Y16.680 A251.33220
G1 X62.781 Y26.831 A257.94948
G1 X63.153 Y27.841 A258.44575
G1 X63.334 Y28.430 A258.72982
G1 X51.047 Y16.143 A266.73967
G1 X50.410 Y15.959 A267.04495
G1 X49.643 Y15.784 A267.40762
G1 X63.682 Y29.823 A276.55875
G1 X63.784 Y30.336 A276.79978
G1 X63.892 Y31.079 A277.14592
G1 X48.382 Y15.569 A287.25634
G1 X47.215 Y15.447 A287.79710
G1 X64.019 Y32.251 A298.75082
G1 X64.061 Y33.338 A299.25203
G1 X46.129 Y15.406 A310.94056
G1 X45.101 Y15.424 A311.41441
G1 X64.039 Y34.361 A323.75857
G1 X63.971 Y35.339 A324.21041
G1 X44.129 Y15.496 A337.14465
G1 X43.206 Y15.619 A337.57367
G1 X63.853 Y36.265 A351.03203
G1 X63.691 Y37.149 A351.44601
G1 X42.315 Y15.773 A365.37988
G1 X41.469 Y15.973 A365.78029
G1 X63.497 Y38.000 A380.13875
G1 X63.270 Y38.818 A380.53010
G1 X40.651 Y16.200 A395.27387
G1 X39.861 Y16.455 A395.65646
G1 X63.010 Y39.604 A410.74575
G1 X62.716 Y40.356 A411.11775
G1 X39.106 Y16.745 A426.50827
G1 X38.380 Y17.065 A426.87371
G1 X62.405 Y41.089 A442.53392
G1 X62.063 Y41.792 A442.89432
G1 X37.674 Y17.404 A458.79165
G1 X37.000 Y17.775 A459.14634
G1 X61.693 Y42.468 A475.24205
G1 X61.307 Y43.127 A475.59417
G1 X36.341 Y18.161 A491.86797
G1 X35.710 Y18.575 A492.21596
G1 X60.894 Y43.759 A508.63233
G1 X60.454 Y44.364 A508.97721
G1 X35.101 Y19.012 A525.50303
G1 X34.514 Y19.469 A525.84634
G1 X59.996 Y44.952 A542.45683
G1 X59.517 Y45.518 A542.79872
G1 X33.948 Y19.950 A559.46577
G1 X33.403 Y20.450 A559.80676
G1 X59.013 Y46.060 A576.50056
G1 X58.495 Y46.587 A576.84125
G1 X32.885 Y20.977 A593.53508
G1 X32.380 Y21.517 A593.87594
G1 X57.950 Y47.087 A610.54381
G1 X57.385 Y47.567 A610.88561
G1 X31.900 Y22.082 A627.49788
G1 X31.443 Y22.670 A627.84121
G1 X56.795 Y48.022 A644.36691
G1 X56.186 Y48.459 A644.71217
G1 X31.006 Y23.279 A661.12576
G1 X30.592 Y23.910 A661.47373
G1 X55.557 Y48.875 A677.74722
G1 X54.902 Y49.265 A678.09868
G1 X30.200 Y24.563 A694.20054
G1 X29.835 Y25.244 A694.55641
G1 X54.226 Y49.634 A710.45541
G1 X53.519 Y49.973 A710.81664
G1 X29.495 Y25.949 A726.47660
G1 X29.178 Y26.677 A726.84262
G1 X52.790 Y50.289 A742.23415
G1 X52.035 Y50.579 A742.60704
G1 X28.890 Y27.434 A757.69409
G1 X28.627 Y28.217 A758.07460
G1 X51.247 Y50.837 A772.81953
G1 X50.432 Y51.066 A773.21013
G1 X28.399 Y29.033 A787.57217
G1 X28.200 Y29.880 A787.97293
G1 X49.585 Y51.265 A801.91292
G1 X48.695 Y51.420 A802.32952
G1 X28.043 Y30.768 A815.79137
G1 X27.930 Y31.700 A816.22421
G1 X47.772 Y51.542 A829.15788
G1 X46.791 Y51.607 A829.61070
G1 X27.853 Y32.669 A841.95537
G1 X27.834 Y33.138 A842.17176
G1 X27.839 Y33.700 A842.43061
G1 X45.769 Y51.630 A854.11849
G1 X44.677 Y51.583 A854.62237
G1 X27.887 Y34.793 A865.56685
G1 X27.940 Y35.509 A865.89789
G1 X28.002 Y35.953 A866.10425
G1 X43.522 Y51.473 A876.22092
G1 X42.862 Y51.372 A876.52821
G1 X42.252 Y51.249 A876.81521
G1 X28.217 Y37.213 A885.96415
G1 X28.271 Y37.489 A886.09343
G1 X28.560 Y38.601 A886.62335
G1 X40.863 Y50.905 A894.64355
G1 X40.260 Y50.721 A894.93424
G1 X39.264 Y50.351 A895.42385
G1 X29.111 Y40.198 A902.04257
G1 X29.435 Y40.973 A902.43006
G1 X29.710 Y41.555 A902.72678
G1 X30.034 Y42.167 A903.04577
G1 X38.058 Y50.190 A908.27588
G1 A906.27588 F2400.00000
G1 X35.609 Y48.787 F7800.000
G1 A908.27588 F2400.00000
G1 F1800
G1 X30.675 Y43.853 A911.49222
G1 Z3.000 F7800.000
G1 A909.49222 F2400.00000
G1 X38.490 Y15.129 F7800.000
G1 A911.49222 F2400.00000
G1 F900
G1 X38.886 Y14.969 A911.70754
G1 X40.023 Y14.575 A912.31410
G1 X40.810 Y14.346 A912.72713
G1 X41.982 Y14.070 A913.33362
G1 X42.785 Y13.924 A913.74530
G1 X43.617 Y13.808 A914.16865
G1 X44.816 Y13.702 A914.77520
G1 X45.635 Y13.673 A915.18827
G1 X46.836 Y13.690 A915.79358
G1 X47.654 Y13.743 A916.20633
G1 X48.466 Y13.830 A916.61800
G1 X49.654 Y14.019 A917.22431
G1 X50.456 Y14.189 A917.63739
G1 X51.619 Y14.497 A918.24362
G1 X52.397 Y14.747 A918.65538
G1 X53.186 Y15.037 A919.07938
G1 X54.270 Y15.499 A919.67322
G1 X55.029 Y15.869 A920.09875
G1 X56.082 Y16.452 A920.70503
G1 X56.778 Y16.885 A921.11816
G1 X57.766 Y17.571 A921.72425
G1 X58.412 Y18.071 A922.13594
G1 X59.037 Y18.597 A922.54766
G1 X59.917 Y19.417 A923.15380
G1 X60.504 Y20.025 A923.57976
G1 X61.278 Y20.912 A924.17291
G1 X61.800 Y21.574 A924.59756
G1 X62.278 Y22.236 A925.00941
G1 X62.931 Y23.246 A925.61537
G1 X63.341 Y23.956 A926.02853
G1 X63.888 Y25.026 A926.63445
G1 X64.222 Y25.772 A927.04619
G1 X64.526 Y26.531 A927.45794
G1 X64.915 Y27.668 A928.06382
G1 X65.140 Y28.456 A928.47699
G1 X65.411 Y29.628 A929.08294
G1 X65.559 Y30.458 A929.50797
G1 X65.669 Y31.268 A929.91981
G1 X65.769 Y32.466 A930.52568
G1 X65.795 Y33.285 A930.93885
G1 X65.773 Y34.488 A931.54471
G1 X65.716 Y35.303 A931.95646
G1 X65.627 Y36.112 A932.36680
G1 X65.503 Y36.920 A932.77854
G1 X65.262 Y38.097 A933.38442
G1 X65.057 Y38.888 A933.79616
G1 X64.820 Y39.670 A934.20792
G1 X64.412 Y40.802 A934.81395
G1 X64.085 Y41.582 A935.24020
G1 X63.576 Y42.642 A935.83306
G1 X63.173 Y43.382 A936.25787
G1 X62.752 Y44.083 A936.66968
G1 X62.082 Y45.081 A937.27562
G1 X61.590 Y45.737 A937.68877
G1 X60.822 Y46.662 A938.29475
G1 X60.269 Y47.263 A938.70633
G1 X59.720 Y47.813 A939.09805
G1 X58.918 Y48.544 A939.64494
G1 X58.348 Y49.018 A940.01806
G1 X57.481 Y49.674 A940.56614
G1 X56.577 Y50.282 A941.11551
G1 X55.642 Y50.839 A941.66369
G1 X54.967 Y51.200 A942.04932
G1 X53.985 Y51.668 A942.59751
G1 X52.977 Y52.082 A943.14691
G1 X51.949 Y52.439 A943.69507
G1 X51.242 Y52.649 A944.06683
G1 X50.530 Y52.832 A944.43725
G1 X49.836 Y52.983 A944.79548
G1 X49.112 Y53.114 A945.16595
G1 X48.361 Y53.220 A945.54840
G1 X47.654 Y53.294 A945.90679
G1 X46.920 Y53.344 A946.27720
G1 X46.186 Y53.366 A946.64762
G1 X45.451 Y53.361 A947.01792
G1 X44.740 Y53.331 A947.37642
G1 X44.007 Y53.273 A947.74675
G1 X43.277 Y53.187 A948.11716
G1 X42.551 Y53.075 A948.48754
G1 X41.830 Y52.936 A948.85782
G1 X41.136 Y52.776 A949.21654
G1 X40.424 Y52.584 A949.58811
G1 X39.390 Y52.253 A950.13533
G1 X38.675 Y51.987 A950.51962
G1 X37.674 Y51.561 A951.06803
G1 X36.695 Y51.079 A951.61771
G1 X35.747 Y50.546 A952.16614
G1 X35.119 Y50.154 A952.53898
G1 X34.226 Y49.537 A953.08615
G1 X33.637 Y49.089 A953.45898
G1 X32.802 Y48.391 A954.00746
G1 X32.007 Y47.648 A954.55596
G1 X31.490 Y47.118 A954.92877
G1 X30.766 Y46.305 A955.47732
G1 X30.088 Y45.454 A956.02592
G1 X29.642 Y44.837 A956.40947
G1 X29.046 Y43.926 A956.95808
G1 X28.500 Y42.982 A957.50792
G1 X28.007 Y42.011 A958.05649
G1 X27.703 Y41.337 A958.42924
G1 X27.302 Y40.325 A958.97783
G1 X26.957 Y39.292 A959.52653
G1 X26.751 Y38.563 A959.90843
G1 X26.582 Y37.870 A960.26807
G1 X26.438 Y37.171 A960.62767
G1 X26.313 Y36.426 A961.00827
G1 X26.219 Y35.697 A961.37849
G1 X26.153 Y34.987 A961.73810
G1 X26.113 Y34.253 A962.10818
G1 X26.099 Y33.518 A962.47867
G1 X26.116 Y32.702 A962.88993
G1 X26.202 Y31.501 A963.49685
G1 X26.302 Y30.688 A963.90981
G1 X26.510 Y29.502 A964.51672
G1 X26.692 Y28.705 A964.92832
G1 X26.912 Y27.897 A965.35043
G1 X27.288 Y26.753 A965.95741
G1 X27.583 Y25.989 A966.37039
G1 X28.073 Y24.889 A966.97727
G1 X28.444 Y24.161 A967.38882
G1 X28.843 Y23.449 A967.80037
G1 X29.485 Y22.430 A968.40721
G1 X29.955 Y21.762 A968.81875
G1 X30.451 Y21.117 A969.22889
G1 X30.974 Y20.489 A969.64045
G1 X31.792 Y19.606 A970.24723
G1 X32.378 Y19.033 A970.66021
G1 X33.281 Y18.237 A971.26701
G1 X33.938 Y17.716 A971.68963
G1 X34.599 Y17.235 A972.10130
G1 X35.607 Y16.577 A972.70801
G1 X36.315 Y16.164 A973.12104
G1 X37.385 Y15.612 A973.72768
G1 X37.937 Y15.362 A974.03319
G1 X38.541 Y14.705 F7800.000
G1 X37.971 Y13.940
G1 F900
G1 X38.823 Y13.613 A974.49314
G1 X40.060 Y13.212 A975.14829
G1 X41.319 Y12.889 A975.80343
G1 X42.161 Y12.718 A976.23635
G1 X43.449 Y12.524 A976.89295
G1 X44.307 Y12.440 A977.32732
G1 X45.169 Y12.390 A977.76233
G1 X46.236 Y12.379 A978.30023
G1 X47.333 Y12.421 A978.85357
G1 X48.191 Y12.495 A979.28765
G1 X49.249 Y12.636 A979.82551
G1 X50.329 Y12.835 A980.37890
G1 X51.167 Y13.030 A980.81234
G1 X52.419 Y13.390 A981.46894
G1 X53.231 Y13.670 A981.90185
G1 X54.437 Y14.155 A982.55698
G1 X55.611 Y14.713 A983.21211
G1 X56.370 Y15.123 A983.64648
G1 X57.112 Y15.564 A984.08148
G1 X58.003 Y16.151 A984.61918
G1 X58.889 Y16.799 A985.17271
G1 X59.560 Y17.340 A985.60678
G1 X60.358 Y18.048 A986.14445
G1 X61.140 Y18.815 A986.69655
G1 X62.016 Y19.777 A987.35221
G1 X62.561 Y20.441 A987.78512
G1 X63.335 Y21.489 A988.44170
G1 X63.810 Y22.206 A988.87524
G1 X64.357 Y23.122 A989.41283
G1 X64.873 Y24.092 A989.96646
G1 X65.241 Y24.871 A990.40054
G1 X65.652 Y25.855 A990.93810
G1 X66.025 Y26.889 A991.49175
G1 X66.278 Y27.711 A991.92519
G1 X66.597 Y28.974 A992.58177
G1 X66.764 Y29.816 A993.01468
G1 X66.953 Y31.105 A993.67126
G1 X67.034 Y31.964 A994.10562
G1 X67.080 Y32.824 A994.53998
G1 X67.082 Y34.125 A995.19573
G1 X67.024 Y35.188 A995.73182
G1 X66.910 Y36.280 A996.28549
G1 X66.780 Y37.131 A996.71893
G1 X66.518 Y38.407 A997.37551
G1 X66.302 Y39.241 A997.80987
G1 X66.051 Y40.069 A998.24569
G1 X65.767 Y40.883 A998.68005
G1 X65.277 Y42.088 A999.33581
G1 X64.820 Y43.049 A999.87194
G1 X64.301 Y44.017 A1000.42557
G1 X63.857 Y44.757 A1000.86047
G1 X63.384 Y45.478 A1001.29483
G1 X62.614 Y46.529 A1001.95141
G1 X62.070 Y47.197 A1002.38578
G1 X61.499 Y47.843 A1002.82029
G1 X60.619 Y48.744 A1003.45509
G1 X60.053 Y49.270 A1003.84442
G1 X59.160 Y50.026 A1004.43406
G1 X58.228 Y50.730 A1005.02238
G1 X57.258 Y51.383 A1005.61201
G1 X56.597 Y51.784 A1006.00164
G1 X55.570 Y52.345 A1006.59128
G1 X54.515 Y52.848 A1007.18017
G1 X53.631 Y53.216 A1007.66287
G1 X52.705 Y53.553 A1008.15969
G1 X51.587 Y53.896 A1008.74907
G1 X50.658 Y54.130 A1009.23181
G1 X49.692 Y54.328 A1009.72859
G1 X48.534 Y54.503 A1010.31871
G1 X47.763 Y54.584 A1010.70965
G1 X46.986 Y54.637 A1011.10190
G1 X46.208 Y54.660 A1011.49415
G1 X45.430 Y54.656 A1011.88641
G1 X44.652 Y54.622 A1012.27866
G1 X43.876 Y54.560 A1012.67091
G1 X43.106 Y54.470 A1013.06185
G1 X41.948 Y54.280 A1013.65281
G1 X41.190 Y54.120 A1014.04375
G1 X40.437 Y53.931 A1014.43470
G1 X39.316 Y53.595 A1015.02434
G1 X38.218 Y53.198 A1015.61268
G1 X37.144 Y52.742 A1016.20102
G1 X36.094 Y52.225 A1016.79067
G1 X35.417 Y51.852 A1017.18031
G1 X34.416 Y51.240 A1017.77127
G1 X33.776 Y50.807 A1018.16091
G1 X32.836 Y50.106 A1018.75187
G1 X32.239 Y49.615 A1019.14151
G1 X31.369 Y48.832 A1019.73117
G1 X30.545 Y48.003 A1020.32008
G1 X29.905 Y47.290 A1020.80314
G1 X29.281 Y46.528 A1021.29962
G1 X28.587 Y45.586 A1021.88902
G1 X28.058 Y44.786 A1022.37211
G1 X27.552 Y43.941 A1022.86856
G1 X27.005 Y42.909 A1023.45740
G1 X26.514 Y41.847 A1024.04706
G1 X26.222 Y41.130 A1024.43726
G1 X25.897 Y40.225 A1024.92170
G1 X25.606 Y39.284 A1025.41812
G1 X25.319 Y38.151 A1026.00695
G1 X25.094 Y37.006 A1026.59530
G1 X24.933 Y35.847 A1027.18496
G1 X24.862 Y35.074 A1027.57591
G1 X24.819 Y34.300 A1027.96672
G1 X24.809 Y33.087 A1028.57802
G1 X24.876 Y31.788 A1029.23347
G1 X24.964 Y30.934 A1029.66639
G1 X25.163 Y29.646 A1030.32301
G1 X25.338 Y28.802 A1030.75739
G1 X25.547 Y27.965 A1031.19240
G1 X25.855 Y26.942 A1031.73066
G1 X26.222 Y25.908 A1032.28368
G1 X26.549 Y25.111 A1032.71777
G1 X26.999 Y24.142 A1033.25601
G1 X27.510 Y23.171 A1033.80904
G1 X27.947 Y22.429 A1034.24314
G1 X28.531 Y21.534 A1034.78134
G1 X29.175 Y20.646 A1035.33440
G1 X29.714 Y19.974 A1035.76850
G1 X30.419 Y19.172 A1036.30667
G1 X31.182 Y18.387 A1036.85831
G1 X32.140 Y17.507 A1037.51399
G1 X32.804 Y16.958 A1037.94837
G1 X33.493 Y16.434 A1038.38421
G1 X34.199 Y15.940 A1038.81859
G1 X35.305 Y15.250 A1039.47519
G1 X36.057 Y14.832 A1039.90875
G1 X37.013 Y14.358 A1040.44681
G1 X37.421 Y14.180 A1040.67111
G1 X38.693 Y14.497 F7800.000
G1 X38.222 Y14.538
G1 F1200
G1 X38.265 Y14.520 A1040.68517
G1 X38.654 Y14.367 A1040.81289
G1 X38.665 Y14.363 A1040.81658
G1 X39.039 Y14.227 A1040.93915
G1 X39.823 Y13.964 A1041.19363
G1 X39.834 Y13.961 A1041.19724
G1 X40.241 Y13.836 A1041.32712
G1 X40.641 Y13.726 A1041.45395
G1 X40.653 Y13.723 A1041.45758
G1 X41.465 Y13.523 A1041.71509
G1 X41.844 Y13.440 A1041.83457
G1 X41.856 Y13.438 A1041.83824
G1 X42.274 Y13.357 A1041.96837
G1 X42.678 Y13.290 A1042.09370
G1 X42.688 Y13.288 A1042.09667
G1 X43.529 Y13.166 A1042.35432
G1 X43.538 Y13.165 A1042.35707
G1 X43.550 Y13.164 A1042.36084
G1 X44.357 Y13.089 A1042.61067
G1 X44.770 Y13.059 A1042.73819
G1 X44.782 Y13.058 A1042.74189
G1 X45.191 Y13.039 A1042.86682
G1 X45.622 Y13.029 A1042.99877
G1 X45.634 Y13.029 A1043.00240
G1 X46.227 Y13.030 A1043.18488
G1 X46.856 Y13.047 A1043.37868
G1 X46.868 Y13.047 A1043.38233
G1 X47.293 Y13.069 A1043.51230
G1 X47.704 Y13.100 A1043.63839
G1 X47.714 Y13.101 A1043.64136
G1 X48.121 Y13.141 A1043.76622
G1 X48.545 Y13.192 A1043.89675
G1 X48.557 Y13.193 A1043.90039
G1 X49.147 Y13.279 A1044.08425
G1 X49.765 Y13.385 A1044.27730
G1 X49.777 Y13.387 A1044.28094
G1 X50.197 Y13.470 A1044.41171
G1 X50.600 Y13.560 A1044.53781
G1 X50.612 Y13.563 A1044.54151
G1 X51.003 Y13.660 A1044.66574
G1 X51.793 Y13.879 A1044.91844
G1 X51.805 Y13.882 A1044.92204
G1 X52.223 Y14.010 A1045.05571
G1 X52.602 Y14.135 A1045.17756
G1 X52.611 Y14.139 A1045.18059
G1 X53.004 Y14.278 A1045.30821
G1 X53.418 Y14.438 A1045.44371
G1 X53.429 Y14.442 A1045.44730
G1 X54.176 Y14.751 A1045.69616
G1 X54.532 Y14.912 A1045.81638
G1 X54.543 Y14.917 A1045.81999
G1 X55.319 Y15.291 A1046.08090
G1 X55.322 Y15.293 A1046.08218
G1 X55.333 Y15.298 A1046.08598
G1 X56.049 Y15.689 A1046.33722
G1 X56.403 Y15.893 A1046.46313
G1 X56.414 Y15.899 A1046.46682
G1 X56.767 Y16.114 A1046.59334
G1 X57.127 Y16.344 A1046.72373
G1 X57.137 Y16.351 A1046.72737
G1 X57.631 Y16.685 A1046.91130
G1 X58.141 Y17.049 A1047.10416
G1 X58.151 Y17.056 A1047.10780
G1 X58.494 Y17.314 A1047.23885
G1 X58.813 Y17.566 A1047.36322
G1 X58.821 Y17.572 A1047.36619
G1 X59.140 Y17.836 A1047.49278
G1 X59.459 Y18.111 A1047.62163
G1 X59.468 Y18.119 A1047.62528
G1 X59.914 Y18.525 A1047.81074
G1 X60.363 Y18.954 A1048.00219
G1 X60.372 Y18.963 A1048.00589
G1 X60.673 Y19.266 A1048.13649
G1 X60.973 Y19.586 A1048.27076
G1 X60.981 Y19.595 A1048.27436
G1 X61.524 Y20.203 A1048.52520
G1 X61.771 Y20.495 A1048.64310
G1 X61.779 Y20.504 A1048.64678
G1 X62.049 Y20.840 A1048.77854
G1 X62.310 Y21.183 A1048.91032
G1 X62.316 Y21.191 A1048.91330
G1 X62.805 Y21.860 A1049.16461
G1 X62.809 Y21.866 A1049.16672
G1 X62.816 Y21.876 A1049.17046
G1 X63.259 Y22.553 A1049.41984
G1 X63.477 Y22.905 A1049.54737
G1 X63.484 Y22.915 A1049.55102
G1 X63.792 Y23.441 A1049.73662
G1 X63.904 Y23.643 A1049.80690
G1 X63.910 Y23.653 A1049.81056
G1 X64.291 Y24.384 A1050.06445
G1 X64.467 Y24.742 A1050.18730
G1 X64.472 Y24.753 A1050.19098
G1 X64.648 Y25.134 A1050.31931
G1 X64.813 Y25.516 A1050.44644
G1 X64.817 Y25.525 A1050.44938
G1 X65.048 Y26.090 A1050.63505
G1 X65.128 Y26.301 A1050.70375
G1 X65.132 Y26.312 A1050.70742
G1 X65.407 Y27.095 A1050.96290
G1 X65.528 Y27.469 A1051.08412
G1 X65.532 Y27.481 A1051.08780
G1 X65.652 Y27.886 A1051.21690
G1 X65.761 Y28.290 A1051.34474
G1 X65.764 Y28.301 A1051.34837
G1 X65.961 Y29.117 A1051.60689
G1 X66.042 Y29.492 A1051.72513
G1 X66.045 Y29.505 A1051.72885
G1 X66.124 Y29.927 A1051.86027
G1 X66.193 Y30.354 A1051.99266
G1 X66.195 Y30.364 A1051.99563
G1 X66.310 Y31.183 A1052.24639
G1 X66.311 Y31.192 A1052.24909
G1 X66.312 Y31.204 A1052.25282
G1 X66.384 Y32.011 A1052.50273
G1 X66.412 Y32.423 A1052.62973
G1 X66.413 Y32.435 A1052.63343
G1 X66.431 Y32.842 A1052.75806
G1 X66.438 Y33.275 A1052.89036
G1 X66.438 Y33.287 A1052.89397
G1 X66.431 Y34.108 A1053.14689
G1 X66.417 Y34.510 A1053.27060
G1 X66.416 Y34.522 A1053.27425
G1 X66.378 Y35.136 A1053.46160
G1 X66.359 Y35.356 A1053.52862
G1 X66.358 Y35.365 A1053.53157
G1 X66.269 Y36.191 A1053.78327
G1 X66.268 Y36.198 A1053.78528
G1 X66.268 Y36.201 A1053.78629
G1 X66.143 Y37.017 A1054.03632
G1 X66.141 Y37.027 A1054.03959
G1 X66.139 Y37.039 A1054.04333
G1 X65.893 Y38.237 A1054.41333
G1 X65.890 Y38.249 A1054.41708
G1 X65.888 Y38.261 A1054.42055
G1 X65.681 Y39.058 A1054.67038
G1 X65.679 Y39.066 A1054.67279
G1 X65.678 Y39.068 A1054.67340
G1 X65.436 Y39.868 A1054.92668
G1 X65.436 Y39.868 A1054.92688
G1 X65.432 Y39.879 A1054.93044
G1 X65.158 Y40.653 A1055.18315
G1 X65.014 Y41.029 A1055.30734
G1 X65.009 Y41.041 A1055.31101
G1 X64.684 Y41.827 A1055.56904
G1 X64.678 Y41.841 A1055.57382
G1 X64.673 Y41.852 A1055.57754
G1 X64.241 Y42.756 A1055.88343
G1 X64.152 Y42.930 A1055.94316
G1 X64.147 Y42.941 A1055.94682
G1 X63.738 Y43.697 A1056.20741
G1 X63.737 Y43.699 A1056.20804
G1 X63.732 Y43.708 A1056.21112
G1 X63.309 Y44.413 A1056.46049
G1 X63.301 Y44.425 A1056.46467
G1 X63.295 Y44.435 A1056.46840
G1 X62.849 Y45.106 A1056.71676
G1 X62.609 Y45.448 A1056.84529
G1 X62.602 Y45.458 A1056.84892
G1 X62.102 Y46.133 A1057.10356
G1 X62.102 Y46.133 F7800.000
G1 F1200
G1 X62.095 Y46.143 A1057.10729
G1 X61.574 Y46.776 A1057.35987
G1 X61.311 Y47.082 A1057.48415
G1 X61.303 Y47.091 A1057.48783
G1 X61.024 Y47.401 A1057.61532
G1 X60.736 Y47.704 A1057.74311
G1 X60.729 Y47.711 A1057.74596
G1 X60.171 Y48.277 A1057.98675
G1 X60.167 Y48.281 A1057.98837
G1 X60.162 Y48.285 A1057.99021
G1 X59.621 Y48.783 A1058.21629
G1 X59.344 Y49.026 A1058.32936
G1 X59.336 Y49.033 A1058.33265
G1 X58.755 Y49.521 A1058.56234
G1 X58.755 Y49.521 A1058.56258
G1 X58.746 Y49.528 A1058.56597
G1 X57.862 Y50.196 A1058.90142
G1 X57.853 Y50.203 A1058.90497
G1 X57.851 Y50.204 A1058.90546
G1 X56.928 Y50.825 A1059.24237
G1 X56.917 Y50.832 A1059.24641
G1 X56.909 Y50.838 A1059.24943
G1 X56.272 Y51.221 A1059.47778
G1 X55.964 Y51.397 A1059.58687
G1 X55.954 Y51.402 A1059.59019
G1 X55.276 Y51.769 A1059.82396
G1 X55.264 Y51.775 A1059.82788
G1 X55.254 Y51.780 A1059.83131
G1 X54.253 Y52.257 A1060.16705
G1 X54.252 Y52.257 A1060.16752
G1 X54.241 Y52.262 A1060.17110
G1 X53.395 Y52.611 A1060.45036
G1 X53.211 Y52.682 A1060.51059
G1 X53.199 Y52.687 A1060.51456
G1 X52.498 Y52.937 A1060.74307
G1 X52.152 Y53.050 A1060.85488
G1 X52.141 Y53.053 A1060.85816
G1 X51.419 Y53.271 A1061.08670
G1 X51.413 Y53.273 A1061.08869
G1 X51.410 Y53.273 A1061.08943
G1 X50.683 Y53.458 A1061.31664
G1 X50.675 Y53.460 A1061.31930
G1 X50.513 Y53.498 A1061.36971
G1 X49.966 Y53.614 A1061.53983
G1 X49.957 Y53.616 A1061.54242
G1 X49.578 Y53.689 A1061.66034
G1 X49.219 Y53.749 A1061.77140
G1 X49.210 Y53.750 A1061.77412
G1 X48.452 Y53.861 A1062.00659
G1 X48.444 Y53.862 A1062.00888
G1 X48.436 Y53.863 A1062.01156
G1 X47.714 Y53.939 A1062.23158
G1 X47.707 Y53.939 A1062.23357
G1 X47.705 Y53.939 A1062.23429
G1 X46.956 Y53.990 A1062.46160
G1 X46.954 Y53.990 A1062.46227
G1 X46.947 Y53.990 A1062.46433
G1 X46.200 Y54.013 A1062.69102
G1 X46.198 Y54.013 A1062.69171
G1 X46.189 Y54.013 A1062.69445
G1 X45.445 Y54.009 A1062.91984
G1 X45.439 Y54.008 A1062.92177
G1 X45.430 Y54.008 A1062.92444
G1 X44.705 Y53.977 A1063.14446
G1 X44.696 Y53.977 A1063.14714
G1 X44.692 Y53.976 A1063.14847
G1 X43.949 Y53.917 A1063.37446
G1 X43.940 Y53.916 A1063.37719
G1 X43.940 Y53.916 A1063.37726
G1 X43.196 Y53.829 A1063.60429
G1 X43.195 Y53.829 A1063.60454
G1 X43.186 Y53.828 A1063.60727
G1 X42.445 Y53.710 A1063.83442
G1 X42.437 Y53.708 A1063.83707
G1 X42.068 Y53.642 A1063.95129
G1 X41.700 Y53.568 A1064.06588
G1 X41.692 Y53.566 A1064.06852
G1 X41.336 Y53.487 A1064.17982
G1 X40.984 Y53.403 A1064.29024
G1 X40.975 Y53.401 A1064.29288
G1 X40.609 Y53.305 A1064.40836
G1 X40.248 Y53.203 A1064.52303
G1 X40.237 Y53.199 A1064.52633
G1 X39.520 Y52.977 A1064.75676
G1 X39.185 Y52.863 A1064.86552
G1 X39.174 Y52.859 A1064.86885
G1 X38.455 Y52.596 A1065.10120
G1 X38.441 Y52.590 A1065.10576
G1 X38.431 Y52.586 A1065.10917
G1 X37.413 Y52.153 A1065.44407
G1 X37.410 Y52.152 A1065.44506
G1 X37.398 Y52.146 A1065.44911
G1 X36.400 Y51.655 A1065.78614
G1 X36.393 Y51.651 A1065.78847
G1 X36.388 Y51.649 A1065.79019
G1 X35.743 Y51.290 A1066.01677
G1 X35.423 Y51.102 A1066.13075
G1 X35.414 Y51.096 A1066.13405
G1 X34.769 Y50.698 A1066.36382
G1 X34.767 Y50.696 A1066.36452
G1 X34.759 Y50.691 A1066.36720
G1 X34.153 Y50.277 A1066.59280
G1 X33.853 Y50.061 A1066.70642
G1 X33.844 Y50.055 A1066.70971
G1 X33.238 Y49.598 A1066.93945
G1 X33.235 Y49.596 A1066.94052
G1 X33.229 Y49.591 A1066.94284
G1 X32.663 Y49.122 A1067.16880
G1 X32.381 Y48.877 A1067.28342
G1 X32.371 Y48.868 A1067.28735
G1 X31.818 Y48.361 A1067.51788
G1 X31.561 Y48.112 A1067.62778
G1 X31.553 Y48.104 A1067.63107
G1 X31.021 Y47.564 A1067.86072
G1 X31.016 Y47.559 A1067.86277
G1 X31.013 Y47.556 A1067.86411
G1 X30.398 Y46.867 A1068.14573
G1 X30.277 Y46.726 A1068.20239
G1 X30.269 Y46.716 A1068.20637
G1 X29.794 Y46.128 A1068.43824
G1 X29.579 Y45.847 A1068.54698
G1 X29.572 Y45.838 A1068.55030
G1 X29.118 Y45.216 A1068.78398
G1 X29.113 Y45.208 A1068.78668
G1 X29.106 Y45.199 A1068.79010
G1 X28.608 Y44.441 A1069.06708
G1 X28.501 Y44.270 A1069.12863
G1 X28.494 Y44.259 A1069.13260
G1 X28.119 Y43.622 A1069.35956
G1 X27.937 Y43.294 A1069.47451
G1 X27.931 Y43.283 A1069.47844
G1 X27.587 Y42.620 A1069.70754
G1 X27.429 Y42.294 A1069.81892
G1 X27.425 Y42.284 A1069.82221
G1 X27.110 Y41.594 A1070.05187
G1 X27.108 Y41.589 A1070.05346
G1 X27.105 Y41.584 A1070.05526
G1 X26.830 Y40.897 A1070.28249
G1 X26.699 Y40.552 A1070.39590
G1 X26.695 Y40.539 A1070.39986
G1 X26.514 Y40.019 A1070.56904
G1 X26.343 Y39.487 A1070.74057
G1 X26.340 Y39.476 A1070.74393
G1 X26.231 Y39.108 A1070.86123
G1 X26.130 Y38.731 A1070.98046
G1 X26.127 Y38.723 A1070.98307
G1 X25.952 Y38.016 A1071.20366
G1 X25.950 Y38.010 A1071.20551
G1 X25.950 Y38.007 A1071.20637
G1 X25.806 Y37.293 A1071.42695
G1 X25.805 Y37.284 A1071.42953
G1 X25.735 Y36.899 A1071.54920
G1 X25.677 Y36.525 A1071.66469
G1 X25.676 Y36.516 A1071.66742
G1 X25.576 Y35.773 A1071.89464
G1 X25.576 Y35.773 A1071.89470
G1 X25.575 Y35.764 A1071.89731
G1 X25.509 Y35.039 A1072.11797
G1 X25.508 Y35.030 A1072.12066
G1 X25.508 Y35.027 A1072.12163
G1 X25.466 Y34.282 A1072.34779
G1 X25.466 Y34.280 A1072.34850
G1 X25.466 Y34.273 A1072.35052
G1 X25.456 Y33.522 A1072.57786
G1 X25.456 Y33.513 A1072.58064
G1 X25.458 Y33.101 A1072.70652
G1 X25.474 Y32.679 A1072.83553
G1 X25.474 Y32.667 A1072.83915
G1 X25.525 Y31.838 A1073.09484
G1 X25.559 Y31.445 A1073.21637
G1 X25.561 Y31.433 A1073.22006
G1 X25.608 Y31.016 A1073.34809
G1 X25.665 Y30.599 A1073.47680
G1 X25.667 Y30.587 A1073.48043
G1 X25.803 Y29.762 A1073.73799
G1 X25.876 Y29.380 A1073.85766
G1 X25.879 Y29.368 A1073.86133
G1 X25.971 Y28.947 A1073.99319
G1 X26.065 Y28.554 A1074.11677
G1 X26.067 Y28.544 A1074.11979
G1 X26.174 Y28.137 A1074.24841
G1 X26.294 Y27.718 A1074.38172
G1 X26.297 Y27.706 A1074.38539
G1 X26.474 Y27.145 A1074.56675
G1 X26.680 Y26.542 A1074.76277
G1 X26.684 Y26.531 A1074.76642
G1 X26.829 Y26.139 A1074.89401
G1 X26.985 Y25.747 A1075.02321
G1 X26.990 Y25.735 A1075.02689
G1 X27.145 Y25.371 A1075.14882
G1 X27.489 Y24.617 A1075.40415
G1 X27.494 Y24.606 A1075.40783
G1 X27.580 Y24.430 A1075.46734
G1 X27.874 Y23.862 A1075.66186
G1 X27.878 Y23.853 A1075.66479
G1 X28.077 Y23.487 A1075.79215
G1 X28.286 Y23.124 A1075.92007
G1 X28.292 Y23.113 A1075.92376
G1 X28.500 Y22.772 A1076.04697
G1 X28.946 Y22.078 A1076.30101
G1 X28.953 Y22.067 A1076.30468
G1 X29.065 Y21.902 A1076.36548
G1 X29.434 Y21.385 A1076.55874
G1 X29.440 Y21.377 A1076.56168
G1 X29.692 Y21.040 A1076.69034
G1 X29.944 Y20.717 A1076.81548
G1 X29.950 Y20.710 A1076.81845
G1 X30.211 Y20.391 A1076.94423
G1 X30.487 Y20.069 A1077.07375
G1 X30.495 Y20.060 A1077.07740
G1 X30.897 Y19.614 A1077.26244
G1 X31.326 Y19.161 A1077.45457
G1 X31.335 Y19.152 A1077.45820
G1 X31.634 Y18.852 A1077.58774
G1 X31.937 Y18.566 A1077.71492
G1 X31.946 Y18.558 A1077.71855
G1 X32.568 Y17.998 A1077.97643
G1 X32.863 Y17.746 A1078.09575
G1 X32.872 Y17.738 A1078.09947
G1 X33.208 Y17.466 A1078.23170
G1 X33.544 Y17.205 A1078.36177
G1 X33.552 Y17.199 A1078.36479
G1 X33.875 Y16.959 A1078.48803
G1 X34.227 Y16.707 A1078.62029
G1 X34.237 Y16.700 A1078.62396
G1 X34.558 Y16.484 A1078.74324
G1 X35.264 Y16.033 A1079.00109
G1 X35.274 Y16.027 A1079.00471
G1 X35.634 Y15.809 A1079.13317
G1 X35.999 Y15.602 A1079.26152
G1 X36.010 Y15.596 A1079.26520
G1 X36.359 Y15.409 A1079.38728
G1 X37.098 Y15.035 A1079.64233
G1 X37.109 Y15.029 A1079.64601
G1 X37.287 Y14.945 A1079.70570
G1 X37.671 Y14.774 A1079.83359
G1 Z4.500 F7800.000
G1 X38.096 Y14.216
G1 F900
G1 X38.917 Y13.893 A1080.27817
G1 X39.736 Y13.618 A1080.71386
G1 X40.963 Y13.276 A1081.35553
G1 X41.798 Y13.089 A1081.78673
G1 X42.640 Y12.936 A1082.21793
G1 X43.902 Y12.772 A1082.85957
G1 X44.758 Y12.705 A1083.29220
G1 X46.025 Y12.672 A1083.93096
G1 X46.884 Y12.692 A1084.36392
G1 X47.740 Y12.748 A1084.79623
G1 X49.005 Y12.897 A1085.43788
G1 X49.848 Y13.039 A1085.86907
G1 X50.685 Y13.217 A1086.30026
G1 X51.919 Y13.544 A1086.94335
G1 X53.129 Y13.947 A1087.58644
G1 X53.926 Y14.258 A1088.01763
G1 X54.710 Y14.602 A1088.44882
G1 X55.848 Y15.172 A1089.09045
G1 X56.595 Y15.595 A1089.52314
G1 X57.670 Y16.279 A1090.16473
G1 X58.367 Y16.774 A1090.59591
G1 X59.042 Y17.296 A1091.02564
G1 X59.696 Y17.847 A1091.45683
G1 X60.627 Y18.715 A1092.09846
G1 X61.224 Y19.332 A1092.53109
G1 X62.059 Y20.288 A1093.17025
G1 X62.591 Y20.964 A1093.60389
G1 X63.090 Y21.655 A1094.03364
G1 X63.563 Y22.368 A1094.46482
G1 X64.211 Y23.464 A1095.10645
G1 X64.609 Y24.225 A1095.53909
G1 X65.143 Y25.384 A1096.18216
G1 X65.603 Y26.569 A1096.82287
G1 X65.873 Y27.386 A1097.25641
G1 X66.108 Y28.208 A1097.68762
G1 X66.395 Y29.452 A1098.33069
G1 X66.605 Y30.706 A1098.97142
G1 X66.703 Y31.560 A1099.40493
G1 X66.766 Y32.411 A1099.83468
G1 X66.794 Y33.263 A1100.26441
G1 X66.787 Y34.119 A1100.69558
G1 X66.712 Y35.385 A1101.33487
G1 X66.617 Y36.240 A1101.76837
G1 X66.489 Y37.083 A1102.19813
G1 X66.325 Y37.923 A1102.62931
G1 X66.018 Y39.161 A1103.27239
G1 X65.635 Y40.379 A1103.91547
G1 X65.337 Y41.181 A1104.34665
G1 X65.006 Y41.970 A1104.77784
G1 X64.455 Y43.117 A1105.41946
G1 X64.044 Y43.871 A1105.85209
G1 X63.381 Y44.952 A1106.49129
G1 X62.894 Y45.662 A1106.92489
G1 X62.382 Y46.347 A1107.35609
G1 X61.568 Y47.326 A1107.99772
G1 X60.988 Y47.955 A1108.42876
G1 X60.414 Y48.531 A1108.83832
G1 X59.567 Y49.303 A1109.41594
G1 X58.973 Y49.797 A1109.80533
G1 X58.059 Y50.488 A1110.38281
G1 X57.422 Y50.925 A1110.77219
G1 X56.446 Y51.530 A1111.35099
G1 X55.436 Y52.082 A1111.93109
G1 X54.399 Y52.577 A1112.50989
G1 X53.687 Y52.877 A1112.89928
G1 X52.609 Y53.274 A1113.47807
G1 X51.511 Y53.610 A1114.05687
G1 X50.765 Y53.802 A1114.44495
G1 X50.016 Y53.966 A1114.83171
G1 X49.270 Y54.100 A1115.21344
G1 X48.501 Y54.210 A1115.60517
G1 X47.737 Y54.290 A1115.99201
G1 X46.971 Y54.341 A1116.37877
G1 X46.204 Y54.365 A1116.76554
G1 X45.437 Y54.360 A1117.15231
G1 X44.670 Y54.327 A1117.53908
G1 X43.905 Y54.266 A1117.92585
G1 X43.143 Y54.177 A1118.31261
G1 X42.384 Y54.060 A1118.69938
G1 X41.631 Y53.915 A1119.08615
G1 X40.883 Y53.742 A1119.47292
G1 X40.140 Y53.541 A1119.86099
G1 X39.053 Y53.193 A1120.43574
G1 X38.324 Y52.922 A1120.82786
G1 X37.267 Y52.473 A1121.40670
G1 X36.234 Y51.965 A1121.98682
G1 X35.233 Y51.402 A1122.56563
G1 X34.577 Y50.993 A1122.95502
G1 X33.632 Y50.340 A1123.53382
G1 X32.729 Y49.640 A1124.10973
G1 X32.137 Y49.135 A1124.50201
G1 X31.297 Y48.351 A1125.08083
G1 X30.507 Y47.526 A1125.65670
G1 X29.995 Y46.940 A1126.04903
G1 X29.280 Y46.041 A1126.62785
G1 X28.619 Y45.109 A1127.20368
G1 X28.198 Y44.453 A1127.59605
G1 X27.624 Y43.462 A1128.17358
G1 X27.268 Y42.776 A1128.56298
G1 X26.787 Y41.733 A1129.14179
G1 X26.363 Y40.663 A1129.72192
G1 X25.999 Y39.573 A1130.30074
G1 X25.789 Y38.832 A1130.68883
G1 X25.607 Y38.087 A1131.07560
G1 X25.453 Y37.335 A1131.46238
G1 X25.326 Y36.578 A1131.84915
G1 X25.227 Y35.817 A1132.23593
G1 X25.158 Y35.065 A1132.61654
G1 X25.115 Y34.287 A1133.00926
G1 X25.100 Y33.518 A1133.39655
G1 X25.118 Y32.666 A1133.82600
G1 X25.170 Y31.815 A1134.25575
G1 X25.258 Y30.964 A1134.68695
G1 X25.452 Y29.706 A1135.32861
G1 X25.626 Y28.865 A1135.76127
G1 X25.949 Y27.630 A1136.40438
G1 X26.347 Y26.418 A1137.04749
G1 X26.656 Y25.617 A1137.48015
G1 X27.174 Y24.454 A1138.12180
G1 X27.564 Y23.689 A1138.55446
G1 X28.198 Y22.585 A1139.19611
G1 X28.662 Y21.866 A1139.62732
G1 X29.153 Y21.168 A1140.05706
G1 X29.673 Y20.490 A1140.48825
G1 X30.495 Y19.525 A1141.12662
G1 X31.087 Y18.898 A1141.56108
G1 X31.697 Y18.303 A1141.99086
G1 X32.333 Y17.731 A1142.42204
G1 X33.317 Y16.933 A1143.06049
G1 X34.014 Y16.425 A1143.49487
G1 X34.725 Y15.950 A1143.92610
G1 X35.821 Y15.296 A1144.56921
G1 X36.955 Y14.711 A1145.21231
G1 X37.541 Y14.445 A1145.53658
G1 X38.207 Y13.340 F7800.000
G1 X37.636 Y13.149
G1 F900
G1 X38.964 Y12.655 A1146.25073
G1 X39.818 Y12.389 A1146.70148
G1 X41.071 Y12.065 A1147.35378
G1 X42.008 Y11.873 A1147.83536
G1 X43.347 Y11.672 A1148.51822
G1 X44.240 Y11.584 A1148.97029
G1 X45.136 Y11.532 A1149.42249
G1 X46.430 Y11.523 A1150.07471
G1 X47.388 Y11.565 A1150.55783
G1 X48.284 Y11.642 A1151.01107
G1 X49.174 Y11.755 A1151.46314
G1 X50.505 Y11.995 A1152.14481
G1 X51.819 Y12.315 A1152.82649
G1 X52.679 Y12.572 A1153.27855
G1 X53.527 Y12.864 A1153.73062
G1 X54.785 Y13.370 A1154.41375
G1 X55.596 Y13.746 A1154.86435
G1 X56.793 Y14.376 A1155.54616
G1 X57.897 Y15.046 A1156.19674
G1 X58.691 Y15.583 A1156.68002
G1 X59.413 Y16.119 A1157.13326
G1 X60.111 Y16.683 A1157.58533
G1 X61.121 Y17.587 A1158.26845
G1 X61.758 Y18.218 A1158.72051
G1 X62.371 Y18.878 A1159.17402
G1 X62.954 Y19.559 A1159.62609
G1 X63.781 Y20.633 A1160.30921
G1 X64.292 Y21.371 A1160.76126
G1 X64.771 Y22.129 A1161.21332
G1 X65.436 Y23.307 A1161.89499
G1 X66.027 Y24.524 A1162.57665
G1 X66.377 Y25.350 A1163.02871
G1 X66.693 Y26.189 A1163.48077
G1 X67.104 Y27.478 A1164.16257
G1 X67.421 Y28.729 A1164.81300
G1 X67.610 Y29.667 A1165.29510
G1 X67.798 Y30.946 A1165.94670
G1 X67.890 Y31.901 A1166.43013
G1 X67.938 Y32.796 A1166.88191
G1 X67.940 Y34.152 A1167.56503
G1 X67.896 Y35.048 A1168.01709
G1 X67.815 Y35.944 A1168.47060
G1 X67.698 Y36.833 A1168.92266
G1 X67.453 Y38.164 A1169.60432
G1 X67.127 Y39.476 A1170.28598
G1 X66.868 Y40.332 A1170.73672
G1 X66.431 Y41.550 A1171.38862
G1 X66.062 Y42.435 A1171.87203
G1 X65.682 Y43.247 A1172.32395
G1 X65.075 Y44.390 A1172.97587
G1 X64.584 Y45.214 A1173.45926
G1 X64.090 Y45.966 A1173.91250
G1 X63.568 Y46.695 A1174.36456
G1 X62.723 Y47.755 A1175.04768
G1 X62.131 Y48.425 A1175.49843
G1 X61.216 Y49.360 A1176.15757
G1 X60.319 Y50.178 A1176.76962
G1 X59.419 Y50.914 A1177.35513
G1 X58.729 Y51.427 A1177.78881
G1 X57.719 Y52.107 A1178.40208
G1 X56.675 Y52.728 A1179.01429
G1 X55.596 Y53.292 A1179.62782
G1 X54.867 Y53.632 A1180.03337
G1 X53.740 Y54.094 A1180.64689
G1 X52.591 Y54.494 A1181.26041
G1 X51.819 Y54.723 A1181.66597
G1 X50.637 Y55.015 A1182.27949
G1 X49.441 Y55.241 A1182.89302
G1 X48.642 Y55.355 A1183.29989
G1 X47.836 Y55.439 A1183.70806
G1 X47.028 Y55.494 A1184.11624
G1 X46.218 Y55.519 A1184.52441
G1 X45.409 Y55.514 A1184.93259
G1 X44.599 Y55.479 A1185.34077
G1 X43.792 Y55.415 A1185.74895
G1 X42.987 Y55.320 A1186.15712
G1 X42.190 Y55.197 A1186.56399
G1 X40.996 Y54.956 A1187.17752
G1 X39.818 Y54.649 A1187.79106
G1 X39.049 Y54.411 A1188.19662
G1 X37.902 Y53.996 A1188.81146
G1 X37.158 Y53.688 A1189.21702
G1 X36.054 Y53.170 A1189.83186
G1 X35.342 Y52.795 A1190.23742
G1 X34.292 Y52.179 A1190.85096
G1 X33.278 Y51.506 A1191.46450
G1 X32.628 Y51.030 A1191.87006
G1 X31.680 Y50.267 A1192.48360
G1 X30.777 Y49.454 A1193.09583
G1 X29.921 Y48.592 A1193.70805
G1 X29.113 Y47.684 A1194.32041
G1 X28.389 Y46.775 A1194.90636
G1 X27.884 Y46.079 A1195.33963
G1 X27.216 Y45.059 A1195.95423
G1 X26.806 Y44.366 A1196.35979
G1 X26.236 Y43.290 A1196.97334
G1 X25.725 Y42.185 A1197.58688
G1 X25.421 Y41.437 A1197.99375
G1 X25.144 Y40.679 A1198.40063
G1 X24.780 Y39.517 A1199.01417
G1 X24.481 Y38.340 A1199.62640
G1 X24.248 Y37.147 A1200.23864
G1 X24.080 Y35.941 A1200.85218
G1 X24.006 Y35.137 A1201.25906
G1 X23.962 Y34.332 A1201.66578
G1 X23.951 Y33.067 A1202.30331
G1 X23.988 Y32.172 A1202.75435
G1 X24.106 Y30.883 A1203.40692
G1 X24.240 Y29.934 A1203.88971
G1 X24.405 Y29.050 A1204.34297
G1 X24.605 Y28.176 A1204.79505
G1 X24.975 Y26.871 A1205.47820
G1 X25.262 Y26.025 A1205.92882
G1 X25.763 Y24.765 A1206.61197
G1 X26.137 Y23.949 A1207.06404
G1 X26.544 Y23.147 A1207.51758
G1 X26.983 Y22.365 A1207.96965
G1 X27.705 Y21.220 A1208.65148
G1 X28.459 Y20.171 A1209.30252
G1 X29.054 Y19.424 A1209.78405
G1 X29.913 Y18.455 A1210.43626
G1 X30.581 Y17.773 A1210.91781
G1 X31.534 Y16.897 A1211.56999
G1 X32.269 Y16.287 A1212.05143
G1 X33.356 Y15.477 A1212.73430
G1 X34.102 Y14.979 A1213.18637
G1 X34.870 Y14.510 A1213.63990
G1 X35.654 Y14.074 A1214.09211
G1 X37.085 Y13.387 A1214.89215
G1 X38.758 Y14.015 F7800.000
G1 X37.857 Y13.686
G1 F1200
G1 X37.909 Y13.664 A1214.90455
G1 X38.717 Y13.357 A1215.09547
G1 X38.725 Y13.354 A1215.09727
G1 X39.151 Y13.204 A1215.19587
G1 X39.564 Y13.070 A1215.29055
G1 X39.572 Y13.067 A1215.29242
G1 X39.977 Y12.948 A1215.38576
G1 X40.819 Y12.722 A1215.57821
G1 X40.827 Y12.720 A1215.58002
G1 X41.202 Y12.629 A1215.66398
G1 X41.680 Y12.527 A1215.77051
G1 X41.687 Y12.525 A1215.77199
G1 X42.109 Y12.444 A1215.86580
G1 X42.547 Y12.371 A1215.96280
G1 X42.556 Y12.369 A1215.96460
G1 X43.419 Y12.249 A1216.15713
G1 X43.839 Y12.201 A1216.25036
G1 X43.847 Y12.200 A1216.25221
G1 X44.285 Y12.161 A1216.34818
G1 X44.724 Y12.132 A1216.44417
G1 X44.732 Y12.131 A1216.44602
G1 X45.155 Y12.113 A1216.53934
G1 X46.020 Y12.099 A1216.73048
G1 X46.029 Y12.099 A1216.73228
G1 X46.420 Y12.102 A1216.81750
G1 X46.906 Y12.119 A1216.92358
G1 X46.913 Y12.119 A1216.92507
G1 X47.351 Y12.143 A1217.02070
G1 X47.788 Y12.176 A1217.11644
G1 X47.797 Y12.177 A1217.11830
G1 X48.222 Y12.220 A1217.21284
G1 X49.082 Y12.325 A1217.40419
G1 X49.086 Y12.326 A1217.40513
G1 X49.091 Y12.326 A1217.40609
G1 X49.952 Y12.477 A1217.59437
G1 X49.959 Y12.478 A1217.59581
G1 X50.385 Y12.561 A1217.69062
G1 X50.814 Y12.659 A1217.78654
G1 X50.822 Y12.661 A1217.78834
G1 X51.667 Y12.876 A1217.98087
G1 X52.078 Y12.992 A1218.07518
G1 X52.088 Y12.995 A1218.07741
G1 X52.501 Y13.126 A1218.17304
G1 X53.321 Y13.403 A1218.36438
G1 X53.325 Y13.405 A1218.36532
G1 X53.330 Y13.406 A1218.36628
G1 X54.142 Y13.728 A1218.55456
G1 X54.149 Y13.731 A1218.55600
G1 X54.555 Y13.902 A1218.65214
G1 X54.950 Y14.080 A1218.74682
G1 X54.958 Y14.084 A1218.74867
G1 X55.338 Y14.267 A1218.84187
G1 X56.114 Y14.665 A1219.03442
G1 X56.122 Y14.669 A1219.03622
G1 X56.508 Y14.880 A1219.13224
G1 X56.887 Y15.102 A1219.22805
G1 X56.894 Y15.107 A1219.22986
G1 X57.583 Y15.535 A1219.40899
G1 X57.987 Y15.800 A1219.51558
G1 X57.994 Y15.805 A1219.51743
G1 X58.356 Y16.056 A1219.61363
G1 X58.707 Y16.311 A1219.70829
G1 X58.712 Y16.315 A1219.70978
G1 X59.059 Y16.577 A1219.80466
G1 X59.400 Y16.847 A1219.89957
G1 X59.405 Y16.851 A1219.90105
G1 X59.736 Y17.124 A1219.99463
G1 X60.073 Y17.416 A1220.09187
G1 X60.079 Y17.422 A1220.09367
G1 X60.723 Y18.010 A1220.28619
G1 X61.027 Y18.302 A1220.37941
G1 X61.033 Y18.308 A1220.38126
G1 X61.342 Y18.621 A1220.47723
G1 X61.644 Y18.940 A1220.57321
G1 X61.650 Y18.947 A1220.57506
G1 X61.937 Y19.265 A1220.66960
G1 X62.500 Y19.916 A1220.85982
G1 X62.505 Y19.923 A1220.86172
G1 X62.506 Y19.923 A1220.86183
G1 X63.046 Y20.616 A1221.05114
G1 X63.050 Y20.622 A1221.05259
G1 X63.313 Y20.975 A1221.14875
G1 X63.561 Y21.325 A1221.24234
G1 X63.565 Y21.331 A1221.24383
G1 X63.809 Y21.691 A1221.33871
G1 X64.048 Y22.060 A1221.43470
G1 X64.052 Y22.067 A1221.43655
G1 X64.273 Y22.427 A1221.52975
G1 X64.708 Y23.182 A1221.72228
G1 X64.713 Y23.189 A1221.72409
G1 X64.923 Y23.576 A1221.81998
G1 X65.121 Y23.968 A1221.91589
G1 X65.125 Y23.976 A1221.91769
G1 X65.497 Y24.764 A1222.11022
G1 X65.670 Y25.155 A1222.20451
G1 X65.674 Y25.164 A1222.20673
G1 X65.837 Y25.565 A1222.30237
G1 X66.144 Y26.370 A1222.49262
G1 X66.147 Y26.378 A1222.49452
G1 X66.147 Y26.378 A1222.49460
G1 X66.419 Y27.214 A1222.68390
G1 X66.421 Y27.221 A1222.68535
G1 X66.547 Y27.637 A1222.78031
G1 X66.661 Y28.061 A1222.87609
G1 X66.663 Y28.070 A1222.87790
G1 X66.854 Y28.858 A1223.05699
G1 X66.957 Y29.335 A1223.16472
G1 X66.959 Y29.345 A1223.16693
G1 X67.037 Y29.767 A1223.26160
G1 X67.171 Y30.622 A1223.45270
G1 X67.173 Y30.630 A1223.45451
G1 X67.223 Y31.016 A1223.53935
G1 X67.275 Y31.503 A1223.64603
G1 X67.275 Y31.510 A1223.64752
G1 X67.312 Y31.944 A1223.74266
G1 X67.340 Y32.377 A1223.83731
G1 X67.340 Y32.384 A1223.83879
G1 X67.359 Y32.812 A1223.93237
G1 X67.366 Y33.253 A1224.02852
G1 X67.366 Y33.260 A1224.02996
G1 X67.364 Y34.134 A1224.21822
G1 X67.364 Y34.138 A1224.21918
G1 X67.363 Y34.142 A1224.22012
G1 X67.316 Y35.007 A1224.41142
G1 X67.285 Y35.429 A1224.50490
G1 X67.284 Y35.438 A1224.50675
G1 X67.240 Y35.880 A1224.60378
G1 X67.187 Y36.311 A1224.69867
G1 X67.187 Y36.318 A1224.70016
G1 X67.126 Y36.743 A1224.79376
G1 X67.053 Y37.177 A1224.88991
G1 X67.052 Y37.184 A1224.89135
G1 X66.889 Y38.042 A1225.07930
G1 X66.889 Y38.043 A1225.07961
G1 X66.887 Y38.052 A1225.08150
G1 X66.574 Y39.312 A1225.36096
G1 X66.571 Y39.322 A1225.36324
G1 X66.571 Y39.323 A1225.36336
G1 X66.316 Y40.150 A1225.55445
G1 X66.178 Y40.560 A1225.65016
G1 X66.175 Y40.568 A1225.65197
G1 X65.893 Y41.341 A1225.82950
G1 X65.874 Y41.389 A1225.84061
G1 X65.871 Y41.396 A1225.84211
G1 X65.534 Y42.202 A1226.03045
G1 X65.534 Y42.202 A1226.03051
G1 X65.530 Y42.210 A1226.03241
G1 X65.162 Y42.988 A1226.22254
G1 X64.966 Y43.375 A1226.31825
G1 X64.962 Y43.382 A1226.32005
G1 X64.572 Y44.107 A1226.49759
G1 X64.544 Y44.156 A1226.50975
G1 X64.540 Y44.163 A1226.51163
G1 X64.091 Y44.905 A1226.70317
G1 X63.865 Y45.261 A1226.79635
G1 X63.860 Y45.269 A1226.79820
G1 X63.613 Y45.638 A1226.89528
G1 X63.363 Y45.994 A1226.99016
G1 X63.359 Y45.999 A1226.99165
G1 X63.106 Y46.345 A1227.08526
G1 X62.834 Y46.698 A1227.18248
G1 X62.828 Y46.705 A1227.18428
G1 X62.278 Y47.381 A1227.37682
G1 X62.003 Y47.701 A1227.47002
G1 X61.997 Y47.708 A1227.47187
G1 X61.706 Y48.030 A1227.56668
G1 X61.404 Y48.349 A1227.66258
G1 X61.399 Y48.354 A1227.66400
G1 X60.816 Y48.945 A1227.84282
G1 X60.815 Y48.945 A1227.84295
G1 X60.810 Y48.950 A1227.84457
G1 X59.949 Y49.735 A1228.09539
G1 X59.943 Y49.741 A1228.09710
G1 X59.942 Y49.742 A1228.09749
G1 X59.332 Y50.244 A1228.26758
G1 X59.326 Y50.249 A1228.26923
G1 X59.062 Y50.456 A1228.34290
G1 X58.399 Y50.954 A1228.52464
G1 X58.395 Y50.957 A1228.52572
G1 X58.393 Y50.958 A1228.52635
G1 X57.738 Y51.403 A1228.69682
G1 X57.732 Y51.407 A1228.69847
G1 X57.408 Y51.616 A1228.78314
G1 X56.739 Y52.023 A1228.95544
G1 X56.731 Y52.028 A1228.95741
G1 X56.392 Y52.221 A1229.04307
G1 X55.701 Y52.591 A1229.21537
G1 X55.693 Y52.595 A1229.21734
G1 X55.339 Y52.771 A1229.30421
G1 X54.639 Y53.101 A1229.47446
G1 X54.635 Y53.103 A1229.47533
G1 X54.632 Y53.105 A1229.47618
G1 X53.901 Y53.409 A1229.64666
G1 X53.894 Y53.411 A1229.64830
G1 X53.535 Y53.551 A1229.73298
G1 X52.797 Y53.815 A1229.90528
G1 X52.788 Y53.818 A1229.90725
G1 X52.413 Y53.941 A1229.99412
G1 X51.672 Y54.165 A1230.16437
G1 X51.668 Y54.166 A1230.16524
G1 X51.664 Y54.167 A1230.16608
G1 X50.901 Y54.359 A1230.33560
G1 X50.895 Y54.361 A1230.33692
G1 X50.514 Y54.449 A1230.42210
G1 X50.131 Y54.527 A1230.50726
G1 X50.124 Y54.529 A1230.50857
G1 X49.365 Y54.669 A1230.67488
G1 X49.359 Y54.670 A1230.67624
G1 X49.347 Y54.672 A1230.67890
G1 X48.575 Y54.782 A1230.84722
G1 X48.571 Y54.782 A1230.84798
G1 X48.568 Y54.783 A1230.84861
G1 X47.790 Y54.864 A1231.01733
G1 X47.787 Y54.864 A1231.01802
G1 X47.783 Y54.865 A1231.01870
G1 X47.003 Y54.917 A1231.18737
G1 X47.000 Y54.918 A1231.18807
G1 X46.997 Y54.918 A1231.18874
G1 X46.215 Y54.942 A1231.35741
G1 X46.211 Y54.942 A1231.35811
G1 X46.208 Y54.942 A1231.35879
G1 X45.426 Y54.937 A1231.52746
G1 X45.423 Y54.937 A1231.52816
G1 X45.420 Y54.937 A1231.52883
G1 X44.638 Y54.903 A1231.69750
G1 X44.635 Y54.903 A1231.69820
G1 X44.632 Y54.903 A1231.69888
G1 X43.852 Y54.841 A1231.86755
G1 X43.848 Y54.840 A1231.86825
G1 X43.845 Y54.840 A1231.86892
G1 X43.068 Y54.749 A1232.03759
G1 X43.065 Y54.749 A1232.03829
G1 X43.062 Y54.748 A1232.03897
G1 X42.291 Y54.629 A1232.20721
G1 X42.289 Y54.629 A1232.20764
G1 X42.283 Y54.627 A1232.20901
G1 X41.515 Y54.476 A1232.37756
G1 X41.509 Y54.475 A1232.37887
G1 X41.127 Y54.392 A1232.46405
G1 X40.747 Y54.299 A1232.54922
G1 X40.741 Y54.297 A1232.55053
G1 X39.980 Y54.095 A1232.72005
G1 X39.976 Y54.094 A1232.72092
G1 X39.973 Y54.093 A1232.72176
G1 X39.234 Y53.861 A1232.89202
G1 X38.870 Y53.736 A1232.97665
G1 X38.862 Y53.734 A1232.97829
G1 X38.114 Y53.460 A1233.14994
G1 X38.110 Y53.458 A1233.15084
G1 X38.107 Y53.457 A1233.15166
G1 X37.393 Y53.157 A1233.32197
G1 X37.032 Y52.996 A1233.40882
G1 X37.024 Y52.992 A1233.41079
G1 X36.313 Y52.650 A1233.58433
G1 X35.970 Y52.476 A1233.66883
G1 X35.962 Y52.472 A1233.67085
G1 X35.624 Y52.288 A1233.75537
G1 X34.944 Y51.897 A1233.92791
G1 X34.937 Y51.893 A1233.92955
G1 X34.599 Y51.688 A1234.01570
G1 X34.266 Y51.474 A1234.10184
G1 X34.259 Y51.470 A1234.10348
G1 X33.610 Y51.030 A1234.27604
G1 X33.296 Y50.807 A1234.36053
G1 X33.289 Y50.801 A1234.36254
G1 X32.982 Y50.570 A1234.44707
G1 X32.371 Y50.087 A1234.61831
G1 X32.365 Y50.082 A1234.61995
G1 X32.055 Y49.826 A1234.70740
G1 X31.758 Y49.565 A1234.79353
G1 X31.752 Y49.560 A1234.79518
G1 X31.178 Y49.033 A1234.96656
G1 X30.898 Y48.762 A1235.05219
G1 X30.891 Y48.755 A1235.05416
G1 X30.344 Y48.194 A1235.22647
G1 X30.087 Y47.916 A1235.30981
G1 X30.081 Y47.910 A1235.31145
G1 X29.555 Y47.312 A1235.48306
G1 X29.554 Y47.312 A1235.48319
G1 X29.549 Y47.306 A1235.48491
G1 X28.848 Y46.425 A1235.72792
G1 X28.822 Y46.391 A1235.73734
G1 X28.816 Y46.383 A1235.73938
G1 X28.362 Y45.749 A1235.91083
G1 X28.146 Y45.433 A1235.99513
G1 X28.142 Y45.426 A1235.99677
G1 X27.708 Y44.757 A1236.16853
G1 X27.705 Y44.754 A1236.16943
G1 X27.704 Y44.750 A1236.17026
G1 X27.313 Y44.082 A1236.34056
G1 X27.123 Y43.741 A1236.42644
G1 X27.120 Y43.734 A1236.42808
G1 X26.753 Y43.034 A1236.59830
G1 X26.752 Y43.033 A1236.59857
G1 X26.749 Y43.026 A1236.60028
G1 X26.258 Y41.965 A1236.85197
G1 X26.255 Y41.956 A1236.85403
G1 X26.254 Y41.955 A1236.85414
G1 X25.962 Y41.228 A1237.02648
G1 X25.824 Y40.864 A1237.11218
G1 X25.821 Y40.855 A1237.11419
G1 X25.694 Y40.493 A1237.19871
G1 X25.452 Y39.746 A1237.37127
G1 X25.450 Y39.738 A1237.37291
G1 X25.337 Y39.359 A1237.45906
G1 X25.235 Y38.981 A1237.54423
G1 X25.234 Y38.975 A1237.54555
G1 X25.045 Y38.216 A1237.71410
G1 X25.044 Y38.213 A1237.71479
G1 X25.044 Y38.210 A1237.71547
G1 X24.890 Y37.443 A1237.88402
G1 X24.889 Y37.437 A1237.88534
G1 X24.819 Y37.052 A1237.97051
G1 X24.760 Y36.665 A1238.05569
G1 X24.759 Y36.659 A1238.05700
G1 X24.655 Y35.884 A1238.22556
G1 X24.654 Y35.877 A1238.22693
G1 X24.654 Y35.875 A1238.22738
G1 X24.583 Y35.111 A1238.39295
G1 X24.582 Y35.104 A1238.39430
G1 X24.582 Y35.095 A1238.39630
G1 X24.538 Y34.313 A1238.56532
G1 X24.538 Y34.311 A1238.56574
G1 X24.538 Y34.305 A1238.56714
G1 X24.528 Y33.521 A1238.73601
G1 X24.528 Y33.514 A1238.73739
G1 X24.530 Y33.076 A1238.83309
G1 X24.543 Y32.646 A1238.92695
G1 X24.544 Y32.639 A1238.92843
G1 X24.566 Y32.211 A1239.02215
G1 X24.599 Y31.772 A1239.11819
G1 X24.600 Y31.765 A1239.11964
G1 X24.679 Y30.950 A1239.29638
G1 X24.686 Y30.895 A1239.30829
G1 X24.687 Y30.886 A1239.31018
G1 X24.814 Y30.029 A1239.50175
G1 X24.886 Y29.608 A1239.59606
G1 X24.887 Y29.599 A1239.59792
G1 X24.972 Y29.168 A1239.69390
G1 X25.066 Y28.738 A1239.78989
G1 X25.068 Y28.730 A1239.79175
G1 X25.168 Y28.320 A1239.88496
G1 X25.399 Y27.474 A1240.07861
G1 X25.402 Y27.464 A1240.08078
G1 X25.530 Y27.044 A1240.17771
G1 X25.802 Y26.228 A1240.36774
G1 X25.804 Y26.224 A1240.36869
G1 X25.805 Y26.220 A1240.36964
G1 X26.126 Y25.401 A1240.55900
G1 X26.129 Y25.393 A1240.56081
G1 X26.298 Y24.994 A1240.65665
G1 X26.652 Y24.210 A1240.84668
G1 X26.655 Y24.202 A1240.84858
G1 X26.656 Y24.200 A1240.84888
G1 X27.053 Y23.419 A1241.03778
G1 X27.054 Y23.418 A1241.03809
G1 X27.058 Y23.410 A1241.03999
G1 X27.483 Y22.662 A1241.23001
G1 X27.707 Y22.291 A1241.32586
G1 X27.711 Y22.283 A1241.32766
G1 X28.181 Y21.546 A1241.51592
G1 X28.184 Y21.543 A1241.51680
G1 X28.185 Y21.540 A1241.51745
G1 X28.689 Y20.832 A1241.70466
G1 X28.693 Y20.826 A1241.70611
G1 X28.920 Y20.521 A1241.78908
G1 X29.224 Y20.132 A1241.89660
G1 X29.230 Y20.125 A1241.89845
G1 X29.499 Y19.798 A1241.99202
G1 X30.066 Y19.146 A1242.18273
G1 X30.071 Y19.140 A1242.18454
G1 X30.336 Y18.850 A1242.27005
G1 X30.675 Y18.498 A1242.37651
G1 X30.680 Y18.493 A1242.37800
G1 X30.984 Y18.189 A1242.47196
G1 X31.303 Y17.887 A1242.56776
G1 X31.308 Y17.883 A1242.56921
G1 X31.914 Y17.332 A1242.74590
G1 X31.956 Y17.296 A1242.75785
G1 X31.963 Y17.290 A1242.75973
G1 X32.628 Y16.744 A1242.94993
G1 X32.965 Y16.482 A1243.04407
G1 X32.972 Y16.477 A1243.04588
G1 X33.681 Y15.954 A1243.23550
G1 X33.687 Y15.950 A1243.23703
G1 X33.688 Y15.949 A1243.23754
G1 X34.412 Y15.465 A1243.42517
G1 X34.414 Y15.464 A1243.42549
G1 X34.421 Y15.460 A1243.42739
G1 X35.162 Y15.012 A1243.61873
G1 X35.538 Y14.796 A1243.71439
G1 X35.547 Y14.791 A1243.71661
G1 X35.924 Y14.589 A1243.81103
G1 X36.702 Y14.197 A1244.00348
G1 X36.710 Y14.193 A1244.00529
G1 X37.058 Y14.029 A1244.08928
G1 X37.305 Y13.920 A1244.14799
M106 P191.25
G1 Z6.000 F7800.000
G1 X37.777 Y13.483
G1 F900
G1 X38.653 Y13.138 A1244.62224
G1 X39.498 Y12.855 A1245.07137
G1 X40.772 Y12.500 A1245.73771
G1 X41.641 Y12.305 A1246.18668
G1 X42.879 Y12.091 A1246.81999
G1 X43.826 Y11.977 A1247.30053
G1 X44.712 Y11.908 A1247.74835
G1 X45.968 Y11.873 A1248.38172
G1 X46.919 Y11.894 A1248.86114
G1 X47.808 Y11.952 A1249.31016
G1 X49.122 Y12.106 A1249.97651
G1 X50.000 Y12.255 A1250.42563
G1 X51.291 Y12.542 A1251.09197
G1 X52.147 Y12.779 A1251.53963
G1 X52.993 Y13.051 A1251.98729
G1 X54.232 Y13.520 A1252.65509
G1 X55.440 Y14.065 A1253.32288
G1 X56.230 Y14.470 A1253.77054
G1 X57.003 Y14.908 A1254.21813
G1 X58.065 Y15.582 A1254.85169
G1 X58.843 Y16.132 A1255.33189
G1 X59.543 Y16.674 A1255.77839
G1 X60.223 Y17.246 A1256.22605
G1 X61.190 Y18.148 A1256.89239
G1 X61.810 Y18.789 A1257.34150
G1 X62.681 Y19.786 A1258.00914
G1 X63.452 Y20.784 A1258.64436
G1 X63.995 Y21.566 A1259.12443
G1 X64.469 Y22.315 A1259.57093
G1 X64.912 Y23.081 A1260.01713
G1 X65.324 Y23.868 A1260.46479
G1 X65.877 Y25.069 A1261.13112
G1 X66.207 Y25.894 A1261.57877
G1 X66.502 Y26.729 A1262.02497
G1 X66.763 Y27.578 A1262.47263
G1 X67.087 Y28.860 A1263.13896
G1 X67.261 Y29.734 A1263.58807
G1 X67.453 Y31.045 A1264.25570
G1 X67.560 Y32.301 A1264.89101
G1 X67.593 Y33.253 A1265.37099
G1 X67.586 Y34.139 A1265.81749
G1 X67.542 Y35.023 A1266.26369
G1 X67.462 Y35.908 A1266.71134
G1 X67.276 Y37.217 A1267.37767
G1 X67.106 Y38.092 A1267.82678
G1 X66.788 Y39.375 A1268.49311
G1 X66.529 Y40.228 A1268.94223
G1 X66.081 Y41.472 A1269.60856
G1 X65.737 Y42.293 A1270.05752
G1 X65.193 Y43.427 A1270.69132
G1 X64.739 Y44.265 A1271.17135
G1 X64.282 Y45.027 A1271.61931
G1 X63.545 Y46.125 A1272.28564
G1 X63.013 Y46.836 A1272.73330
G1 X62.452 Y47.525 A1273.18096
G1 X61.567 Y48.507 A1273.84714
G1 X60.969 Y49.106 A1274.27380
G1 X60.087 Y49.910 A1274.87498
G1 X59.163 Y50.664 A1275.47601
G1 X58.519 Y51.141 A1275.88022
G1 X57.531 Y51.806 A1276.47993
G1 X56.846 Y52.222 A1276.88414
G1 X55.799 Y52.794 A1277.48518
G1 X54.720 Y53.308 A1278.08752
G1 X53.615 Y53.762 A1278.68986
G1 X52.488 Y54.154 A1279.29089
G1 X51.722 Y54.381 A1279.69379
G1 X50.950 Y54.580 A1280.09538
G1 X50.171 Y54.749 A1280.49697
G1 X49.387 Y54.891 A1280.89856
G1 X48.598 Y55.003 A1281.30015
G1 X47.806 Y55.086 A1281.70175
G1 X47.011 Y55.139 A1282.10334
G1 X46.214 Y55.164 A1282.50493
G1 X45.417 Y55.159 A1282.90652
G1 X44.621 Y55.125 A1283.30811
G1 X43.827 Y55.061 A1283.70970
G1 X43.035 Y54.969 A1284.11130
G1 X42.248 Y54.847 A1284.51289
G1 X41.465 Y54.696 A1284.91448
G1 X40.689 Y54.517 A1285.31608
G1 X39.917 Y54.308 A1285.71898
G1 X38.783 Y53.946 A1286.31871
G1 X38.032 Y53.666 A1286.72293
G1 X36.936 Y53.201 A1287.32266
G1 X36.213 Y52.853 A1287.72688
G1 X35.163 Y52.288 A1288.32792
G1 X34.144 Y51.664 A1288.93027
G1 X33.160 Y50.985 A1289.53249
G1 X32.264 Y50.291 A1290.10357
G1 X31.608 Y49.734 A1290.53761
G1 X30.736 Y48.919 A1291.13879
G1 X29.951 Y48.102 A1291.70983
G1 X29.384 Y47.454 A1292.14391
G1 X28.641 Y46.520 A1292.74524
G1 X27.950 Y45.546 A1293.34746
G1 X27.346 Y44.587 A1293.91844
G1 X26.919 Y43.838 A1294.35258
G1 X26.380 Y42.774 A1294.95391
G1 X25.899 Y41.680 A1295.55627
G1 X25.480 Y40.563 A1296.15731
G1 X25.234 Y39.803 A1296.56022
G1 X25.016 Y39.036 A1296.96182
G1 X24.827 Y38.262 A1297.36342
G1 X24.667 Y37.481 A1297.76502
G1 X24.536 Y36.695 A1298.16662
G1 X24.433 Y35.905 A1298.56822
G1 X24.360 Y35.111 A1298.96982
G1 X24.316 Y34.316 A1299.37117
G1 X24.301 Y33.516 A1299.77461
G1 X24.338 Y32.261 A1300.40721
G1 X24.414 Y31.310 A1300.88819
G1 X24.523 Y30.427 A1301.33617
G1 X24.752 Y29.125 A1302.00253
G1 X24.950 Y28.259 A1302.45020
G1 X25.184 Y27.402 A1302.89788
G1 X25.596 Y26.146 A1303.56423
G1 X25.915 Y25.317 A1304.01190
G1 X26.269 Y24.502 A1304.45958
G1 X26.856 Y23.317 A1305.12593
G1 X27.292 Y22.540 A1305.57490
G1 X27.961 Y21.477 A1306.20788
G1 X28.508 Y20.696 A1306.68877
G1 X29.049 Y19.991 A1307.13660
G1 X29.863 Y19.034 A1307.76961
G1 X30.517 Y18.338 A1308.25046
G1 X31.153 Y17.718 A1308.69844
G1 X32.145 Y16.844 A1309.36479
G1 X32.843 Y16.290 A1309.81392
G1 X33.922 Y15.520 A1310.48173
G1 X35.046 Y14.818 A1311.14953
G1 X35.822 Y14.387 A1311.59720
G1 X36.613 Y13.988 A1312.04341
G1 X37.223 Y13.712 A1312.38080
G1 X37.899 Y12.549 F7800.000
G1 X37.341 Y12.494
G1 F900
G1 X38.729 Y11.975 A1313.12754
G1 X39.620 Y11.696 A1313.59788
G1 X40.515 Y11.457 A1314.06475
G1 X41.881 Y11.165 A1314.76869
G1 X43.262 Y10.957 A1315.47263
G1 X44.184 Y10.866 A1315.93954
G1 X45.109 Y10.813 A1316.40646
G1 X46.502 Y10.804 A1317.10833
G1 X47.435 Y10.846 A1317.57878
G1 X48.358 Y10.926 A1318.04565
G1 X49.744 Y11.117 A1318.75104
G1 X50.651 Y11.290 A1319.21651
G1 X52.004 Y11.620 A1319.91830
G1 X52.896 Y11.886 A1320.38738
G1 X54.208 Y12.352 A1321.08910
G1 X55.071 Y12.709 A1321.55965
G1 X55.912 Y13.099 A1322.02652
G1 X57.150 Y13.751 A1322.73191
G1 X57.944 Y14.223 A1323.19737
G1 X59.104 Y14.994 A1323.89906
G1 X59.854 Y15.550 A1324.36967
G1 X60.575 Y16.132 A1324.83654
G1 X61.618 Y17.065 A1325.54193
G1 X62.273 Y17.716 A1326.00737
G1 X63.215 Y18.751 A1326.71275
G1 X63.801 Y19.465 A1327.17820
G1 X64.633 Y20.591 A1327.88358
G1 X65.143 Y21.361 A1328.34902
G1 X65.855 Y22.566 A1329.05441
G1 X66.285 Y23.386 A1329.52130
G1 X66.681 Y24.224 A1329.98820
G1 X67.214 Y25.518 A1330.69358
G1 X67.522 Y26.389 A1331.15904
G1 X67.918 Y27.724 A1331.86060
G1 X68.138 Y28.632 A1332.33134
G1 X68.319 Y29.543 A1332.79966
G1 X68.462 Y30.458 A1333.26656
G1 X68.608 Y31.847 A1333.97048
G1 X68.668 Y33.243 A1334.67440
G1 X68.660 Y34.167 A1335.13984
G1 X68.577 Y35.564 A1335.84522
G1 X68.475 Y36.485 A1336.31212
G1 X68.335 Y37.401 A1336.77903
G1 X68.056 Y38.764 A1337.48059
G1 X67.821 Y39.668 A1337.95133
G1 X67.552 Y40.555 A1338.41819
G1 X67.078 Y41.872 A1339.12357
G1 X66.720 Y42.726 A1339.59047
G1 X66.326 Y43.568 A1340.05883
G1 X65.898 Y44.393 A1340.52718
G1 X65.438 Y45.197 A1340.99408
G1 X64.684 Y46.373 A1341.69801
G1 X63.859 Y47.500 A1342.40193
G1 X63.274 Y48.218 A1342.86883
G1 X62.660 Y48.913 A1343.33588
G1 X61.716 Y49.879 A1344.01654
G1 X60.789 Y50.723 A1344.64849
G1 X59.817 Y51.516 A1345.28074
G1 X58.800 Y52.256 A1345.91429
G1 X58.106 Y52.714 A1346.33320
G1 X57.026 Y53.357 A1346.96676
G1 X55.912 Y53.939 A1347.60031
G1 X55.158 Y54.290 A1348.01922
G1 X53.995 Y54.767 A1348.65279
G1 X52.814 Y55.178 A1349.28310
G1 X52.011 Y55.416 A1349.70528
G1 X50.790 Y55.718 A1350.33882
G1 X49.562 Y55.951 A1350.96917
G1 X48.730 Y56.069 A1351.39262
G1 X47.898 Y56.157 A1351.81412
G1 X47.063 Y56.213 A1352.23565
G1 X46.240 Y56.238 A1352.65087
G1 X45.391 Y56.234 A1353.07879
G1 X44.555 Y56.198 A1353.50025
G1 X43.721 Y56.131 A1353.92178
G1 X42.891 Y56.034 A1354.34332
G1 X42.066 Y55.906 A1354.76355
G1 X40.838 Y55.658 A1355.39533
G1 X40.025 Y55.455 A1355.81736
G1 X38.819 Y55.093 A1356.45221
G1 X38.034 Y54.818 A1356.87112
G1 X36.868 Y54.347 A1357.50469
G1 X35.733 Y53.814 A1358.13695
G1 X34.626 Y53.218 A1358.77052
G1 X33.913 Y52.791 A1359.18943
G1 X32.865 Y52.096 A1359.82300
G1 X31.860 Y51.345 A1360.45527
G1 X30.900 Y50.543 A1361.08587
G1 X30.283 Y49.977 A1361.50777
G1 X29.395 Y49.083 A1362.14263
G1 X28.836 Y48.467 A1362.56155
G1 X28.036 Y47.498 A1363.19512
G1 X27.290 Y46.486 A1363.82869
G1 X26.828 Y45.795 A1364.24761
G1 X26.179 Y44.718 A1364.88120
G1 X25.592 Y43.613 A1365.51186
G1 X25.234 Y42.856 A1365.93370
G1 X24.749 Y41.696 A1366.56725
G1 X24.330 Y40.514 A1367.19951
G1 X23.977 Y39.310 A1367.83179
G1 X23.691 Y38.091 A1368.46248
G1 X23.538 Y37.269 A1368.88430
G1 X23.365 Y36.021 A1369.51916
G1 X23.288 Y35.190 A1369.93939
G1 X23.242 Y34.358 A1370.35947
G1 X23.231 Y33.052 A1371.01777
G1 X23.269 Y32.126 A1371.48498
G1 X23.345 Y31.202 A1371.95189
G1 X23.531 Y29.815 A1372.65730
G1 X23.700 Y28.907 A1373.12276
G1 X24.026 Y27.546 A1373.82816
G1 X24.287 Y26.660 A1374.29362
G1 X24.750 Y25.339 A1374.99903
G1 X25.101 Y24.481 A1375.46594
G1 X25.487 Y23.639 A1375.93287
G1 X26.131 Y22.403 A1376.63504
G1 X26.604 Y21.599 A1377.10521
G1 X27.108 Y20.818 A1377.57355
G1 X27.641 Y20.061 A1378.04047
G1 X28.505 Y18.959 A1378.74587
G1 X29.111 Y18.262 A1379.21133
G1 X30.082 Y17.254 A1379.91673
G1 X30.756 Y16.623 A1380.38220
G1 X31.820 Y15.724 A1381.08428
G1 X32.563 Y15.159 A1381.55453
G1 X33.325 Y14.627 A1382.02287
G1 X34.106 Y14.128 A1382.48978
G1 X35.322 Y13.435 A1383.19518
G1 X36.147 Y13.020 A1383.66064
G1 X36.792 Y12.736 A1384.01593
G1 X38.509 Y13.406 F7800.000
G1 X37.549 Y12.992
G1 F1200
G1 X37.629 Y12.959 A1384.03075
G1 X38.468 Y12.639 A1384.18493
G1 X38.474 Y12.637 A1384.18599
G1 X38.903 Y12.486 A1384.26287
G1 X39.338 Y12.345 A1384.34010
G1 X39.345 Y12.343 A1384.34119
G1 X39.771 Y12.217 A1384.41761
G1 X40.637 Y11.980 A1384.57194
G1 X40.641 Y11.979 A1384.57250
G1 X40.644 Y11.978 A1384.57307
G1 X41.534 Y11.783 A1384.72440
G1 X41.541 Y11.782 A1384.72543
G1 X41.978 Y11.698 A1384.80174
G1 X42.799 Y11.565 A1384.94425
G1 X42.805 Y11.564 A1384.94528
G1 X43.329 Y11.493 A1385.03490
G1 X43.770 Y11.444 A1385.11021
G1 X43.776 Y11.444 A1385.11113
G1 X44.226 Y11.404 A1385.18757
G1 X44.681 Y11.373 A1385.26459
G1 X44.687 Y11.373 A1385.26566
G1 X45.126 Y11.354 A1385.34104
G1 X45.964 Y11.340 A1385.48460
G1 X45.970 Y11.340 A1385.48563
G1 X46.492 Y11.344 A1385.57403
G1 X46.940 Y11.359 A1385.65013
G1 X46.946 Y11.360 A1385.65105
G1 X47.399 Y11.385 A1385.72786
G1 X47.854 Y11.419 A1385.80495
G1 X47.860 Y11.420 A1385.80605
G1 X48.297 Y11.464 A1385.88143
G1 X49.194 Y11.579 A1386.03665
G1 X49.200 Y11.579 A1386.03770
G1 X49.657 Y11.650 A1386.11573
G1 X50.100 Y11.729 A1386.19185
G1 X50.107 Y11.731 A1386.19294
G1 X50.537 Y11.819 A1386.26833
G1 X51.417 Y12.024 A1386.42354
G1 X51.423 Y12.026 A1386.42459
G1 X51.863 Y12.141 A1386.50140
G1 X52.298 Y12.266 A1386.57785
G1 X52.303 Y12.267 A1386.57873
G1 X52.729 Y12.399 A1386.65402
G1 X53.166 Y12.547 A1386.73203
G1 X53.172 Y12.549 A1386.73308
G1 X54.014 Y12.858 A1386.88707
G1 X54.433 Y13.024 A1386.96453
G1 X54.441 Y13.027 A1386.96583
G1 X54.853 Y13.206 A1387.04310
G1 X55.670 Y13.579 A1387.19742
G1 X55.673 Y13.580 A1387.19798
G1 X55.677 Y13.582 A1387.19855
G1 X56.481 Y14.000 A1387.34913
G1 X56.486 Y14.003 A1387.34997
G1 X56.886 Y14.222 A1387.42715
G1 X57.276 Y14.448 A1387.50321
G1 X57.281 Y14.451 A1387.50428
G1 X57.656 Y14.681 A1387.57962
G1 X58.359 Y15.138 A1387.72327
G1 X58.364 Y15.141 A1387.72430
G1 X58.793 Y15.436 A1387.81255
G1 X59.159 Y15.700 A1387.88906
G1 X59.163 Y15.704 A1387.88998
G1 X59.524 Y15.977 A1387.96643
G1 X59.877 Y16.256 A1388.04267
G1 X59.881 Y16.260 A1388.04355
G1 X60.225 Y16.543 A1388.11881
G1 X60.574 Y16.845 A1388.19684
G1 X60.579 Y16.850 A1388.19789
G1 X61.246 Y17.460 A1388.35309
G1 X61.562 Y17.764 A1388.42848
G1 X61.567 Y17.769 A1388.42957
G1 X61.884 Y18.089 A1388.50567
G1 X62.199 Y18.426 A1388.58370
G1 X62.204 Y18.430 A1388.58476
G1 X62.805 Y19.105 A1388.73996
G1 X63.092 Y19.444 A1388.81610
G1 X63.097 Y19.450 A1388.81739
G1 X63.374 Y19.798 A1388.89360
G1 X63.879 Y20.467 A1389.03729
G1 X63.883 Y20.472 A1389.03832
G1 X64.190 Y20.900 A1389.12777
G1 X64.440 Y21.268 A1389.20307
G1 X64.443 Y21.273 A1389.20399
G1 X64.685 Y21.647 A1389.27943
G1 X64.924 Y22.037 A1389.35662
G1 X64.926 Y22.041 A1389.35746
G1 X65.381 Y22.820 A1389.50718
G1 X65.384 Y22.825 A1389.50808
G1 X65.385 Y22.827 A1389.50856
G1 X65.804 Y23.626 A1389.65843
G1 X65.805 Y23.628 A1389.65880
G1 X65.808 Y23.634 A1389.65993
G1 X66.185 Y24.443 A1389.81325
G1 X66.365 Y24.856 A1389.89061
G1 X66.368 Y24.862 A1389.89166
G1 X66.709 Y25.702 A1390.04221
G1 X66.711 Y25.707 A1390.04311
G1 X66.712 Y25.710 A1390.04359
G1 X67.010 Y26.555 A1390.19253
G1 X67.011 Y26.558 A1390.19301
G1 X67.013 Y26.563 A1390.19391
G1 X67.275 Y27.431 A1390.34445
G1 X67.277 Y27.437 A1390.34551
G1 X67.395 Y27.865 A1390.42154
G1 X67.611 Y28.738 A1390.57606
G1 X67.612 Y28.745 A1390.57719
G1 X67.613 Y28.747 A1390.57758
G1 X67.790 Y29.637 A1390.72836
G1 X67.790 Y29.639 A1390.72873
G1 X67.791 Y29.646 A1390.72986
G1 X67.925 Y30.528 A1390.88318
G1 X67.981 Y30.980 A1390.96130
G1 X67.982 Y30.987 A1390.96254
G1 X68.068 Y31.887 A1391.11714
G1 X68.092 Y32.266 A1391.18200
G1 X68.092 Y32.272 A1391.18304
G1 X68.130 Y33.243 A1391.34423
G1 X68.130 Y33.248 A1391.34518
G1 X68.130 Y33.252 A1391.34584
G1 X68.123 Y34.148 A1391.49476
G1 X68.123 Y34.151 A1391.49525
G1 X68.123 Y34.157 A1391.49615
G1 X68.074 Y35.057 A1391.64587
G1 X68.073 Y35.063 A1391.64671
G1 X68.039 Y35.518 A1391.72389
G1 X67.994 Y35.966 A1391.80000
G1 X67.994 Y35.973 A1391.80109
G1 X67.938 Y36.414 A1391.87749
G1 X67.807 Y37.303 A1392.03181
G1 X67.806 Y37.306 A1392.03238
G1 X67.806 Y37.309 A1392.03294
G1 X67.627 Y38.203 A1392.18433
G1 X67.626 Y38.210 A1392.18538
G1 X67.528 Y38.642 A1392.26142
G1 X67.306 Y39.514 A1392.41593
G1 X67.305 Y39.521 A1392.41706
G1 X67.304 Y39.523 A1392.41746
G1 X67.042 Y40.386 A1392.56730
G1 X67.040 Y40.393 A1392.56861
G1 X67.038 Y40.400 A1392.56973
G1 X66.583 Y41.663 A1392.79243
G1 X66.580 Y41.670 A1392.79356
G1 X66.577 Y41.677 A1392.79487
G1 X66.229 Y42.509 A1392.94473
G1 X66.228 Y42.510 A1392.94502
G1 X66.225 Y42.516 A1392.94613
G1 X65.841 Y43.329 A1393.10004
G1 X65.671 Y43.668 A1393.16494
G1 X65.668 Y43.674 A1393.16601
G1 X65.424 Y44.135 A1393.25453
G1 X65.205 Y44.527 A1393.33082
G1 X65.202 Y44.532 A1393.33174
G1 X64.977 Y44.918 A1393.40718
G1 X64.733 Y45.310 A1393.48520
G1 X64.730 Y45.315 A1393.48625
G1 X64.237 Y46.066 A1393.64042
G1 X63.982 Y46.430 A1393.71674
G1 X63.978 Y46.436 A1393.71779
G1 X63.438 Y47.165 A1393.86834
G1 X63.435 Y47.169 A1393.86924
G1 X63.433 Y47.171 A1393.86973
G1 X62.864 Y47.871 A1394.01960
G1 X62.863 Y47.872 A1394.01997
G1 X62.858 Y47.878 A1394.02110
G1 X62.263 Y48.544 A1394.17452
G1 X61.955 Y48.871 A1394.25170
G1 X61.951 Y48.876 A1394.25274
G1 X61.342 Y49.492 A1394.39655
G1 X61.342 Y49.492 A1394.39659
G1 X61.338 Y49.496 A1394.39763
G1 X60.441 Y50.314 A1394.59904
G1 X60.438 Y50.317 A1394.59966
G1 X60.435 Y50.319 A1394.60026
G1 X59.495 Y51.086 A1394.80159
G1 X59.491 Y51.089 A1394.80260
G1 X59.489 Y51.091 A1394.80294
G1 X58.829 Y51.575 A1394.93893
G1 X58.824 Y51.579 A1394.93989
G1 X58.492 Y51.811 A1395.00911
G1 X57.824 Y52.257 A1395.14630
G1 X57.821 Y52.258 A1395.14681
G1 X57.818 Y52.260 A1395.14731
G1 X57.115 Y52.683 A1395.28365
G1 X57.110 Y52.686 A1395.28461
G1 X56.762 Y52.884 A1395.35292
G1 X56.045 Y53.267 A1395.49165
G1 X56.039 Y53.271 A1395.49280
G1 X55.672 Y53.454 A1395.56279
G1 X54.943 Y53.798 A1395.70050
G1 X54.942 Y53.798 A1395.70073
G1 X54.935 Y53.801 A1395.70195
G1 X53.809 Y54.263 A1395.90402
G1 X53.805 Y54.265 A1395.90465
G1 X53.802 Y54.266 A1395.90524
G1 X52.656 Y54.664 A1396.10667
G1 X52.650 Y54.666 A1396.10768
G1 X52.649 Y54.667 A1396.10781
G1 X51.870 Y54.898 A1396.24297
G1 X51.867 Y54.898 A1396.24338
G1 X51.863 Y54.900 A1396.24420
G1 X51.076 Y55.098 A1396.37903
G1 X51.071 Y55.099 A1396.37980
G1 X50.676 Y55.191 A1396.44820
G1 X50.278 Y55.272 A1396.51656
G1 X50.273 Y55.273 A1396.51733
G1 X49.475 Y55.421 A1396.65223
G1 X49.474 Y55.421 A1396.65244
G1 X49.470 Y55.421 A1396.65304
G1 X48.666 Y55.536 A1396.78800
G1 X48.664 Y55.536 A1396.78843
G1 X48.662 Y55.536 A1396.78882
G1 X47.854 Y55.621 A1396.92378
G1 X47.852 Y55.621 A1396.92420
G1 X47.849 Y55.621 A1396.92460
G1 X47.039 Y55.676 A1397.05956
G1 X47.037 Y55.676 A1397.05998
G1 X47.034 Y55.676 A1397.06038
G1 X46.233 Y55.701 A1397.19370
G1 X46.223 Y55.701 A1397.19535
G1 X46.218 Y55.701 A1397.19616
G1 X45.406 Y55.696 A1397.33112
G1 X45.404 Y55.696 A1397.33158
G1 X45.402 Y55.696 A1397.33194
G1 X44.591 Y55.661 A1397.46690
G1 X44.588 Y55.661 A1397.46732
G1 X44.586 Y55.661 A1397.46772
G1 X43.776 Y55.596 A1397.60269
G1 X43.774 Y55.596 A1397.60310
G1 X43.772 Y55.596 A1397.60351
G1 X42.965 Y55.501 A1397.73847
G1 X42.963 Y55.501 A1397.73889
G1 X42.960 Y55.501 A1397.73929
G1 X42.161 Y55.377 A1397.87384
G1 X42.158 Y55.377 A1397.87426
G1 X42.153 Y55.376 A1397.87507
G1 X41.357 Y55.219 A1398.00992
G1 X41.352 Y55.218 A1398.01069
G1 X40.956 Y55.132 A1398.07894
G1 X40.561 Y55.037 A1398.14749
G1 X40.556 Y55.036 A1398.14829
G1 X40.168 Y54.935 A1398.21587
G1 X39.769 Y54.821 A1398.28587
G1 X39.763 Y54.819 A1398.28683
G1 X38.986 Y54.578 A1398.42573
G1 X38.611 Y54.453 A1398.49318
G1 X38.606 Y54.451 A1398.49417
G1 X38.224 Y54.313 A1398.56249
G1 X37.837 Y54.163 A1398.63252
G1 X37.832 Y54.161 A1398.63348
G1 X37.085 Y53.851 A1398.77147
G1 X36.719 Y53.688 A1398.83977
G1 X36.714 Y53.685 A1398.84073
G1 X35.974 Y53.334 A1398.97674
G1 X35.972 Y53.333 A1398.97707
G1 X35.967 Y53.331 A1398.97809
G1 X34.899 Y52.755 A1399.17944
G1 X34.892 Y52.752 A1399.18066
G1 X34.891 Y52.751 A1399.18090
G1 X34.201 Y52.333 A1399.31863
G1 X33.856 Y52.113 A1399.38862
G1 X33.850 Y52.109 A1399.38977
G1 X33.177 Y51.653 A1399.52852
G1 X32.848 Y51.418 A1399.59751
G1 X32.843 Y51.413 A1399.59864
G1 X32.195 Y50.921 A1399.73711
G1 X31.930 Y50.708 A1399.79493
G1 X31.926 Y50.704 A1399.79588
G1 X31.254 Y50.138 A1399.94187
G1 X31.253 Y50.137 A1399.94212
G1 X31.248 Y50.133 A1399.94318
G1 X30.658 Y49.587 A1400.08057
G1 X30.364 Y49.302 A1400.15046
G1 X30.359 Y49.297 A1400.15159
G1 X29.787 Y48.711 A1400.29097
G1 X29.559 Y48.466 A1400.34792
G1 X29.555 Y48.462 A1400.34890
G1 X29.245 Y48.114 A1400.42766
G1 X28.976 Y47.799 A1400.49769
G1 X28.972 Y47.794 A1400.49869
G1 X28.462 Y47.165 A1400.63684
G1 X28.216 Y46.844 A1400.70591
G1 X28.212 Y46.838 A1400.70707
G1 X27.733 Y46.175 A1400.84674
G1 X27.507 Y45.846 A1400.91488
G1 X27.503 Y45.840 A1400.91605
G1 X27.285 Y45.505 A1400.98429
G1 X26.889 Y44.864 A1401.11266
G1 X26.886 Y44.859 A1401.11361
G1 X26.648 Y44.452 A1401.19322
G1 X26.451 Y44.094 A1401.26234
G1 X26.448 Y44.088 A1401.26334
G1 X26.076 Y43.370 A1401.40145
G1 X25.897 Y43.006 A1401.47064
G1 X25.894 Y43.000 A1401.47182
G1 X25.728 Y42.636 A1401.54007
G1 X25.406 Y41.884 A1401.67972
G1 X25.403 Y41.878 A1401.68087
G1 X25.254 Y41.502 A1401.74995
G1 X24.977 Y40.742 A1401.88794
G1 X24.975 Y40.736 A1401.88890
G1 X24.843 Y40.348 A1401.95805
G1 X24.724 Y39.960 A1402.02643
G1 X24.722 Y39.955 A1402.02720
G1 X24.497 Y39.175 A1402.16206
G1 X24.497 Y39.173 A1402.16248
G1 X24.496 Y39.171 A1402.16287
G1 X24.307 Y38.381 A1402.29773
G1 X24.306 Y38.376 A1402.29850
G1 X24.219 Y37.980 A1402.36682
G1 X24.141 Y37.582 A1402.43532
G1 X24.140 Y37.577 A1402.43612
G1 X24.070 Y37.182 A1402.50370
G1 X24.008 Y36.776 A1402.57296
G1 X24.008 Y36.771 A1402.57373
G1 X23.900 Y35.967 A1402.70859
G1 X23.899 Y35.962 A1402.70940
G1 X23.899 Y35.959 A1402.70984
G1 X23.824 Y35.153 A1402.84438
G1 X23.824 Y35.151 A1402.84479
G1 X23.824 Y35.148 A1402.84520
G1 X23.779 Y34.341 A1402.97966
G1 X23.779 Y34.338 A1402.98010
G1 X23.779 Y34.334 A1402.98092
G1 X23.768 Y33.516 A1403.11674
G1 X23.768 Y33.510 A1403.11774
G1 X23.773 Y33.061 A1403.19474
G1 X23.802 Y32.235 A1403.33645
G1 X23.802 Y32.228 A1403.33755
G1 X23.807 Y32.159 A1403.34926
G1 X23.879 Y31.260 A1403.50024
G1 X23.880 Y31.258 A1403.50050
G1 X23.880 Y31.253 A1403.50145
G1 X23.996 Y30.352 A1403.65221
G1 X23.997 Y30.345 A1403.65326
G1 X24.066 Y29.900 A1403.73064
G1 X24.225 Y29.022 A1403.88399
G1 X24.225 Y29.019 A1403.88455
G1 X24.226 Y29.015 A1403.88512
G1 X24.433 Y28.132 A1404.03573
G1 X24.434 Y28.127 A1404.03657
G1 X24.547 Y27.685 A1404.11377
G1 X24.670 Y27.251 A1404.18989
G1 X24.672 Y27.245 A1404.19099
G1 X24.802 Y26.826 A1404.26638
G1 X25.093 Y25.970 A1404.42162
G1 X25.095 Y25.964 A1404.42267
G1 X25.255 Y25.530 A1404.50071
G1 X25.419 Y25.117 A1404.57599
G1 X25.421 Y25.112 A1404.57687
G1 X25.596 Y24.696 A1404.65314
G1 X25.782 Y24.280 A1404.73025
G1 X25.785 Y24.273 A1404.73135
G1 X25.974 Y23.877 A1404.80675
G1 X26.384 Y23.071 A1404.96198
G1 X26.387 Y23.066 A1404.96303
G1 X26.603 Y22.665 A1405.03998
G1 X26.830 Y22.270 A1405.11707
G1 X26.834 Y22.264 A1405.11813
G1 X27.065 Y21.883 A1405.19455
G1 X27.512 Y21.183 A1405.33708
G1 X27.515 Y21.177 A1405.33818
G1 X27.554 Y21.119 A1405.34985
G1 X28.073 Y20.381 A1405.50082
G1 X28.074 Y20.380 A1405.50109
G1 X28.077 Y20.375 A1405.50204
G1 X28.633 Y19.658 A1405.65271
G1 X28.637 Y19.653 A1405.65374
G1 X28.922 Y19.304 A1405.73109
G1 X29.460 Y18.678 A1405.87265
G1 X29.465 Y18.673 A1405.87375
G1 X29.508 Y18.626 A1405.88445
G1 X30.135 Y17.967 A1406.03651
G1 X30.138 Y17.963 A1406.03740
G1 X30.461 Y17.639 A1406.11477
G1 X30.787 Y17.327 A1406.19090
G1 X30.792 Y17.323 A1406.19199
G1 X31.117 Y17.028 A1406.26739
G1 X31.801 Y16.437 A1406.42261
G1 X31.806 Y16.433 A1406.42367
G1 X32.158 Y16.145 A1406.50058
G1 X32.519 Y15.864 A1406.57779
G1 X32.524 Y15.860 A1406.57888
G1 X32.882 Y15.596 A1406.65530
G1 X33.620 Y15.076 A1406.81049
G1 X33.623 Y15.073 A1406.81116
G1 X33.627 Y15.071 A1406.81184
G1 X34.386 Y14.592 A1406.96603
G1 X34.772 Y14.361 A1407.04341
G1 X34.778 Y14.358 A1407.04446
G1 X35.569 Y13.913 A1407.19503
G1 X35.573 Y13.910 A1407.19594
G1 X35.576 Y13.909 A1407.19641
G1 X36.376 Y13.506 A1407.34537
G1 X36.379 Y13.505 A1407.34586
G1 X36.384 Y13.503 A1407.34676
G1 X36.997 Y13.228 A1407.45831
M106 P188.7
G1 Z7.500 F7800.000
G1 X37.502 Y12.871
G1 F900
G1 X38.427 Y12.508 A1407.95959
G1 X39.298 Y12.216 A1408.42253
G1 X40.612 Y11.850 A1409.10959
G1 X41.506 Y11.649 A1409.57157
G1 X42.525 Y11.467 A1410.09292
G1 X43.759 Y11.310 A1410.71986
G1 X44.672 Y11.239 A1411.18157
G1 X45.706 Y11.205 A1411.70297
G1 X46.948 Y11.225 A1412.32884
G1 X47.866 Y11.285 A1412.79250
G1 X49.220 Y11.444 A1413.47956
G1 X50.126 Y11.597 A1413.94249
G1 X51.457 Y11.893 A1414.62954
G1 X52.339 Y12.137 A1415.09101
G1 X53.211 Y12.417 A1415.55248
G1 X54.489 Y12.901 A1416.24099
G1 X55.734 Y13.462 A1416.92950
G1 X56.549 Y13.881 A1417.39097
G1 X57.346 Y14.332 A1417.85255
G1 X58.498 Y15.066 A1418.54094
G1 X59.604 Y15.868 A1419.22945
G1 X60.316 Y16.443 A1419.69092
G1 X61.003 Y17.045 A1420.15093
G1 X61.666 Y17.677 A1420.61239
G1 X62.604 Y18.666 A1421.29944
G1 X63.199 Y19.362 A1421.76091
G1 X63.764 Y20.080 A1422.22144
G1 X64.368 Y20.921 A1422.74323
G1 X65.041 Y21.966 A1423.36971
G1 X65.499 Y22.758 A1423.83089
G1 X65.924 Y23.569 A1424.29235
G1 X66.494 Y24.808 A1424.97940
G1 X66.835 Y25.659 A1425.44138
G1 X67.176 Y26.637 A1425.96323
G1 X67.527 Y27.829 A1426.58965
G1 X67.743 Y28.721 A1427.05228
G1 X67.995 Y30.061 A1427.73933
G1 X68.118 Y30.968 A1428.20079
G1 X68.204 Y31.880 A1428.66226
G1 X68.263 Y33.242 A1429.34930
G1 X68.255 Y34.158 A1429.81077
G1 X68.210 Y35.072 A1430.27223
G1 X68.074 Y36.429 A1430.95928
G1 X67.936 Y37.335 A1431.42126
G1 X67.734 Y38.351 A1431.94312
G1 X67.432 Y39.557 A1432.56953
G1 X67.166 Y40.435 A1433.03216
G1 X66.704 Y41.718 A1433.71920
G1 X66.349 Y42.565 A1434.18213
G1 X65.757 Y43.796 A1434.87063
G1 X65.091 Y44.989 A1435.55913
G1 X64.604 Y45.765 A1436.02060
G1 X64.088 Y46.518 A1436.48061
G1 X63.541 Y47.249 A1436.94113
G1 X62.884 Y48.050 A1437.46290
G1 X62.050 Y48.971 A1438.08926
G1 X61.434 Y49.588 A1438.52876
G1 X60.525 Y50.417 A1439.14857
G1 X59.572 Y51.194 A1439.76824
G1 X58.908 Y51.687 A1440.18488
G1 X57.889 Y52.372 A1440.80371
G1 X57.089 Y52.855 A1441.27451
G1 X56.104 Y53.391 A1441.83980
G1 X54.994 Y53.920 A1442.45922
G1 X54.232 Y54.241 A1442.87586
G1 X53.079 Y54.666 A1443.49553
G1 X51.903 Y55.026 A1444.11521
G1 X51.105 Y55.231 A1444.53054
G1 X50.302 Y55.407 A1444.94456
G1 X49.493 Y55.552 A1445.35858
G1 X48.678 Y55.668 A1445.77370
G1 X47.642 Y55.768 A1446.29817
G1 X46.227 Y55.834 A1447.01227
G1 X45.398 Y55.829 A1447.42961
G1 X44.359 Y55.776 A1447.95396
G1 X42.949 Y55.633 A1448.66818
G1 X42.133 Y55.507 A1449.08442
G1 X41.326 Y55.352 A1449.49844
G1 X40.526 Y55.167 A1449.91246
G1 X39.733 Y54.952 A1450.32649
G1 X38.946 Y54.708 A1450.74182
G1 X37.789 Y54.291 A1451.36150
G1 X36.655 Y53.809 A1451.98249
G1 X35.549 Y53.265 A1452.60349
G1 X34.477 Y52.662 A1453.22317
G1 X33.778 Y52.225 A1453.63851
G1 X33.096 Y51.763 A1454.05384
G1 X32.111 Y51.028 A1454.67353
G1 X31.165 Y50.237 A1455.29452
G1 X30.265 Y49.396 A1455.91552
G1 X29.413 Y48.506 A1456.53652
G1 X28.611 Y47.571 A1457.15752
G1 X27.863 Y46.594 A1457.77720
G1 X27.391 Y45.915 A1458.19385
G1 X26.737 Y44.876 A1458.81269
G1 X26.280 Y44.063 A1459.28292
G1 X25.774 Y43.060 A1459.84881
G1 X25.278 Y41.933 A1460.46956
G1 X24.846 Y40.781 A1461.08925
G1 X24.592 Y39.995 A1461.50568
G1 X24.316 Y38.993 A1462.02929
G1 X24.009 Y37.608 A1462.74427
G1 X23.873 Y36.793 A1463.16052
G1 X23.767 Y35.979 A1463.57455
G1 X23.692 Y35.161 A1463.98858
G1 X23.647 Y34.341 A1464.40226
G1 X23.631 Y33.518 A1464.81692
G1 X23.650 Y32.603 A1465.27811
G1 X23.748 Y31.244 A1465.96518
G1 X23.860 Y30.332 A1466.42812
G1 X24.096 Y28.989 A1467.11519
G1 X24.300 Y28.095 A1467.57718
G1 X24.576 Y27.099 A1468.09816
G1 X24.966 Y25.917 A1468.72549
G1 X25.296 Y25.062 A1469.18720
G1 X25.710 Y24.115 A1469.70820
G1 X26.267 Y22.998 A1470.33696
G1 X26.947 Y21.814 A1471.02520
G1 X27.444 Y21.044 A1471.48719
G1 X28.042 Y20.201 A1472.00824
G1 X28.812 Y19.222 A1472.63550
G1 X29.413 Y18.532 A1473.09670
G1 X30.039 Y17.868 A1473.55672
G1 X30.693 Y17.231 A1474.01674
G1 X31.374 Y16.619 A1474.47822
G1 X32.433 Y15.760 A1475.16528
G1 X33.173 Y15.221 A1475.62676
G1 X33.934 Y14.712 A1476.08824
G1 X35.105 Y14.013 A1476.77530
G1 X35.917 Y13.584 A1477.23824
G1 X36.949 Y13.104 A1477.81162
G1 X37.626 Y11.885 F7800.000
G1 X37.087 Y11.931
G1 F900
G1 X38.447 Y11.419 A1478.54396
G1 X39.446 Y11.104 A1479.07203
G1 X40.742 Y10.769 A1479.74657
G1 X41.769 Y10.557 A1480.27471
G1 X43.092 Y10.356 A1480.94918
G1 X44.137 Y10.250 A1481.47862
G1 X45.087 Y10.196 A1481.95807
G1 X46.426 Y10.185 A1482.63286
G1 X47.476 Y10.230 A1483.16239
G1 X48.426 Y10.312 A1483.64308
G1 X49.370 Y10.432 A1484.12272
G1 X50.783 Y10.686 A1484.84597
G1 X52.081 Y11.001 A1485.51915
G1 X53.086 Y11.298 A1486.04736
G1 X54.440 Y11.779 A1486.77145
G1 X55.319 Y12.144 A1487.25108
G1 X56.185 Y12.545 A1487.73218
G1 X57.034 Y12.981 A1488.21327
G1 X57.862 Y13.450 A1488.69291
G1 X59.075 Y14.222 A1489.41740
G1 X59.849 Y14.771 A1489.89558
G1 X60.977 Y15.663 A1490.62006
G1 X61.690 Y16.288 A1491.09824
G1 X62.721 Y17.290 A1491.82272
G1 X63.369 Y17.987 A1492.30236
G1 X63.990 Y18.713 A1492.78345
G1 X64.578 Y19.461 A1493.26309
G1 X65.408 Y20.634 A1493.98757
G1 X65.916 Y21.436 A1494.46575
G1 X66.622 Y22.688 A1495.19023
G1 X67.045 Y23.538 A1495.66841
G1 X67.620 Y24.856 A1496.39289
G1 X67.954 Y25.744 A1496.87106
G1 X68.391 Y27.113 A1497.59555
G1 X68.633 Y28.031 A1498.07372
G1 X68.927 Y29.435 A1498.79696
G1 X69.122 Y30.756 A1499.46969
G1 X69.224 Y31.800 A1499.99835
G1 X69.285 Y33.235 A1500.72242
G1 X69.278 Y34.185 A1501.20081
G1 X69.200 Y35.520 A1501.87500
G1 X69.087 Y36.566 A1502.40511
G1 X68.944 Y37.507 A1502.88455
G1 X68.677 Y38.817 A1503.55875
G1 X68.416 Y39.836 A1504.08884
G1 X68.140 Y40.747 A1504.56828
G1 X67.688 Y42.006 A1505.24251
G1 X67.285 Y42.978 A1505.77258
G1 X66.881 Y43.839 A1506.25202
G1 X66.255 Y45.021 A1506.92629
G1 X65.717 Y45.925 A1507.45632
G1 X65.193 Y46.722 A1507.93700
G1 X64.639 Y47.496 A1508.41664
G1 X63.743 Y48.620 A1509.14112
G1 X63.114 Y49.331 A1509.61945
G1 X62.144 Y50.323 A1510.31857
G1 X61.193 Y51.191 A1510.96772
G1 X60.194 Y52.006 A1511.61715
G1 X59.150 Y52.765 A1512.26790
G1 X58.436 Y53.236 A1512.69846
G1 X57.402 Y53.853 A1513.30552
G1 X56.571 Y54.300 A1513.78105
G1 X55.406 Y54.856 A1514.43163
G1 X54.294 Y55.314 A1515.03745
G1 X53.407 Y55.634 A1515.51291
G1 X52.173 Y56.012 A1516.16330
G1 X50.920 Y56.322 A1516.81405
G1 X50.082 Y56.489 A1517.24442
G1 X48.803 Y56.683 A1517.89648
G1 X47.951 Y56.772 A1518.32816
G1 X47.094 Y56.830 A1518.76116
G1 X46.412 Y56.851 A1519.10482
G1 X45.374 Y56.851 A1519.62798
G1 X44.517 Y56.814 A1520.06009
G1 X43.661 Y56.746 A1520.49308
G1 X42.807 Y56.646 A1520.92607
G1 X41.958 Y56.515 A1521.35907
G1 X41.117 Y56.353 A1521.79094
G1 X39.944 Y56.072 A1522.39842
G1 X39.038 Y55.812 A1522.87355
G1 X37.817 Y55.396 A1523.52394
G1 X36.621 Y54.914 A1524.17339
G1 X35.455 Y54.366 A1524.82284
G1 X34.318 Y53.754 A1525.47359
G1 X33.585 Y53.315 A1525.90397
G1 X32.507 Y52.599 A1526.55604
G1 X31.818 Y52.095 A1526.98641
G1 X30.812 Y51.285 A1527.63717
G1 X29.855 Y50.422 A1528.28662
G1 X28.946 Y49.508 A1528.93607
G1 X28.090 Y48.546 A1529.58552
G1 X27.286 Y47.535 A1530.23628
G1 X26.786 Y46.843 A1530.66666
G1 X26.078 Y45.762 A1531.31761
G1 X25.474 Y44.721 A1531.92412
G1 X25.038 Y43.886 A1532.39910
G1 X24.531 Y42.792 A1533.00659
G1 X24.173 Y41.920 A1533.48136
G1 X23.742 Y40.704 A1534.13195
G1 X23.402 Y39.549 A1534.73851
G1 X23.176 Y38.634 A1535.21326
G1 X22.928 Y37.368 A1535.86366
G1 X22.751 Y36.089 A1536.51443
G1 X22.672 Y35.236 A1536.94612
G1 X22.625 Y34.381 A1537.37766
G1 X22.614 Y33.039 A1538.05378
G1 X22.653 Y32.088 A1538.53372
G1 X22.731 Y31.136 A1539.01483
G1 X22.847 Y30.192 A1539.49448
G1 X23.096 Y28.776 A1540.21898
G1 X23.308 Y27.851 A1540.69717
G1 X23.699 Y26.470 A1541.42022
G1 X24.174 Y25.116 A1542.14327
G1 X24.534 Y24.236 A1542.62291
G1 X24.931 Y23.370 A1543.10256
G1 X25.595 Y22.096 A1543.82707
G1 X26.077 Y21.277 A1544.30547
G1 X26.813 Y20.158 A1544.98077
G1 X27.432 Y19.310 A1545.50980
G1 X28.028 Y18.565 A1545.99050
G1 X28.653 Y17.847 A1546.47015
G1 X29.651 Y16.812 A1547.19465
G1 X30.344 Y16.163 A1547.67305
G1 X31.366 Y15.297 A1548.34823
G1 X32.200 Y14.659 A1548.87738
G1 X32.980 Y14.114 A1549.35683
G1 X34.115 Y13.403 A1550.03194
G1 X35.031 Y12.890 A1550.56115
G1 X35.881 Y12.463 A1551.04040
G1 X36.538 Y12.173 A1551.40238
G1 X38.234 Y12.824 F7800.000
G1 X37.284 Y12.405
G1 F1200
G1 X37.388 Y12.362 A1551.41798
G1 X38.252 Y12.032 A1551.54680
G1 X38.257 Y12.030 A1551.54747
G1 X38.613 Y11.904 A1551.59893
G1 X39.147 Y11.731 A1551.67520
G1 X39.152 Y11.729 A1551.67590
G1 X39.589 Y11.600 A1551.73936
G1 X40.485 Y11.359 A1551.86878
G1 X40.490 Y11.357 A1551.86945
G1 X40.858 Y11.269 A1551.92090
G1 X41.404 Y11.151 A1551.99675
G1 X41.408 Y11.150 A1551.99735
G1 X41.859 Y11.064 A1552.06054
G1 X42.445 Y10.967 A1552.14229
G1 X42.451 Y10.966 A1552.14294
G1 X43.156 Y10.867 A1552.24181
G1 X43.704 Y10.805 A1552.31828
G1 X43.709 Y10.804 A1552.31895
G1 X44.178 Y10.762 A1552.38319
G1 X44.641 Y10.731 A1552.44672
G1 X44.646 Y10.731 A1552.44733
G1 X45.103 Y10.710 A1552.51032
G1 X45.699 Y10.698 A1552.59231
G1 X45.704 Y10.698 A1552.59296
G1 X46.417 Y10.701 A1552.69178
G1 X46.966 Y10.717 A1552.76798
G1 X46.971 Y10.717 A1552.76864
G1 X47.443 Y10.742 A1552.83318
G1 X47.909 Y10.778 A1552.89715
G1 X47.915 Y10.778 A1552.89785
G1 X48.371 Y10.825 A1552.96181
G1 X49.290 Y10.937 A1553.09088
G1 X49.292 Y10.937 A1553.09124
G1 X49.295 Y10.938 A1553.09161
G1 X50.220 Y11.099 A1553.21702
G1 X50.226 Y11.100 A1553.21769
G1 X50.676 Y11.191 A1553.28170
G1 X51.577 Y11.400 A1553.41051
G1 X51.582 Y11.402 A1553.41119
G1 X51.947 Y11.496 A1553.46255
G1 X52.483 Y11.650 A1553.53824
G1 X52.487 Y11.651 A1553.53879
G1 X52.927 Y11.787 A1553.60170
G1 X53.376 Y11.938 A1553.66639
G1 X53.380 Y11.940 A1553.66705
G1 X54.254 Y12.261 A1553.79679
G1 X54.680 Y12.430 A1553.86063
G1 X54.686 Y12.432 A1553.86147
G1 X55.112 Y12.616 A1553.92612
G1 X55.954 Y13.001 A1554.05518
G1 X55.958 Y13.003 A1554.05591
G1 X55.961 Y13.004 A1554.05628
G1 X56.790 Y13.430 A1554.18081
G1 X56.791 Y13.431 A1554.18110
G1 X56.793 Y13.432 A1554.18140
G1 X57.599 Y13.888 A1554.30519
G1 X57.606 Y13.893 A1554.30633
G1 X57.611 Y13.896 A1554.30706
G1 X58.783 Y14.641 A1554.49222
G1 X58.788 Y14.645 A1554.49309
G1 X58.790 Y14.646 A1554.49338
G1 X59.539 Y15.184 A1554.62202
G1 X59.910 Y15.464 A1554.68675
G1 X59.914 Y15.468 A1554.68742
G1 X60.644 Y16.051 A1554.81214
G1 X60.647 Y16.053 A1554.81273
G1 X60.650 Y16.056 A1554.81316
G1 X61.343 Y16.664 A1554.93651
G1 X61.346 Y16.666 A1554.93696
G1 X61.349 Y16.669 A1554.93754
G1 X62.022 Y17.317 A1555.06227
G1 X62.026 Y17.321 A1555.06293
G1 X62.352 Y17.651 A1555.12765
G1 X62.982 Y18.322 A1555.25591
G1 X62.985 Y18.326 A1555.25664
G1 X62.987 Y18.328 A1555.25701
G1 X63.593 Y19.036 A1555.38153
G1 X63.594 Y19.037 A1555.38182
G1 X63.596 Y19.039 A1555.38212
G1 X64.168 Y19.767 A1555.50591
G1 X64.171 Y19.771 A1555.50659
G1 X64.174 Y19.775 A1555.50722
G1 X64.786 Y20.633 A1555.64792
G1 X64.789 Y20.638 A1555.64858
G1 X64.980 Y20.921 A1555.69588
G1 X65.476 Y21.697 A1555.82327
G1 X65.477 Y21.699 A1555.82348
G1 X65.479 Y21.702 A1555.82398
G1 X65.941 Y22.512 A1555.94859
G1 X65.944 Y22.516 A1555.94912
G1 X66.168 Y22.929 A1556.01335
G1 X66.379 Y23.342 A1556.07674
G1 X66.382 Y23.347 A1556.07744
G1 X66.578 Y23.756 A1556.14058
G1 X66.958 Y24.605 A1556.27031
G1 X66.960 Y24.610 A1556.27098
G1 X67.144 Y25.049 A1556.33588
G1 X67.310 Y25.478 A1556.39884
G1 X67.312 Y25.483 A1556.39945
G1 X67.468 Y25.912 A1556.46232
G1 X67.657 Y26.479 A1556.54454
G1 X67.659 Y26.484 A1556.54518
G1 X67.896 Y27.257 A1556.65744
G1 X68.018 Y27.695 A1556.72051
G1 X68.019 Y27.700 A1556.72118
G1 X68.133 Y28.149 A1556.78444
G1 X68.237 Y28.612 A1556.84935
G1 X68.238 Y28.618 A1556.85001
G1 X68.419 Y29.526 A1556.97903
G1 X68.495 Y29.977 A1557.04281
G1 X68.496 Y29.983 A1557.04348
G1 X68.614 Y30.818 A1557.15668
G1 X68.625 Y30.908 A1557.16883
G1 X68.625 Y30.912 A1557.16941
G1 X68.714 Y31.836 A1557.29336
G1 X68.714 Y31.842 A1557.29425
G1 X68.714 Y31.848 A1557.29498
G1 X68.774 Y33.231 A1557.47951
G1 X68.774 Y33.236 A1557.48024
G1 X68.774 Y33.244 A1557.48134
G1 X68.766 Y34.168 A1557.60480
G1 X68.766 Y34.170 A1557.60513
G1 X68.766 Y34.175 A1557.60572
G1 X68.716 Y35.108 A1557.73047
G1 X68.716 Y35.113 A1557.73114
G1 X68.687 Y35.478 A1557.78171
G1 X68.581 Y36.490 A1557.92238
G1 X68.581 Y36.496 A1557.92312
G1 X68.580 Y36.500 A1557.92369
G1 X68.440 Y37.417 A1558.04768
G1 X68.440 Y37.421 A1558.04825
G1 X68.439 Y37.426 A1558.04888
G1 X68.231 Y38.460 A1558.18963
G1 X68.230 Y38.465 A1558.19030
G1 X68.176 Y38.702 A1558.22366
G1 X67.926 Y39.690 A1558.36324
G1 X67.924 Y39.696 A1558.36394
G1 X67.923 Y39.699 A1558.36439
G1 X67.654 Y40.586 A1558.48837
G1 X67.652 Y40.593 A1558.48937
G1 X67.650 Y40.599 A1558.49010
G1 X67.211 Y41.822 A1558.66499
G1 X67.180 Y41.900 A1558.67636
G1 X67.178 Y41.905 A1558.67708
G1 X66.817 Y42.771 A1558.80243
G1 X66.816 Y42.772 A1558.80259
G1 X66.814 Y42.777 A1558.80333
G1 X66.420 Y43.609 A1558.93169
G1 X66.208 Y44.027 A1558.99699
G1 X66.206 Y44.033 A1558.99780
G1 X65.805 Y44.769 A1559.11455
G1 X65.530 Y45.246 A1559.19137
G1 X65.527 Y45.251 A1559.19206
G1 X65.281 Y45.653 A1559.25644
G1 X65.031 Y46.042 A1559.31972
G1 X65.029 Y46.046 A1559.32028
G1 X64.770 Y46.432 A1559.38379
G1 X64.503 Y46.812 A1559.44729
G1 X64.500 Y46.816 A1559.44785
G1 X64.229 Y47.186 A1559.51057
G1 X63.941 Y47.560 A1559.57504
G1 X63.938 Y47.563 A1559.57562
G1 X63.350 Y48.290 A1559.70240
G1 X63.273 Y48.381 A1559.71860
G1 X63.269 Y48.385 A1559.71930
G1 X62.737 Y48.980 A1559.83018
G1 X62.418 Y49.318 A1559.89466
G1 X62.415 Y49.322 A1559.89529
G1 X61.789 Y49.956 A1560.01423
G1 X61.789 Y49.956 A1560.01433
G1 X61.785 Y49.959 A1560.01500
G1 X60.861 Y50.802 A1560.18189
G1 X60.859 Y50.804 A1560.18229
G1 X60.856 Y50.806 A1560.18268
G1 X59.888 Y51.596 A1560.34950
G1 X59.884 Y51.599 A1560.35016
G1 X59.882 Y51.601 A1560.35050
G1 X59.203 Y52.100 A1560.46309
G1 X59.199 Y52.102 A1560.46370
G1 X58.856 Y52.342 A1560.52152
G1 X58.166 Y52.802 A1560.63631
G1 X58.165 Y52.803 A1560.63653
G1 X58.162 Y52.805 A1560.63701
G1 X57.344 Y53.295 A1560.76433
G1 X57.340 Y53.297 A1560.76495
G1 X57.149 Y53.407 A1560.79498
G1 X56.340 Y53.844 A1560.92041
G1 X56.339 Y53.845 A1560.92063
G1 X56.333 Y53.847 A1560.92139
G1 X55.206 Y54.385 A1561.08810
G1 X55.201 Y54.387 A1561.08876
G1 X55.198 Y54.388 A1561.08919
G1 X54.421 Y54.712 A1561.20171
G1 X54.417 Y54.714 A1561.20233
G1 X54.109 Y54.834 A1561.24768
G1 X53.245 Y55.149 A1561.37401
G1 X53.245 Y55.149 A1561.37408
G1 X53.239 Y55.151 A1561.37487
G1 X52.044 Y55.518 A1561.54170
G1 X52.039 Y55.519 A1561.54236
G1 X52.037 Y55.520 A1561.54269
G1 X51.224 Y55.725 A1561.65469
G1 X51.220 Y55.726 A1561.65518
G1 X50.808 Y55.821 A1561.71279
G1 X50.403 Y55.906 A1561.76902
G1 X50.400 Y55.907 A1561.76953
G1 X49.993 Y55.983 A1561.82578
G1 X49.576 Y56.053 A1561.88337
G1 X49.572 Y56.053 A1561.88386
G1 X48.741 Y56.175 A1561.99611
G1 X48.738 Y56.176 A1561.99654
G1 X48.736 Y56.176 A1561.99675
G1 X47.907 Y56.259 A1562.11154
G1 X47.681 Y56.278 A1562.14267
G1 X47.676 Y56.278 A1562.14339
G1 X47.068 Y56.313 A1562.22961
G1 X46.404 Y56.339 A1562.32373
G1 X46.240 Y56.342 A1562.34597
G1 X46.234 Y56.342 A1562.34668
G1 X45.386 Y56.340 A1562.45998
G1 X45.385 Y56.340 A1562.46020
G1 X45.382 Y56.340 A1562.46062
G1 X44.549 Y56.301 A1562.57541
G1 X44.323 Y56.286 A1562.60651
G1 X44.318 Y56.286 A1562.60723
G1 X43.711 Y56.231 A1562.69348
G1 X42.887 Y56.141 A1562.81090
G1 X42.882 Y56.140 A1562.81165
G1 X42.876 Y56.139 A1562.81240
G1 X42.048 Y56.011 A1562.92452
G1 X42.046 Y56.011 A1562.92479
G1 X42.044 Y56.010 A1562.92505
G1 X41.225 Y55.853 A1563.03662
G1 X41.222 Y55.852 A1563.03692
G1 X41.219 Y55.851 A1563.03744
G1 X40.404 Y55.660 A1563.14920
G1 X40.401 Y55.659 A1563.14970
G1 X40.075 Y55.576 A1563.19527
G1 X39.593 Y55.442 A1563.26312
G1 X39.589 Y55.441 A1563.26363
G1 X39.192 Y55.322 A1563.32005
G1 X38.786 Y55.190 A1563.37806
G1 X38.782 Y55.189 A1563.37867
G1 X37.996 Y54.913 A1563.49385
G1 X37.606 Y54.764 A1563.55154
G1 X37.601 Y54.762 A1563.55228
G1 X36.827 Y54.441 A1563.66807
G1 X36.446 Y54.271 A1563.72577
G1 X36.441 Y54.269 A1563.72650
G1 X35.686 Y53.906 A1563.84230
G1 X35.315 Y53.715 A1563.90000
G1 X35.310 Y53.712 A1563.90073
G1 X34.572 Y53.306 A1564.01726
G1 X34.220 Y53.101 A1564.07368
G1 X34.216 Y53.099 A1564.07431
G1 X33.859 Y52.881 A1564.13117
G1 X33.503 Y52.652 A1564.18876
G1 X33.500 Y52.650 A1564.18925
G1 X32.802 Y52.181 A1564.30161
G1 X32.800 Y52.180 A1564.30194
G1 X32.798 Y52.178 A1564.30226
G1 X32.132 Y51.686 A1564.41685
G1 X31.798 Y51.428 A1564.47528
G1 X31.794 Y51.424 A1564.47602
G1 X31.146 Y50.893 A1564.59181
G1 X30.831 Y50.619 A1564.64951
G1 X30.827 Y50.615 A1564.65024
G1 X30.210 Y50.049 A1564.76604
G1 X29.911 Y49.759 A1564.82374
G1 X29.907 Y49.755 A1564.82447
G1 X29.322 Y49.155 A1564.94027
G1 X29.039 Y48.849 A1564.99797
G1 X29.035 Y48.845 A1564.99871
G1 X28.484 Y48.214 A1565.11450
G1 X28.218 Y47.892 A1565.17220
G1 X28.215 Y47.888 A1565.17294
G1 X27.696 Y47.224 A1565.28947
G1 X27.453 Y46.896 A1565.34589
G1 X27.450 Y46.893 A1565.34652
G1 X27.209 Y46.552 A1565.40338
G1 X26.969 Y46.197 A1565.46158
G1 X26.967 Y46.193 A1565.46219
G1 X26.516 Y45.492 A1565.57748
G1 X26.302 Y45.138 A1565.63469
G1 X26.300 Y45.133 A1565.63534
G1 X25.923 Y44.474 A1565.73834
G1 X25.831 Y44.305 A1565.76446
G1 X25.829 Y44.300 A1565.76508
G1 X25.499 Y43.658 A1565.86461
G1 X25.316 Y43.279 A1565.92271
G1 X25.314 Y43.274 A1565.92342
G1 X25.003 Y42.586 A1566.02789
G1 X24.808 Y42.127 A1566.09688
G1 X24.806 Y42.122 A1566.09763
G1 X24.655 Y41.737 A1566.15485
G1 X24.368 Y40.951 A1566.27056
G1 X24.366 Y40.946 A1566.27117
G1 X24.230 Y40.545 A1566.32877
G1 X24.106 Y40.143 A1566.38607
G1 X24.105 Y40.138 A1566.38667
G1 X23.899 Y39.415 A1566.49025
G1 X23.821 Y39.119 A1566.53234
G1 X23.820 Y39.114 A1566.53305
G1 X23.682 Y38.523 A1566.61896
G1 X23.512 Y37.708 A1566.73684
G1 X23.511 Y37.702 A1566.73754
G1 X23.435 Y37.283 A1566.79546
G1 X23.371 Y36.870 A1566.85234
G1 X23.371 Y36.866 A1566.85283
G1 X23.260 Y36.037 A1566.96457
G1 X23.259 Y36.033 A1566.96510
G1 X23.259 Y36.030 A1566.96550
G1 X23.182 Y35.200 A1567.07697
G1 X23.182 Y35.198 A1567.07724
G1 X23.182 Y35.196 A1567.07750
G1 X23.136 Y34.365 A1567.18890
G1 X23.136 Y34.362 A1567.18927
G1 X23.136 Y34.358 A1567.18980
G1 X23.125 Y33.520 A1567.30176
G1 X23.125 Y33.516 A1567.30227
G1 X23.127 Y33.048 A1567.36623
G1 X23.142 Y32.583 A1567.42979
G1 X23.142 Y32.577 A1567.43049
G1 X23.168 Y32.119 A1567.49446
G1 X23.239 Y31.197 A1567.62353
G1 X23.239 Y31.191 A1567.62426
G1 X23.239 Y31.188 A1567.62463
G1 X23.353 Y30.267 A1567.74873
G1 X23.354 Y30.259 A1567.74983
G1 X23.355 Y30.254 A1567.75056
G1 X23.595 Y28.890 A1567.93511
G1 X23.596 Y28.885 A1567.93584
G1 X23.597 Y28.877 A1567.93694
G1 X23.803 Y27.977 A1568.06030
G1 X23.804 Y27.973 A1568.06098
G1 X23.805 Y27.968 A1568.06162
G1 X24.089 Y26.954 A1568.20210
G1 X24.091 Y26.949 A1568.20277
G1 X24.190 Y26.626 A1568.24950
G1 X24.488 Y25.749 A1568.37755
G1 X24.490 Y25.744 A1568.37819
G1 X24.654 Y25.299 A1568.44297
G1 X24.824 Y24.871 A1568.50593
G1 X24.826 Y24.866 A1568.50654
G1 X25.006 Y24.440 A1568.57022
G1 X25.248 Y23.902 A1568.65148
G1 X25.250 Y23.897 A1568.65216
G1 X25.393 Y23.597 A1568.69815
G1 X25.819 Y22.762 A1568.82770
G1 X25.822 Y22.756 A1568.82848
G1 X26.047 Y22.346 A1568.89376
G1 X26.509 Y21.551 A1569.02203
G1 X26.511 Y21.548 A1569.02250
G1 X26.512 Y21.546 A1569.02276
G1 X27.023 Y20.761 A1569.14778
G1 X27.025 Y20.758 A1569.14837
G1 X27.235 Y20.450 A1569.19925
G1 X27.633 Y19.898 A1569.29239
G1 X27.636 Y19.894 A1569.29307
G1 X27.841 Y19.623 A1569.34005
G1 X28.417 Y18.898 A1569.46804
G1 X28.420 Y18.894 A1569.46874
G1 X28.421 Y18.893 A1569.46898
G1 X29.030 Y18.193 A1569.59308
G1 X29.032 Y18.190 A1569.59352
G1 X29.035 Y18.187 A1569.59411
G1 X29.677 Y17.515 A1569.71818
G1 X29.680 Y17.512 A1569.71871
G1 X30.011 Y17.178 A1569.78294
G1 X30.343 Y16.861 A1569.84567
G1 X30.346 Y16.858 A1569.84623
G1 X30.685 Y16.547 A1569.90906
G1 X31.043 Y16.235 A1569.97388
G1 X31.047 Y16.231 A1569.97455
G1 X31.689 Y15.699 A1570.09086
G1 X32.121 Y15.359 A1570.16745
G1 X32.125 Y15.356 A1570.16814
G1 X32.503 Y15.074 A1570.23252
G1 X32.880 Y14.805 A1570.29582
G1 X32.883 Y14.802 A1570.29638
G1 X33.263 Y14.543 A1570.35921
G1 X33.661 Y14.285 A1570.42402
G1 X33.666 Y14.282 A1570.42469
G1 X34.378 Y13.847 A1570.54098
G1 X34.854 Y13.572 A1570.61759
G1 X34.858 Y13.569 A1570.61828
G1 X35.272 Y13.344 A1570.68266
G1 X35.688 Y13.129 A1570.74663
G1 X35.693 Y13.127 A1570.74733
G1 X36.101 Y12.929 A1570.81048
G1 X36.734 Y12.643 A1570.90729
G1 Z9.000 F7800.000
G1 X37.262 Y12.347
G1 F900
G1 X38.233 Y11.965 A1571.43333
G1 X39.127 Y11.666 A1571.90813
G1 X40.474 Y11.290 A1572.61300
G1 X41.391 Y11.085 A1573.08658
G1 X42.367 Y10.909 A1573.58628
G1 X43.702 Y10.737 A1574.26467
