; generated by PrusaSlicer 2.0.0+win64 on 2019-06-08 at 10:31:19

; 

; external perimeters extrusion width = 1.40mm
; perimeters extrusion width = 1.40mm
; infill extrusion width = 1.40mm
; solid infill extrusion width = 1.40mm
; top infill extrusion width = 1.40mm
; first layer extrusion width = 3.00mm

M107
M107
g92 z0
g1 f1000 z-310
g92 x0 y0 a0 z0
; Filament gcode
G21 ; set units to millimeters
G90 ; use absolute coordinates
G1 Z3.500 F7800.000
G1 A-2.00000 F2400.00000
G1 X14.777 Y13.986 F7800.000
G1 A0.00000 F2400.00000
G1 F1800
G1 X16.881 Y12.059 A1.14396
G1 X19.212 Y10.322 A2.30907
G1 X21.708 Y8.832 A3.47420
G1 X24.293 Y7.624 A4.61822
G1 X26.619 Y6.792 A5.60834
G1 X29.428 Y6.076 A6.77065
G1 X32.257 Y5.653 A7.91742
G1 X35.141 Y5.516 A9.07477
G1 X38.005 Y5.669 A10.22422
G1 X40.448 Y6.031 A11.21446
G1 X43.213 Y6.709 A12.35580
G1 X45.953 Y7.682 A13.52119
G1 X48.579 Y8.930 A14.68662
G1 X51.015 Y10.405 A15.82830
G1 X52.999 Y11.875 A16.81838
G1 X55.124 Y13.782 A17.96274
G1 X57.077 Y15.927 A19.12561
G1 X58.772 Y18.215 A20.26742
G1 X60.051 Y20.328 A21.25755
G1 X61.296 Y22.898 A22.40200
G1 X62.290 Y25.623 A23.56495
G1 X62.993 Y28.390 A24.70939
G1 X63.375 Y30.831 A25.69984
G1 X63.552 Y33.733 A26.86515
G1 X63.439 Y36.579 A28.00698
G1 X63.038 Y39.412 A29.15411
G1 X62.347 Y42.223 A30.31440
G1 X61.531 Y44.562 A31.30749
G1 X60.347 Y47.152 A32.44903
G1 X58.877 Y49.660 A33.61457
G1 X57.160 Y52.006 A34.78010
G1 X55.253 Y54.123 A35.92187
G1 X53.269 Y55.937 A36.99996
G1 X51.128 Y57.553 A38.07509
G1 X48.534 Y59.128 A39.29168
G1 X46.114 Y60.285 A40.36679
G1 X43.596 Y61.208 A41.44187
G1 X40.663 Y61.961 A42.65568
G1 X37.621 Y62.402 A43.88811
G1 X35.334 Y62.517 A44.80579
G1 X32.310 Y62.386 A46.01953
G1 X29.656 Y62.003 A47.09435
G1 X27.050 Y61.372 A48.16923
G1 X24.193 Y60.369 A49.38290
G1 X21.765 Y59.232 A50.45775
G1 X19.454 Y57.872 A51.53260
G1 X17.012 Y56.083 A52.74617
G1 X15.018 Y54.290 A53.82097
G1 X13.202 Y52.318 A54.89573
G1 X11.385 Y49.897 A56.10923
G1 X9.997 Y47.603 A57.18398
G1 X8.832 Y45.189 A58.25870
G1 X7.795 Y42.345 A59.47214
G1 X7.133 Y39.747 A60.54687
G1 X6.718 Y37.098 A61.62174
G1 X6.548 Y34.043 A62.84825
G1 X6.693 Y31.174 A63.99982
G1 X7.046 Y28.730 A64.98975
G1 X7.712 Y25.963 A66.13074
G1 X8.677 Y23.214 A67.29837
G1 X9.911 Y20.591 A68.46074
G1 X11.380 Y18.144 A69.60464
G1 X12.843 Y16.154 A70.59463
G1 X14.378 Y14.434 A71.51891
G1 A69.51891 F2400.00000
G1 X24.289 Y23.034 F7800.000
G1 A71.51891 F2400.00000
G1 F1800
G1 X25.029 Y22.355 A71.92161
G1 X25.466 Y21.993 A72.14913
G1 X26.272 Y21.393 A72.55184
G1 X26.744 Y21.077 A72.77936
G1 X27.606 Y20.562 A73.18208
G1 X28.135 Y20.282 A73.42190
G1 X28.702 Y20.011 A73.67403
G1 X29.252 Y19.775 A73.91386
G1 X30.194 Y19.427 A74.31660
G1 X30.765 Y19.248 A74.55643
G1 X31.343 Y19.093 A74.79627
G1 X32.296 Y18.890 A75.18672
G1 X33.259 Y18.744 A75.57717
G1 X33.854 Y18.686 A75.81702
G1 X34.462 Y18.651 A76.06099
G1 X35.295 Y18.642 A76.39497
G1 X36.070 Y18.673 A76.70602
G1 X36.681 Y18.725 A76.95165
G1 X37.274 Y18.801 A77.19152
G1 X38.263 Y18.978 A77.59431
G1 X38.816 Y19.107 A77.82188
G1 X39.782 Y19.385 A78.22468
G1 X40.319 Y19.569 A78.45225
G1 X41.251 Y19.944 A78.85506
G1 X41.766 Y20.183 A79.08264
G1 X42.628 Y20.636 A79.47316
G1 X43.461 Y21.142 A79.86368
G1 X43.956 Y21.478 A80.10357
G1 X44.445 Y21.841 A80.34747
G1 X45.093 Y22.371 A80.68306
G1 X45.665 Y22.889 A80.99259
G1 X46.101 Y23.320 A81.23840
G1 X46.508 Y23.759 A81.47830
G1 X47.134 Y24.505 A81.86884
G1 X47.713 Y25.289 A82.25939
G1 X48.026 Y25.762 A82.48699
G1 X48.538 Y26.627 A82.88986
G1 X48.816 Y27.157 A83.12977
G1 X49.076 Y27.707 A83.37365
G1 X49.398 Y28.482 A83.70995
G1 X49.659 Y29.207 A84.01881
G1 X49.839 Y29.793 A84.26468
G1 X49.992 Y30.372 A84.50459
G1 X50.198 Y31.356 A84.90747
G1 X50.286 Y31.917 A85.13508
G1 X50.387 Y32.886 A85.52565
G1 X50.429 Y33.859 A85.91622
G1 X50.424 Y34.457 A86.15614
G1 X50.393 Y35.086 A86.40837
G1 X50.339 Y35.682 A86.64828
G1 X50.198 Y36.677 A87.05116
G1 X50.090 Y37.234 A87.27877
G1 X49.847 Y38.210 A87.68164
G1 X49.674 Y38.782 A87.92156
G1 X49.476 Y39.347 A88.16148
G1 X49.097 Y40.278 A88.56435
G1 X48.844 Y40.820 A88.80426
G1 X48.554 Y41.379 A89.05647
G1 X48.257 Y41.898 A89.29638
G1 X47.714 Y42.744 A89.69925
G1 X47.383 Y43.205 A89.92685
G1 X46.757 Y43.991 A90.32970
G1 X46.378 Y44.419 A90.55853
G1 X45.717 Y45.095 A90.93771
G1 X45.073 Y45.681 A91.28675
G1 X44.659 Y46.025 A91.50266
G1 X44.232 Y46.354 A91.71857
G1 X43.514 Y46.857 A92.07007
G1 X42.792 Y47.304 A92.41048
G1 X42.047 Y47.711 A92.75089
G1 X41.255 Y48.088 A93.10237
G1 X40.784 Y48.287 A93.30721
G1 X39.936 Y48.599 A93.66975
G1 X39.449 Y48.753 A93.87457
G1 X38.601 Y48.979 A94.22604
G1 X37.770 Y49.152 A94.56642
G1 X36.903 Y49.283 A94.91788
G1 X36.368 Y49.339 A95.13376
G1 X35.237 Y49.394 A95.58759
G1 X34.105 Y49.366 A96.04140
G1 X32.979 Y49.255 A96.49521
G1 X32.419 Y49.168 A96.72215
G1 X31.890 Y49.066 A96.93801
G1 X31.029 Y48.859 A97.29319
G1 X30.339 Y48.654 A97.58198
G1 X29.703 Y48.434 A97.85156
G1 X28.904 Y48.111 A98.19703
G1 X28.127 Y47.747 A98.54115
G1 X27.492 Y47.407 A98.82952
G1 X26.913 Y47.064 A99.09950
G1 X26.195 Y46.587 A99.44493
G1 X25.515 Y46.079 A99.78524
G1 X24.843 Y45.517 A100.13662
G1 X24.466 Y45.171 A100.34140
G1 X23.849 Y44.550 A100.69277
G1 X23.266 Y43.895 A101.04414
G1 X22.945 Y43.498 A101.24891
G1 X22.408 Y42.770 A101.61134
G1 X22.125 Y42.345 A101.81611
G1 X21.667 Y41.586 A102.17131
G1 X21.329 Y40.954 A102.45876
G1 X21.037 Y40.345 A102.72961
G1 X20.694 Y39.524 A103.08601
G1 X20.519 Y39.044 A103.29076
G1 X20.257 Y38.208 A103.64211
G1 X20.049 Y37.385 A103.98239
G1 X19.886 Y36.552 A104.32268
G1 X19.765 Y35.684 A104.67403
G1 X19.686 Y34.614 A105.10437
G1 X19.678 Y33.698 A105.47137
G1 X19.717 Y32.897 A105.79293
G1 X19.790 Y32.138 A106.09839
G1 X19.911 Y31.337 A106.42311
G1 X20.066 Y30.571 A106.73655
G1 X20.207 Y30.007 A106.96963
G1 X20.500 Y29.046 A107.37230
G1 X20.704 Y28.484 A107.61210
G1 X20.942 Y27.902 A107.86420
G1 X21.191 Y27.358 A108.10399
G1 X21.641 Y26.494 A108.49437
G1 X22.144 Y25.660 A108.88475
G1 X22.839 Y24.674 A109.36850
G1 X23.360 Y24.030 A109.70051
G1 X23.869 Y23.463 A110.00603
G1 A108.00603 F2400.00000
G1 X22.685 Y21.457 F7800.000
G1 A110.00603 F2400.00000
G1 F1800
G1 X23.551 Y20.659 A110.47785
G1 X24.076 Y20.224 A110.75146
G1 X24.974 Y19.555 A111.20027
G1 X25.542 Y19.176 A111.47389
G1 X26.503 Y18.602 A111.92271
G1 X27.123 Y18.274 A112.20403
G1 X27.773 Y17.962 A112.49303
G1 X28.418 Y17.686 A112.77436
G1 X29.469 Y17.298 A113.22319
G1 X30.138 Y17.088 A113.50452
G1 X30.816 Y16.906 A113.78585
G1 X31.892 Y16.676 A114.22702
G1 X32.981 Y16.512 A114.66819
G1 X33.679 Y16.443 A114.94953
G1 X34.386 Y16.402 A115.23345
G1 X35.328 Y16.393 A115.61109
G1 X36.211 Y16.428 A115.96518
G1 X36.919 Y16.489 A116.25014
G1 X37.615 Y16.577 A116.53151
G1 X38.717 Y16.775 A116.98040
G1 X39.382 Y16.930 A117.25408
G1 X40.459 Y17.239 A117.70299
G1 X41.104 Y17.461 A117.97668
G1 X42.143 Y17.879 A118.42560
G1 X42.763 Y18.166 A118.69930
G1 X43.737 Y18.678 A119.14054
G1 X44.678 Y19.250 A119.58179
G1 X45.258 Y19.644 A119.86318
G1 X45.827 Y20.066 A120.14708
G1 X46.559 Y20.665 A120.52638
G1 X47.212 Y21.255 A120.87892
G1 X47.717 Y21.756 A121.16401
G1 X48.195 Y22.270 A121.44542
G1 X48.902 Y23.114 A121.88669
G1 X49.556 Y23.999 A122.32797
G1 X49.933 Y24.568 A122.60169
G1 X50.503 Y25.532 A123.05067
G1 X50.829 Y26.154 A123.33209
G1 X51.132 Y26.794 A123.61599
G1 X51.496 Y27.670 A123.99603
G1 X51.793 Y28.496 A124.34788
G1 X52.002 Y29.175 A124.63302
G1 X52.181 Y29.854 A124.91444
G1 X52.411 Y30.950 A125.36344
G1 X52.516 Y31.625 A125.63717
G1 X52.631 Y32.720 A126.07847
G1 X52.678 Y33.820 A126.51978
G1 X52.673 Y34.522 A126.80120
G1 X52.637 Y35.242 A127.09032
G1 X52.574 Y35.941 A127.37174
G1 X52.416 Y37.050 A127.82074
G1 X52.286 Y37.720 A128.09447
G1 X52.016 Y38.808 A128.54346
G1 X51.812 Y39.479 A128.82489
G1 X51.581 Y40.142 A129.10631
G1 X51.159 Y41.179 A129.55529
G1 X50.861 Y41.815 A129.83671
G1 X50.529 Y42.455 A130.12582
G1 X50.180 Y43.065 A130.40723
G1 X49.575 Y44.007 A130.85621
G1 X49.177 Y44.562 A131.12993
G1 X48.479 Y45.438 A131.57890
G1 X48.025 Y45.951 A131.85339
G1 X47.280 Y46.713 A132.28098
G1 X46.550 Y47.378 A132.67660
G1 X46.064 Y47.782 A132.92986
G1 X45.564 Y48.167 A133.18313
G1 X44.752 Y48.735 A133.58027
G1 X43.925 Y49.248 A133.97050
G1 X43.070 Y49.715 A134.36071
G1 X42.176 Y50.141 A134.75784
G1 X41.610 Y50.379 A135.00417
G1 X40.664 Y50.727 A135.40821
G1 X40.078 Y50.913 A135.65454
G1 X39.121 Y51.168 A136.05165
G1 X38.168 Y51.366 A136.44184
G1 X37.188 Y51.514 A136.83894
G1 X36.560 Y51.580 A137.09217
G1 X35.264 Y51.643 A137.61237
G1 X33.967 Y51.611 A138.13256
G1 X32.675 Y51.484 A138.65274
G1 X32.034 Y51.384 A138.91287
G1 X31.414 Y51.265 A139.16608
G1 X30.445 Y51.031 A139.56549
G1 X29.651 Y50.795 A139.89771
G1 X28.914 Y50.541 A140.21018
G1 X28.004 Y50.173 A140.60352
G1 X27.118 Y49.757 A140.99601
G1 X26.388 Y49.367 A141.32778
G1 X25.717 Y48.969 A141.64067
G1 X24.899 Y48.426 A142.03398
G1 X24.120 Y47.844 A142.42408
G1 X23.360 Y47.209 A142.82110
G1 X22.908 Y46.793 A143.06736
G1 X22.210 Y46.091 A143.46437
G1 X21.551 Y45.351 A143.86138
G1 X21.165 Y44.873 A144.10763
G1 X20.567 Y44.062 A144.51156
G1 X20.226 Y43.551 A144.75781
G1 X19.711 Y42.698 A145.15720
G1 X19.322 Y41.970 A145.48803
G1 X18.984 Y41.264 A145.80180
G1 X18.599 Y40.343 A146.20194
G1 X18.389 Y39.766 A146.44818
G1 X18.093 Y38.821 A146.84517
G1 X17.853 Y37.878 A147.23524
G1 X17.667 Y36.923 A147.62530
G1 X17.530 Y35.942 A148.02229
G1 X17.438 Y34.685 A148.52774
G1 X17.429 Y33.654 A148.94108
G1 X17.473 Y32.735 A149.30991
G1 X17.558 Y31.862 A149.66146
G1 X17.696 Y30.947 A150.03228
G1 X17.871 Y30.075 A150.38881
G1 X18.039 Y29.405 A150.66589
G1 X18.366 Y28.334 A151.11466
G1 X18.605 Y27.674 A151.39594
G1 X18.878 Y27.007 A151.68491
G1 X19.171 Y26.369 A151.96619
G1 X19.679 Y25.394 A152.40728
G1 X20.247 Y24.451 A152.84836
G1 X20.639 Y23.869 A153.12966
G1 X21.058 Y23.298 A153.41360
G1 X21.648 Y22.571 A153.78921
G1 X22.265 Y21.885 A154.15873
G1 A152.15873 F2400.00000
G1 X21.082 Y19.881 F7800.000
G1 A154.15873 F2400.00000
G1 F1800
G1 X22.072 Y18.964 A154.69967
G1 X22.686 Y18.455 A155.01939
G1 X23.676 Y17.717 A155.51429
G1 X24.339 Y17.274 A155.83402
G1 X25.400 Y16.641 A156.32893
G1 X26.111 Y16.265 A156.65174
G1 X26.845 Y15.914 A156.97763
G1 X27.585 Y15.596 A157.30044
G1 X28.743 Y15.168 A157.79538
G1 X29.511 Y14.928 A158.11820
G1 X30.289 Y14.719 A158.44102
G1 X31.489 Y14.463 A158.93290
G1 X32.702 Y14.280 A159.42479
G1 X33.504 Y14.201 A159.74763
G1 X34.310 Y14.154 A160.07150
G1 X35.361 Y14.144 A160.49280
G1 X36.351 Y14.183 A160.88993
G1 X37.157 Y14.252 A161.21422
G1 X37.956 Y14.354 A161.53708
G1 X39.171 Y14.572 A162.03209
G1 X39.948 Y14.753 A162.35188
G1 X41.135 Y15.094 A162.84690
G1 X41.890 Y15.353 A163.16670
G1 X43.035 Y15.814 A163.66173
G1 X43.759 Y16.149 A163.98154
G1 X44.845 Y16.720 A164.47351
G1 X45.894 Y17.358 A164.96548
G1 X46.560 Y17.810 A165.28837
G1 X47.210 Y18.292 A165.61227
G1 X48.026 Y18.960 A166.03529
G1 X48.758 Y19.621 A166.43083
G1 X49.333 Y20.191 A166.75521
G1 X49.881 Y20.781 A167.07812
G1 X50.670 Y21.722 A167.57013
G1 X51.399 Y22.709 A168.06214
G1 X51.840 Y23.374 A168.38198
G1 X52.468 Y24.437 A168.87708
G1 X52.842 Y25.151 A169.20000
G1 X53.188 Y25.881 A169.52392
G1 X53.594 Y26.857 A169.94769
G1 X53.927 Y27.784 A170.34253
G1 X54.165 Y28.558 A170.66695
G1 X54.370 Y29.337 A170.98988
G1 X54.624 Y30.545 A171.48499
G1 X54.747 Y31.334 A171.80484
G1 X54.875 Y32.554 A172.29688
G1 X54.928 Y33.781 A172.78892
G1 X54.921 Y34.586 A173.11185
G1 X54.881 Y35.398 A173.43786
G1 X54.809 Y36.201 A173.76079
G1 X54.635 Y37.424 A174.25590
G1 X54.482 Y38.207 A174.57575
G1 X54.185 Y39.405 A175.07087
G1 X53.951 Y40.176 A175.39379
G1 X53.686 Y40.937 A175.71672
G1 X53.220 Y42.081 A176.21183
G1 X52.878 Y42.810 A176.53475
G1 X52.504 Y43.532 A176.86075
G1 X52.104 Y44.231 A177.18367
G1 X51.436 Y45.271 A177.67876
G1 X50.972 Y45.919 A177.99860
G1 X50.202 Y46.885 A178.49369
G1 X49.673 Y47.483 A178.81383
G1 X48.842 Y48.332 A179.28985
G1 X48.027 Y49.075 A179.73204
G1 X47.469 Y49.538 A180.02266
G1 X46.895 Y49.981 A180.31327
G1 X45.990 Y50.614 A180.75607
G1 X45.057 Y51.192 A181.19609
G1 X44.094 Y51.718 A181.63611
G1 X43.097 Y52.193 A182.07890
G1 X42.435 Y52.472 A182.36673
G1 X41.392 Y52.856 A182.81227
G1 X40.707 Y53.072 A183.10009
G1 X39.640 Y53.357 A183.54285
G1 X38.565 Y53.581 A183.98284
G1 X37.473 Y53.746 A184.42559
G1 X36.752 Y53.821 A184.71616
G1 X36.022 Y53.870 A185.00950
G1 X35.291 Y53.893 A185.30284
G1 X34.559 Y53.888 A185.59618
G1 X33.828 Y53.856 A185.88951
G1 X33.099 Y53.798 A186.18284
G1 X32.372 Y53.712 A186.47616
G1 X31.649 Y53.600 A186.76948
G1 X30.937 Y53.463 A187.06004
G1 X29.861 Y53.204 A187.50368
G1 X28.963 Y52.937 A187.87931
G1 X28.125 Y52.648 A188.23469
G1 X27.105 Y52.236 A188.67590
G1 X26.109 Y51.768 A189.11676
G1 X25.284 Y51.327 A189.49194
G1 X24.520 Y50.874 A189.84773
G1 X23.604 Y50.265 A190.28891
G1 X22.724 Y49.609 A190.72880
G1 X21.877 Y48.900 A191.17146
G1 X21.349 Y48.415 A191.45921
G1 X20.570 Y47.632 A191.90186
G1 X19.837 Y46.806 A192.34450
G1 X19.385 Y46.249 A192.63224
G1 X18.726 Y45.354 A193.07765
G1 X18.327 Y44.757 A193.36539
G1 X17.755 Y43.810 A193.80898
G1 X17.315 Y42.987 A194.18319
G1 X16.931 Y42.184 A194.53988
G1 X16.504 Y41.162 A194.98377
G1 X16.258 Y40.488 A195.27149
G1 X15.928 Y39.434 A195.71411
G1 X15.658 Y38.371 A196.15396
G1 X15.448 Y37.294 A196.59382
G1 X15.296 Y36.200 A197.03643
G1 X15.229 Y35.479 A197.32692
G1 X15.189 Y34.756 A197.61711
G1 X15.180 Y33.609 A198.07677
G1 X15.229 Y32.573 A198.49287
G1 X15.325 Y31.585 A198.89052
G1 X15.480 Y30.557 A199.30744
G1 X15.677 Y29.580 A199.70706
G1 X15.872 Y28.803 A200.02814
G1 X16.232 Y27.622 A200.52300
G1 X16.507 Y26.865 A200.84577
G1 X16.815 Y26.113 A201.17161
G1 X17.150 Y25.381 A201.49438
G1 X17.717 Y24.293 A201.98617
G1 X18.350 Y23.242 A202.47797
G1 X18.799 Y22.574 A202.80074
G1 X19.278 Y21.923 A203.12458
G1 X19.937 Y21.111 A203.54378
G1 X20.661 Y20.308 A203.97731
G1 X22.384 Y20.236 F7800.000
G1 A201.97731 F2400.00000
G1 X20.428 Y35.504 F7800.000
G1 A203.97731 F2400.00000
G1 F1800
G1 X32.364 Y47.440 A210.83303
G1 X33.191 Y47.581 A211.17386
G1 X34.209 Y47.682 A211.58951
G1 X35.232 Y47.707 A212.00516
G1 X35.828 Y47.682 A212.24745
G1 X21.389 Y33.243 A220.54156
G1 X21.465 Y32.346 A220.90713
G1 X21.573 Y31.630 A221.20112
G1 X21.711 Y30.943 A221.48595
G1 X21.831 Y30.463 A221.68683
G1 X38.602 Y47.233 A231.31985
G1 X39.390 Y47.003 A231.65333
G1 X40.166 Y46.717 A231.98912
G1 X40.954 Y46.363 A232.34019
G1 X22.702 Y28.111 A242.82461
G1 X23.113 Y27.320 A243.18668
G1 X23.557 Y26.582 A243.53661
G1 X23.904 Y26.090 A243.78078
G1 X42.983 Y45.170 A254.74004
G1 X43.221 Y45.003 A254.85812
G1 X43.977 Y44.398 A255.25141
G1 X44.729 Y43.693 A255.66994
G1 X25.373 Y24.337 A266.78788
G1 X26.138 Y23.627 A267.21191
G1 X26.509 Y23.320 A267.40740
G1 X27.121 Y22.863 A267.71776
G1 X46.208 Y41.950 A278.68113
G1 X46.814 Y41.023 A279.13089
G1 X47.073 Y40.571 A279.34243
G1 X47.402 Y39.922 A279.63819
G1 X29.148 Y21.668 A290.12339
G1 X29.877 Y21.342 A290.44773
G1 X30.723 Y21.030 A290.81373
G1 X31.505 Y20.803 A291.14486
G1 X48.269 Y37.566 A300.77397
G1 X48.442 Y36.870 A301.06557
G1 X48.534 Y36.397 A301.26115
G1 X48.664 Y35.487 A301.63429
G1 X48.719 Y34.794 A301.91693
G1 X34.282 Y20.356 A310.20974
G1 X34.536 Y20.337 A310.31325
G1 X35.270 Y20.329 A310.61151
G1 X35.948 Y20.356 A310.88704
G1 X37.036 Y20.472 A311.33142
G1 X37.747 Y20.599 A311.62489
G1 X49.671 Y32.523 A318.47402
G1 A316.47402 F2400.00000
G1 X48.536 Y28.166 F7800.000
G1 A318.47402 F2400.00000
G1 F1800
G1 X40.900 Y20.530 A322.85995
G1 A320.85995 F2400.00000
G1 X21.569 Y39.868 F7800.000
G1 A322.85995 F2400.00000
G1 F1800
G1 X29.208 Y47.507 A327.24790
G1 Z7.000 F7800.000
G1 A325.24790 F2400.00000
G1 X19.770 Y18.511 F7800.000
G1 A327.24790 F2400.00000
G1 F300
G1 X20.449 Y17.860 A327.35668
G1 X21.164 Y17.241 A327.46609
G1 X21.865 Y16.685 A327.56957
G1 X22.903 Y15.943 A327.71714
G1 X23.700 Y15.431 A327.82667
G1 X24.473 Y14.981 A327.93018
G1 X25.653 Y14.371 A328.08388
G1 X26.468 Y14.002 A328.18733
