; generated by PrusaSlicer 2.0.0+win64 on 2019-06-06 at 07:39:14

; 

; external perimeters extrusion width = 4.50mm
; perimeters extrusion width = 4.50mm
; infill extrusion width = 4.50mm
; solid infill extrusion width = 4.50mm
; top infill extrusion width = 4.50mm
; first layer extrusion width = 3.00mm

M107
M107
g92 z0
g1 f1000 z-310
g92 x0 y0 a0 z0
; Filament gcode
G21 ; set units to millimeters
G90 ; use absolute coordinates
G1 Z4.000 F7800.000
G1 A-2.00000 F2400.00000
G1 X11.159 Y10.766 F7800.000
G1 A0.00000 F2400.00000
G1 F1800
G1 X12.997 Y9.107 A0.55135
G1 X15.326 Y7.373 A1.19755
G1 X17.784 Y5.903 A1.83509
G1 X20.414 Y4.671 A2.48155
G1 X23.112 Y3.725 A3.11796
G1 X25.512 Y3.129 A3.66848
G1 X28.334 Y2.700 A4.30372
G1 X31.237 Y2.556 A4.95082
G1 X34.096 Y2.703 A5.58786
G1 X36.545 Y3.060 A6.13894
G1 X39.294 Y3.726 A6.76837
G1 X42.053 Y4.697 A7.41945
G1 X44.646 Y5.917 A8.05746
G1 X46.791 Y7.184 A8.61182
G1 X49.108 Y8.863 A9.24884
G1 X51.294 Y10.814 A9.90114
G1 X53.254 Y12.961 A10.54814
G1 X54.963 Y15.263 A11.18642
G1 X56.246 Y17.378 A11.73695
G1 X57.501 Y19.964 A12.37684
G1 X58.500 Y22.695 A13.02411
G1 X59.209 Y25.482 A13.66411
G1 X59.638 Y28.365 A14.31291
G1 X59.771 Y30.842 A14.86507
G1 X59.656 Y33.701 A15.50218
G1 X59.254 Y36.542 A16.14077
G1 X58.683 Y38.942 A16.68997
G1 X57.756 Y41.671 A17.33142
G1 X56.550 Y44.309 A17.97718
G1 X55.097 Y46.790 A18.61702
G1 X53.378 Y49.142 A19.26551
G1 X51.728 Y51.002 A19.81893
G1 X49.772 Y52.841 A20.41674
G1 X47.326 Y54.715 A21.10246
G1 X45.036 Y56.126 A21.70121
G1 X42.288 Y57.460 A22.38125
G1 X39.762 Y58.387 A22.98002
G1 X37.156 Y59.072 A23.57993
G1 X34.546 Y59.502 A24.16867
G1 X31.431 Y59.698 A24.86354
G1 X28.385 Y59.560 A25.54217
G1 X25.727 Y59.170 A26.14012
G1 X23.118 Y58.531 A26.73803
G1 X20.258 Y57.520 A27.41321
G1 X17.829 Y56.376 A28.01084
G1 X15.519 Y55.010 A28.60836
G1 X13.077 Y53.214 A29.28307
G1 X11.085 Y51.416 A29.88036
G1 X9.271 Y49.440 A30.47750
G1 X7.455 Y47.015 A31.15182
G1 X6.070 Y44.718 A31.74880
G1 X4.906 Y42.302 A32.34571
G1 X3.871 Y39.456 A33.01976
G1 X3.211 Y36.858 A33.61657
G1 X2.797 Y34.208 A34.21353
G1 X2.627 Y31.152 A34.89480
G1 X2.778 Y28.225 A35.54732
G1 X3.210 Y25.403 A36.18261
G1 X3.808 Y23.009 A36.73207
G1 X4.772 Y20.273 A37.37771
G1 X5.990 Y17.684 A38.01459
G1 X7.487 Y15.192 A38.66177
G1 X9.230 Y12.864 A39.30907
G1 X10.752 Y11.208 A39.80977
G1 A37.80977 F2400.00000
G1 X20.184 Y19.921 F7800.000
G1 A39.80977 F2400.00000
G1 F1800
G1 X20.935 Y19.228 A40.03714
G1 X21.384 Y18.856 A40.16685
G1 X22.202 Y18.244 A40.39427
G1 X22.686 Y17.919 A40.52400
G1 X23.562 Y17.394 A40.75148
G1 X24.103 Y17.106 A40.88782
G1 X24.681 Y16.828 A41.03075
G1 X25.247 Y16.584 A41.16781
G1 X26.149 Y16.247 A41.38210
G1 X26.764 Y16.051 A41.52589
G1 X27.748 Y15.796 A41.75214
G1 X28.322 Y15.678 A41.88255
G1 X29.286 Y15.529 A42.09959
G1 X29.946 Y15.462 A42.24728
G1 X30.555 Y15.425 A42.38310
G1 X31.539 Y15.416 A42.60212
G1 X32.193 Y15.443 A42.74789
G1 X32.800 Y15.493 A42.88349
G1 X33.815 Y15.630 A43.11135
G1 X34.418 Y15.744 A43.24793
G1 X35.016 Y15.881 A43.38452
G1 X35.973 Y16.154 A43.60609
G1 X36.893 Y16.478 A43.82320
G1 X37.453 Y16.708 A43.95793
G1 X38.365 Y17.139 A44.18245
G1 X38.893 Y17.422 A44.31577
G1 X39.768 Y17.952 A44.54352
G1 X40.277 Y18.296 A44.68023
G1 X40.771 Y18.661 A44.81695
G1 X41.563 Y19.311 A45.04511
G1 X42.017 Y19.724 A45.18176
G1 X42.454 Y20.156 A45.31843
G1 X43.145 Y20.913 A45.54666
G1 X43.535 Y21.387 A45.68328
G1 X43.910 Y21.883 A45.82172
G1 X44.482 Y22.725 A46.04819
G1 X44.791 Y23.234 A46.18089
G1 X45.272 Y24.127 A46.40661
G1 X45.528 Y24.669 A46.53999
G1 X45.914 Y25.604 A46.76509
G1 X46.114 Y26.171 A46.89900
G1 X46.394 Y27.111 A47.11741
G1 X46.619 Y28.083 A47.33933
G1 X46.727 Y28.688 A47.47619
G1 X46.813 Y29.325 A47.61922
G1 X46.873 Y29.956 A47.76026
G1 X46.916 Y30.963 A47.98469
G1 X46.911 Y31.549 A48.11515
G1 X46.850 Y32.573 A48.34351
G1 X46.782 Y33.184 A48.48037
G1 X46.685 Y33.820 A48.62344
G1 X46.563 Y34.440 A48.76419
G1 X46.319 Y35.419 A48.98886
G1 X46.141 Y36.007 A49.12555
G1 X45.932 Y36.601 A49.26575
G1 X45.550 Y37.538 A49.49091
G1 X45.289 Y38.095 A49.62790
G1 X45.005 Y38.640 A49.76473
G1 X44.485 Y39.525 A49.99302
G1 X44.148 Y40.038 A50.12968
G1 X43.785 Y40.542 A50.26799
G1 X43.149 Y41.338 A50.49482
G1 X42.758 Y41.778 A50.62573
G1 X42.063 Y42.486 A50.84671
G1 X41.682 Y42.840 A50.96243
G1 X40.976 Y43.434 A51.16777
G1 X40.559 Y43.755 A51.28489
G1 X39.824 Y44.267 A51.48438
G1 X39.070 Y44.732 A51.68156
G1 X38.601 Y44.993 A51.80096
G1 X37.800 Y45.391 A52.00003
G1 X36.977 Y45.744 A52.19932
G1 X36.485 Y45.929 A52.31637
G1 X35.634 Y46.205 A52.51561
G1 X34.794 Y46.427 A52.70890
G1 X33.944 Y46.602 A52.90216
G1 X33.059 Y46.734 A53.10132
G1 X31.932 Y46.827 A53.35299
G1 X31.354 Y46.843 A53.48178
G1 X30.197 Y46.812 A53.73931
G1 X29.647 Y46.767 A53.86214
G1 X28.760 Y46.652 A54.06116
G1 X27.908 Y46.494 A54.25423
G1 X27.062 Y46.288 A54.44788
G1 X26.258 Y46.045 A54.63497
G1 X25.710 Y45.853 A54.76426
G1 X24.887 Y45.518 A54.96192
G1 X24.079 Y45.137 A55.16078
G1 X23.615 Y44.891 A55.27758
G1 X22.846 Y44.437 A55.47640
G1 X22.125 Y43.957 A55.66927
G1 X21.411 Y43.421 A55.86804
G1 X21.006 Y43.088 A55.98478
G1 X20.344 Y42.489 A56.18352
G1 X19.716 Y41.854 A56.38223
G1 X19.364 Y41.465 A56.49894
G1 X18.780 Y40.756 A56.70354
G1 X18.466 Y40.336 A56.82023
G1 X17.949 Y39.576 A57.02479
G1 X17.675 Y39.129 A57.14147
G1 X17.243 Y38.348 A57.34009
G1 X16.867 Y37.569 A57.53279
G1 X16.524 Y36.745 A57.73139
G1 X16.345 Y36.253 A57.84804
G1 X16.079 Y35.401 A58.04662
G1 X15.866 Y34.562 A58.23928
G1 X15.700 Y33.712 A58.43194
G1 X15.578 Y32.829 A58.63051
G1 X15.497 Y31.734 A58.87489
G1 X15.490 Y30.783 A59.08649
G1 X15.514 Y30.196 A59.21739
G1 X15.604 Y29.209 A59.43800
G1 X15.755 Y28.229 A59.65862
G1 X15.879 Y27.630 A59.79477
G1 X16.029 Y27.032 A59.93210
G1 X16.297 Y26.148 A60.13769
G1 X16.537 Y25.476 A60.29645
G1 X16.776 Y24.891 A60.43706
G1 X17.030 Y24.335 A60.57324
G1 X17.487 Y23.455 A60.79392
G1 X17.997 Y22.605 A61.01461
G1 X18.325 Y22.118 A61.14529
G1 X18.883 Y21.370 A61.35316
G1 X19.331 Y20.827 A61.50973
G1 X19.764 Y20.349 A61.65330
G1 A59.65330 F2400.00000
G1 X18.693 Y18.382 F7800.000
G1 A61.65330 F2400.00000
G1 F1800
G1 X19.525 Y17.616 A61.90501
G1 X20.057 Y17.174 A62.05905
G1 X20.963 Y16.496 A62.31082
G1 X21.537 Y16.111 A62.46490
G1 X22.508 Y15.529 A62.71672
G1 X23.135 Y15.195 A62.87498
G1 X23.793 Y14.879 A63.03739
G1 X24.447 Y14.596 A63.19611
G1 X25.450 Y14.222 A63.43424
G1 X26.171 Y13.993 A63.60266
G1 X27.263 Y13.709 A63.85378
G1 X27.943 Y13.569 A64.00835
G1 X29.013 Y13.405 A64.24935
G1 X29.772 Y13.327 A64.41918
G1 X30.481 Y13.284 A64.57719
G1 X31.572 Y13.274 A64.82024
G1 X32.326 Y13.305 A64.98811
G1 X33.033 Y13.364 A65.14601
G1 X34.156 Y13.516 A65.39826
G1 X34.856 Y13.647 A65.55679
G1 X35.550 Y13.807 A65.71534
G1 X36.623 Y14.113 A65.96366
G1 X37.656 Y14.477 A66.20744
G1 X38.317 Y14.748 A66.36660
G1 X39.329 Y15.226 A66.61558
G1 X39.953 Y15.561 A66.77336
G1 X40.923 Y16.147 A67.02565
G1 X41.514 Y16.547 A67.18434
G1 X42.087 Y16.970 A67.34304
G1 X42.964 Y17.690 A67.59561
G1 X43.491 Y18.170 A67.75428
G1 X43.998 Y18.671 A67.91296
G1 X44.764 Y19.509 A68.16562
G1 X45.217 Y20.060 A68.32428
G1 X45.652 Y20.635 A68.48474
G1 X46.285 Y21.567 A68.73567
G1 X46.651 Y22.171 A68.89281
G1 X47.183 Y23.161 A69.14299
G1 X47.487 Y23.802 A69.30081
G1 X47.915 Y24.838 A69.55036
G1 X48.152 Y25.509 A69.70872
G1 X48.465 Y26.564 A69.95388
G1 X48.718 Y27.653 A70.20262
G1 X48.843 Y28.356 A70.36147
G1 X48.941 Y29.080 A70.52421
G1 X49.010 Y29.810 A70.68732
G1 X49.058 Y30.926 A70.93603
G1 X49.052 Y31.621 A71.09085
G1 X48.984 Y32.755 A71.34365
G1 X48.906 Y33.464 A71.50251
G1 X48.795 Y34.187 A71.66527
G1 X48.654 Y34.905 A71.82809
G1 X48.384 Y35.990 A72.07705
G1 X48.177 Y36.673 A72.23579
G1 X47.936 Y37.361 A72.39804
G1 X47.512 Y38.398 A72.64751
G1 X47.209 Y39.045 A72.80643
G1 X46.879 Y39.677 A72.96525
G1 X46.304 Y40.656 A73.21797
G1 X45.912 Y41.252 A73.37667
G1 X45.492 Y41.837 A73.53700
G1 X44.787 Y42.718 A73.78819
G1 X44.325 Y43.239 A73.94326
G1 X43.556 Y44.023 A74.18770
G1 X43.100 Y44.445 A74.32594
G1 X42.319 Y45.103 A74.55326
G1 X41.823 Y45.484 A74.69236
G1 X40.999 Y46.058 A74.91598
G1 X40.153 Y46.580 A75.13724
G1 X39.598 Y46.889 A75.27865
G1 X38.700 Y47.335 A75.50197
G1 X37.777 Y47.731 A75.72543
G1 X37.193 Y47.951 A75.86443
G1 X36.238 Y48.260 A76.08783
G1 X35.284 Y48.512 A76.30747
G1 X34.318 Y48.711 A76.52708
G1 X33.325 Y48.859 A76.75038
G1 X32.688 Y48.924 A76.89303
G1 X31.374 Y48.985 A77.18570
G1 X30.060 Y48.949 A77.47832
G1 X29.422 Y48.897 A77.62089
G1 X28.428 Y48.768 A77.84404
G1 X27.459 Y48.589 A78.06343
G1 X26.499 Y48.355 A78.28317
G1 X25.593 Y48.082 A78.49392
G1 X24.951 Y47.856 A78.64536
G1 X24.026 Y47.480 A78.86759
G1 X23.120 Y47.053 A79.09056
G1 X22.570 Y46.761 A79.22927
G1 X21.707 Y46.252 A79.45219
G1 X20.888 Y45.706 A79.67136
G1 X20.087 Y45.105 A79.89423
G1 X19.606 Y44.709 A80.03288
G1 X18.864 Y44.038 A80.25571
G1 X18.159 Y43.326 A80.47851
G1 X17.742 Y42.864 A80.61712
G1 X17.095 Y42.079 A80.84361
G1 X16.722 Y41.580 A80.98220
G1 X16.150 Y40.739 A81.20866
G1 X15.825 Y40.208 A81.34722
G1 X15.341 Y39.333 A81.56993
G1 X14.913 Y38.447 A81.78890
G1 X14.528 Y37.523 A82.01158
G1 X14.315 Y36.938 A82.15011
G1 X14.017 Y35.984 A82.37277
G1 X13.776 Y35.030 A82.59170
G1 X13.587 Y34.065 A82.81063
G1 X13.450 Y33.074 A83.03326
G1 X13.356 Y31.802 A83.31727
G1 X13.348 Y30.748 A83.55174
G1 X13.376 Y30.054 A83.70646
G1 X13.478 Y28.947 A83.95382
G1 X13.647 Y27.849 A84.20119
G1 X13.791 Y27.154 A84.35923
G1 X13.964 Y26.462 A84.51801
G1 X14.262 Y25.476 A84.74713
G1 X14.536 Y24.710 A84.92821
G1 X14.809 Y24.041 A85.08907
G1 X15.104 Y23.395 A85.24714
G1 X15.617 Y22.409 A85.49457
G1 X16.189 Y21.456 A85.74203
G1 X16.577 Y20.880 A85.89665
G1 X17.199 Y20.046 A86.12813
G1 X17.711 Y19.427 A86.30698
G1 X18.273 Y18.811 A86.49262
G1 A84.49262 F2400.00000
G1 X17.202 Y16.844 F7800.000
G1 A86.49262 F2400.00000
G1 F1800
G1 X18.114 Y16.004 A86.76867
G1 X18.730 Y15.492 A86.94705
G1 X19.724 Y14.749 A87.22316
G1 X20.389 Y14.302 A87.40158
G1 X21.453 Y13.664 A87.67775
G1 X22.168 Y13.284 A87.85792
G1 X22.904 Y12.930 A88.03982
G1 X23.648 Y12.609 A88.22020
G1 X24.751 Y12.197 A88.48218
G1 X25.577 Y11.934 A88.67521
G1 X26.777 Y11.623 A88.95121
G1 X27.564 Y11.461 A89.12995
G1 X28.740 Y11.280 A89.39490
G1 X29.598 Y11.192 A89.58687
G1 X30.406 Y11.143 A89.76706
G1 X31.606 Y11.132 A90.03415
G1 X32.459 Y11.167 A90.22413
G1 X33.266 Y11.234 A90.40432
G1 X34.497 Y11.401 A90.68096
G1 X35.294 Y11.550 A90.86144
G1 X36.084 Y11.732 A91.04194
G1 X37.273 Y12.071 A91.31703
G1 X38.419 Y12.475 A91.58748
G1 X39.182 Y12.788 A91.77107
G1 X40.292 Y13.313 A92.04450
G1 X41.014 Y13.700 A92.22675
G1 X42.078 Y14.343 A92.50357
G1 X42.750 Y14.798 A92.68423
G1 X43.403 Y15.280 A92.86491
G1 X44.365 Y16.070 A93.14191
G1 X44.966 Y16.616 A93.32259
G1 X45.543 Y17.187 A93.50329
G1 X46.382 Y18.106 A93.78037
G1 X46.898 Y18.733 A93.96108
G1 X47.393 Y19.387 A94.14355
G1 X48.088 Y20.410 A94.41893
G1 X48.510 Y21.108 A94.60052
G1 X49.095 Y22.194 A94.87515
G1 X49.446 Y22.934 A95.05742
G1 X49.915 Y24.072 A95.33143
G1 X50.189 Y24.846 A95.51423
G1 X50.537 Y26.017 A95.78614
G1 X50.816 Y27.223 A96.06170
G1 X50.959 Y28.023 A96.24255
G1 X51.069 Y28.835 A96.42500
G1 X51.147 Y29.664 A96.61017
G1 X51.200 Y30.889 A96.88315
G1 X51.193 Y31.694 A97.06235
G1 X51.119 Y32.937 A97.33959
G1 X51.029 Y33.745 A97.52044
G1 X50.905 Y34.555 A97.70290
G1 X50.746 Y35.370 A97.88778
G1 X50.449 Y36.561 A98.16103
G1 X50.213 Y37.338 A98.34182
G1 X49.939 Y38.120 A98.52613
G1 X49.474 Y39.258 A98.79990
G1 X49.129 Y39.994 A98.98075
G1 X48.754 Y40.715 A99.16156
G1 X48.123 Y41.788 A99.43871
G1 X47.677 Y42.466 A99.61945
G1 X47.199 Y43.132 A99.80179
G1 X46.426 Y44.098 A100.07735
G1 X45.891 Y44.701 A100.25657
G1 X45.048 Y45.560 A100.52449
G1 X44.518 Y46.050 A100.68523
G1 X43.662 Y46.772 A100.93454
G1 X43.088 Y47.213 A101.09561
G1 X42.175 Y47.849 A101.34337
G1 X41.237 Y48.428 A101.58871
G1 X40.595 Y48.785 A101.75212
G1 X39.599 Y49.280 A101.99971
G1 X38.577 Y49.719 A102.24732
G1 X37.900 Y49.973 A102.40829
G1 X36.842 Y50.316 A102.65584
G1 X35.774 Y50.598 A102.90183
G1 X34.691 Y50.821 A103.14778
G1 X33.592 Y50.985 A103.39523
G1 X32.866 Y51.059 A103.55763
G1 X32.131 Y51.106 A103.72156
G1 X31.395 Y51.127 A103.88546
G1 X30.659 Y51.121 A104.04935
G1 X29.923 Y51.087 A104.21323
G1 X29.197 Y51.027 A104.37555
G1 X28.095 Y50.885 A104.62283
G1 X27.010 Y50.683 A104.86853
G1 X25.936 Y50.422 A105.11436
G1 X24.928 Y50.118 A105.34877
G1 X24.193 Y49.859 A105.52236
G1 X23.165 Y49.442 A105.76916
G1 X22.162 Y48.968 A106.01624
G1 X21.524 Y48.630 A106.17686
G1 X20.568 Y48.066 A106.42389
G1 X19.651 Y47.455 A106.66935
G1 X18.763 Y46.789 A106.91632
G1 X18.206 Y46.330 A107.07687
G1 X17.383 Y45.586 A107.32379
G1 X16.603 Y44.798 A107.57069
G1 X16.120 Y44.263 A107.73120
G1 X15.411 Y43.402 A107.97959
G1 X14.978 Y42.824 A108.14007
G1 X14.351 Y41.902 A108.38842
G1 X13.974 Y41.287 A108.54888
G1 X13.438 Y40.317 A108.79567
G1 X12.959 Y39.325 A109.04091
G1 X12.532 Y38.302 A109.28767
G1 X12.286 Y37.624 A109.44809
G1 X11.955 Y36.566 A109.69483
G1 X11.685 Y35.498 A109.94002
G1 X11.474 Y34.417 A110.18521
G1 X11.322 Y33.319 A110.43192
G1 X11.255 Y32.595 A110.59385
G1 X11.215 Y31.869 A110.75561
G1 X11.206 Y30.713 A111.01293
G1 X11.238 Y29.912 A111.19149
G1 X11.351 Y28.686 A111.46560
G1 X11.539 Y27.469 A111.73972
G1 X11.703 Y26.677 A111.91965
G1 X11.899 Y25.891 A112.09988
G1 X12.228 Y24.805 A112.35253
G1 X12.536 Y23.945 A112.55593
G1 X12.843 Y23.191 A112.73703
G1 X13.179 Y22.456 A112.91699
G1 X13.747 Y21.363 A113.19119
G1 X14.381 Y20.307 A113.46540
G1 X14.829 Y19.641 A113.64396
G1 X15.514 Y18.723 A113.89906
G1 X16.090 Y18.026 A114.10018
G1 X16.782 Y17.273 A114.32790
G1 X18.397 Y17.177 F7800.000
G1 A112.32790 F2400.00000
G1 X17.456 Y37.310 F7800.000
G1 A114.32790 F2400.00000
G1 F1800
G1 X25.013 Y44.867 A116.73633
G1 A114.73633 F2400.00000
G1 X29.284 Y46.072 F7800.000
G1 A116.73633 F2400.00000
G1 F1800
G1 X17.438 Y34.226 A120.51154
G1 X17.285 Y33.448 A120.69026
G1 X17.176 Y32.659 A120.86969
G1 X17.103 Y31.668 A121.09366
G1 X17.096 Y30.818 A121.28530
G1 X31.510 Y45.232 A125.87917
G1 X31.843 Y45.223 A125.95419
G1 X32.874 Y45.137 A126.18732
G1 X33.663 Y45.020 A126.36721
G1 X34.244 Y44.900 A126.50090
G1 X17.426 Y28.082 A131.86099
G1 X17.578 Y27.459 A132.00535
G1 X17.822 Y26.651 A132.19563
G1 X18.160 Y25.749 A132.41267
G1 X36.578 Y44.167 A138.28260
G1 X37.125 Y43.932 A138.41684
G1 X37.853 Y43.571 A138.59997
G1 X38.607 Y43.130 A138.79678
G1 X19.200 Y23.723 A144.98205
G1 X19.636 Y23.047 A145.16334
G1 X20.147 Y22.362 A145.35587
G1 X20.490 Y21.947 A145.47731
G1 X40.380 Y41.836 A151.81630
G1 X40.944 Y41.334 A151.98653
G1 X41.584 Y40.682 A152.19243
G1 X41.916 Y40.307 A152.30542
G1 X22.023 Y20.413 A158.64562
G1 X22.379 Y20.118 A158.74985
G1 X23.131 Y19.555 A158.96161
G1 X23.800 Y19.124 A159.14092
G1 X43.207 Y38.531 A165.32599
G1 X43.599 Y37.863 A165.50058
G1 X43.848 Y37.383 A165.62242
G1 X44.240 Y36.498 A165.84058
G1 X25.826 Y18.083 A171.70935
G1 X26.673 Y17.766 A171.91327
G1 X27.210 Y17.595 A172.04016
G1 X28.160 Y17.351 A172.26125
G1 X44.976 Y34.167 A177.62070
G1 X45.102 Y33.544 A177.76409
G1 X45.189 Y32.974 A177.89398
G1 X45.249 Y32.437 A178.01584
G1 X45.306 Y31.431 A178.24289
G1 X30.903 Y17.028 A182.83310
G1 X31.513 Y17.022 A182.97069
G1 X32.626 Y17.090 A183.22178
G1 X33.559 Y17.217 A183.43396
G1 X34.308 Y17.367 A183.60619
G1 X46.149 Y29.208 A187.38001
G1 A185.38001 F2400.00000
G1 X44.943 Y24.936 F7800.000
G1 A187.38001 F2400.00000
G1 F1800
G1 X37.403 Y17.395 A189.78315
G1 Z8.000 F7800.000
G1 A187.78315 F2400.00000
G1 X15.476 Y15.059 F7800.000
G1 A189.78315 F2400.00000
G1 F1794
G1 X16.124 Y14.451 A189.98504
G1
G1 X16.164 Y14.414 A189.99752
G1
G1 X16.497 Y14.117 A190.09858
G1
G1 X16.824 Y13.840 A190.19585
G1
G1 X16.867 Y13.805 A190.20839
G1
G1 X17.197 Y13.540 A190.30460
G1
G1 X17.903 Y13.001 A190.50647
G1
G1 X17.947 Y12.968 A190.51896
G1
G1 X18.308 Y12.707 A190.62008
G1
G1 X18.662 Y12.464 A190.71731
G1
G1 X18.708 Y12.434 A190.72986
G1
G1 X19.064 Y12.203 A190.82613
G1
